;FLAVOR:Marlin
;TIME:1578
;Filament used: 34.5915m
;Layer height: 0.9
;MINX:44.75
;MINY:64.759
;MINZ:0.3
;MAXX:169.25
;MAXY:149.24
;MAXZ:30
;Generated with Cura_SteamEngine main
M104 S200
M105
M109 S200
M82 ;absolute extrusion mode
G28 ;Home
G1 Z15.0 F6000 ;Move the platform down 15mm
;Prime the extruder
G92 E0
G1 F200 E3
G92 E0
G92 E0
G92 E0
G1 F1500 E-6.5
;LAYER_COUNT:34
;LAYER:0
M107
G0 F3600 X49.416 Y67.405 Z0.3
G0 X44.751 Y77.537
;TYPE:SKIRT
G1 F1500 E0
G1 F1800 X44.76 Y76.856 E0.12742
G1 X44.813 Y75.868 E0.31253
G1 X44.946 Y74.887 E0.49774
G1 X45.157 Y73.92 E0.68291
G1 X45.446 Y72.973 E0.86815
G1 X45.81 Y72.053 E1.05325
G1 X46.248 Y71.165 E1.2385
G1 X46.755 Y70.316 E1.4235
G1 X47.33 Y69.51 E1.60874
G1 X47.968 Y68.753 E1.79395
G1 X48.664 Y68.05 E1.97903
G1 X49.416 Y67.405 E2.16438
G1 X50.216 Y66.824 E2.34936
G1 X51.061 Y66.309 E2.5345
G1 X51.945 Y65.864 E2.71966
G1 X52.862 Y65.491 E2.90487
G1 X53.807 Y65.194 E3.09019
G1 X54.772 Y64.974 E3.27536
G1 X55.751 Y64.833 E3.46041
G1 X56.666 Y64.773 E3.63197
G1 X57.33 Y64.759 E3.75622
G1 X156.47 Y64.761 E22.30415
G1 X157.167 Y64.771 E22.43456
G1 X158.155 Y64.825 E22.61968
G1 X159.136 Y64.959 E22.80492
G1 X160.102 Y65.172 E22.98999
G1 X161.049 Y65.462 E23.17528
G1 X161.969 Y65.827 E23.36045
G1 X162.856 Y66.265 E23.54553
G1 X163.705 Y66.774 E23.73073
G1 X164.51 Y67.349 E23.91581
G1 X165.266 Y67.988 E24.101
G1 X165.969 Y68.685 E24.28621
G1 X166.612 Y69.437 E24.47132
G1 X167.193 Y70.239 E24.6566
G1 X167.707 Y71.085 E24.8418
G1 X168.151 Y71.969 E25.02688
G1 X168.523 Y72.886 E25.21202
G1 X168.819 Y73.831 E25.39728
G1 X169.037 Y74.796 E25.58237
G1 X169.178 Y75.776 E25.76761
G1 X169.236 Y76.676 E25.93634
G1 X169.25 Y77.34 E26.06059
G1 X169.249 Y136.406 E37.11115
G1 X169.24 Y137.133 E37.24717
G1 X169.188 Y138.121 E37.43227
G1 X169.056 Y139.102 E37.61746
G1 X168.845 Y140.069 E37.80263
G1 X168.557 Y141.016 E37.98781
G1 X168.194 Y141.937 E38.17302
G1 X167.757 Y142.825 E38.35818
G1 X167.25 Y143.675 E38.54335
G1 X166.677 Y144.481 E38.72836
G1 X166.039 Y145.239 E38.91372
G1 X165.343 Y145.942 E39.0988
G1 X164.593 Y146.587 E39.28387
G1 X163.792 Y147.17 E39.46922
G1 X162.947 Y147.685 E39.65436
G1 X162.064 Y148.131 E39.83943
G1 X161.147 Y148.504 E40.02464
G1 X160.203 Y148.802 E40.20984
G1 X159.239 Y149.023 E40.39488
G1 X158.259 Y149.165 E40.58014
G1 X157.334 Y149.226 E40.75357
G1 X156.67 Y149.24 E40.87782
G1 X57.549 Y149.239 E59.4222
G1 X56.851 Y149.23 E59.5528
G1 X55.863 Y149.177 E59.73791
G1 X54.882 Y149.045 E59.92309
G1 X53.915 Y148.834 E60.10827
G1 X52.968 Y148.545 E60.2935
G1 X52.048 Y148.181 E60.47861
G1 X51.16 Y147.744 E60.66377
G1 X50.31 Y147.237 E60.84894
G1 X49.504 Y146.663 E61.03406
G1 X48.747 Y146.025 E61.21928
G1 X48.044 Y145.329 E61.40435
G1 X47.399 Y144.578 E61.58956
G1 X46.817 Y143.777 E61.7748
G1 X46.302 Y142.932 E61.95994
G1 X45.856 Y142.048 E62.14518
G1 X45.483 Y141.131 E62.33039
G1 X45.186 Y140.187 E62.51554
G1 X44.966 Y139.222 E62.70071
G1 X44.824 Y138.243 E62.88579
G1 X44.763 Y137.312 E63.06034
G1 X44.75 Y136.648 E63.18459
G1 X44.751 Y77.537 E74.24356
G0 F3600 X46.251 Y77.557
G1 F1800 X46.26 Y76.876 E74.37098
G1 X46.312 Y75.95 E74.5445
G1 X46.444 Y75.033 E74.71783
G1 X46.654 Y74.13 E74.89128
G1 X46.942 Y73.248 E75.06486
G1 X47.304 Y72.395 E75.23823
G1 X47.738 Y71.576 E75.41163
G1 X48.242 Y70.797 E75.58522
G1 X48.811 Y70.065 E75.75868
G1 X49.44 Y69.384 E75.93211
G1 X50.126 Y68.76 E76.10561
G1 X50.863 Y68.198 E76.27901
G1 X51.646 Y67.701 E76.45252
G1 X52.469 Y67.274 E76.62598
G1 X53.325 Y66.919 E76.79935
G1 X54.209 Y66.639 E76.97284
G1 X55.114 Y66.436 E77.14636
G1 X56.033 Y66.312 E77.31985
G1 X56.708 Y66.272 E77.44636
G1 X57.33 Y66.259 E77.56275
G1 X156.448 Y66.261 E96.10657
G1 X157.145 Y66.271 E96.23698
G1 X158.071 Y66.324 E96.41051
G1 X158.988 Y66.457 E96.58386
G1 X159.891 Y66.669 E96.7574
G1 X160.772 Y66.957 E96.93081
G1 X161.625 Y67.32 E97.10424
G1 X162.444 Y67.756 E97.27783
G1 X163.222 Y68.26 E97.45125
G1 X163.954 Y68.829 E97.62471
G1 X164.633 Y69.46 E97.79813
G1 X165.256 Y70.146 E97.9715
G1 X165.818 Y70.884 E98.14505
G1 X166.314 Y71.668 E98.31861
G1 X166.74 Y72.491 E98.49199
G1 X167.094 Y73.348 E98.66547
G1 X167.373 Y74.232 E98.83889
G1 X167.575 Y75.137 E99.01237
G1 X167.698 Y76.056 E99.18584
G1 X167.737 Y76.718 E99.30991
G1 X167.75 Y77.34 E99.4263
G1 X167.749 Y136.387 E110.4733
G1 X167.74 Y137.114 E110.60933
G1 X167.689 Y138.04 E110.78283
G1 X167.558 Y138.958 E110.95632
G1 X167.348 Y139.861 E111.12977
G1 X167.061 Y140.742 E111.30312
G1 X166.7 Y141.596 E111.47658
G1 X166.266 Y142.416 E111.65016
G1 X165.763 Y143.195 E111.82364
G1 X165.195 Y143.927 E111.99698
G1 X164.566 Y144.608 E112.17042
G1 X163.881 Y145.233 E112.3439
G1 X163.144 Y145.796 E112.51742
G1 X162.362 Y146.293 E112.69077
G1 X161.539 Y146.721 E112.86432
G1 X160.683 Y147.077 E113.03776
G1 X159.8 Y147.358 E113.21112
G1 X158.895 Y147.561 E113.38465
G1 X157.976 Y147.686 E113.55816
G1 X157.292 Y147.727 E113.68636
G1 X156.67 Y147.74 E113.80276
G1 X57.568 Y147.739 E132.34358
G1 X56.87 Y147.73 E132.47418
G1 X55.945 Y147.678 E132.6475
G1 X55.027 Y147.547 E132.82099
G1 X54.124 Y147.337 E132.99444
G1 X53.242 Y147.05 E133.16797
G1 X52.389 Y146.687 E133.3414
G1 X51.57 Y146.253 E133.51481
G1 X50.791 Y145.75 E133.6883
G1 X50.058 Y145.182 E133.86179
G1 X49.378 Y144.552 E134.03522
G1 X48.754 Y143.867 E134.20857
G1 X48.191 Y143.13 E134.38208
G1 X47.694 Y142.347 E134.55559
G1 X47.266 Y141.524 E134.72914
G1 X46.911 Y140.668 E134.90252
G1 X46.631 Y139.784 E135.076
G1 X46.428 Y138.88 E135.24934
G1 X46.304 Y137.961 E135.42283
G1 X46.263 Y137.271 E135.55215
G1 X46.25 Y136.648 E135.66873
G1 X46.251 Y77.557 E146.72397
G1 F1500 E140.22397
;MESH:custom_base.STL
G0 F3600 X56.335 Y78.523
G0 X58.514 Y78.523
G0 X60.75 Y80.76
;TYPE:WALL-INNER
G1 F1500 E146.72397
G1 F1800 X60.75 Y133.24 E156.54236
G1 X153.25 Y133.24 E173.84802
G1 X153.25 Y80.76 E183.66641
G1 X60.75 Y80.76 E200.97208
G0 F3600 X59.25 Y79.26
G1 F1800 X59.25 Y134.74 E211.35173
G1 X154.75 Y134.74 E229.21866
G1 X154.75 Y79.26 E239.59832
G1 X59.25 Y79.26 E257.46525
G0 F3600 X60.07 Y80.079
G0 X58.57 Y78.579
G0 X57.75 Y77.76
;TYPE:WALL-OUTER
G1 F1800 X57.75 Y136.24 E268.40617
G1 X156.25 Y136.24 E286.83436
G1 X156.25 Y77.76 E297.77528
G1 X57.75 Y77.76 E316.20348
G0 F3600 X57.75 Y78.51
G0 X60.07 Y80.079
G0 X62.175 Y82.185
;TYPE:SKIN
G1 F1800 X62.175 Y131.815 E325.48867
G1 X151.825 Y131.815 E342.26113
G1 X151.825 Y107 E346.90373
G1 X151.825 Y82.185 E351.54632
G1 X62.175 Y82.185 E368.31878
G0 F3600 X63.182 Y131.064
G1 F1800 X62.924 Y130.806 E368.38705
G0 F3600 X62.924 Y128.685
G1 F1800 X65.303 Y131.064 E369.01649
G0 F3600 X67.424 Y131.064
G1 F1800 X62.924 Y126.564 E370.20711
G0 F3600 X62.924 Y124.443
G1 F1800 X69.546 Y131.064 E371.95905
G0 F3600 X71.667 Y131.064
G1 F1800 X62.924 Y122.321 E374.27229
G0 F3600 X62.924 Y120.2
G1 F1800 X73.788 Y131.064 E377.14672
G0 F3600 X75.91 Y131.064
G1 F1800 X62.924 Y118.079 E380.58246
G0 F3600 X62.924 Y115.957
G1 F1800 X78.031 Y131.064 E384.57951
G0 F3600 X80.152 Y131.064
G1 F1800 X62.924 Y113.836 E389.13774
G0 F3600 X62.924 Y111.715
G1 F1800 X82.273 Y131.064 E394.25715
G0 F3600 X84.395 Y131.064
G1 F1800 X62.924 Y109.593 E399.93801
G0 F3600 X62.924 Y107.472
G1 F1800 X86.516 Y131.064 E406.18005
G0 F3600 X88.637 Y131.064
G1 F1800 X62.924 Y105.351 E412.98326
G0 F3600 X62.924 Y103.229
G1 F1800 X90.759 Y131.064 E420.34792
G0 F3600 X92.88 Y131.064
G1 F1800 X62.924 Y101.108 E428.27376
G0 F3600 X62.924 Y98.987
G1 F1800 X95.001 Y131.064 E436.76079
G0 F3600 X97.123 Y131.064
G1 F1800 X62.924 Y96.865 E445.80925
G0 F3600 X62.924 Y94.744
G1 F1800 X99.244 Y131.064 E455.4189
G0 F3600 X101.365 Y131.064
G1 F1800 X62.924 Y92.623 E465.58972
G0 F3600 X62.924 Y90.501
G1 F1800 X103.487 Y131.064 E476.32199
G0 F3600 X105.608 Y131.064
G1 F1800 X62.924 Y88.38 E487.61544
G0 F3600 X62.924 Y86.259
G1 F1800 X107.729 Y131.064 E499.47007
G0 F3600 X109.851 Y131.064
G1 F1800 X62.924 Y84.137 E511.88615
G0 F3600 X63.843 Y82.935
G1 F1800 X111.972 Y131.064 E524.62025
G0 F3600 X114.093 Y131.064
G1 F1800 X65.964 Y82.935 E537.35435
G0 F3600 X68.085 Y82.935
G1 F1800 X116.215 Y131.064 E550.08859
G0 F3600 X118.336 Y131.064
G1 F1800 X70.207 Y82.935 E562.82269
G0 F3600 X72.328 Y82.935
G1 F1800 X120.457 Y131.064 E575.5568
G0 F3600 X122.579 Y131.064
G1 F1800 X74.449 Y82.935 E588.29103
G0 F3600 X76.571 Y82.935
G1 F1800 X124.7 Y131.064 E601.02514
G0 F3600 X126.821 Y131.064
G1 F1800 X78.692 Y82.935 E613.75924
G0 F3600 X80.813 Y82.935
G1 F1800 X128.943 Y131.064 E626.49348
G0 F3600 X131.064 Y131.064
G1 F1800 X82.935 Y82.935 E639.22758
G0 F3600 X85.056 Y82.935
G1 F1800 X133.185 Y131.064 E651.96168
G0 F3600 X135.307 Y131.064
G1 F1800 X87.177 Y82.935 E664.69592
G0 F3600 X89.299 Y82.935
G1 F1800 X137.428 Y131.064 E677.43002
G0 F3600 X139.549 Y131.064
G1 F1800 X91.42 Y82.935 E690.16412
G0 F3600 X93.541 Y82.935
G1 F1800 X141.67 Y131.064 E702.89823
G0 F3600 X143.792 Y131.064
G1 F1800 X95.663 Y82.935 E715.63233
G0 F3600 X97.784 Y82.935
G1 F1800 X145.913 Y131.064 E728.36643
G0 F3600 X148.034 Y131.064
G1 F1800 X99.905 Y82.935 E741.10054
G0 F3600 X102.027 Y82.935
G1 F1800 X150.156 Y131.064 E753.83464
G0 F3600 X151.074 Y129.861
G1 F1800 X104.148 Y82.935 E766.25045
G0 F3600 X106.269 Y82.935
G1 F1800 X151.074 Y127.74 E778.10508
G0 F3600 X151.074 Y125.618
G1 F1800 X108.39 Y82.935 E789.3984
G0 F3600 X110.512 Y82.935
G1 F1800 X151.074 Y123.497 E800.13041
G0 F3600 X151.074 Y121.376
G1 F1800 X112.633 Y82.935 E810.30123
G0 F3600 X114.754 Y82.935
G1 F1800 X151.074 Y119.254 E819.91074
G0 F3600 X151.074 Y117.133
G1 F1800 X116.876 Y82.935 E828.95895
G0 F3600 X118.997 Y82.935
G1 F1800 X151.074 Y115.012 E837.44597
G0 F3600 X151.074 Y112.891
G1 F1800 X121.118 Y82.935 E845.37181
G0 F3600 X123.24 Y82.935
G1 F1800 X151.074 Y110.769 E852.7362
G0 F3600 X151.074 Y108.648
G1 F1800 X125.361 Y82.935 E859.53942
G0 F3600 X127.482 Y82.935
G1 F1800 X151.074 Y106.527 E865.78146
G0 F3600 X151.074 Y104.405
G1 F1800 X129.604 Y82.935 E871.46205
G0 F3600 X131.725 Y82.935
G1 F1800 X151.074 Y102.284 E876.58146
G0 F3600 X151.074 Y100.163
G1 F1800 X133.846 Y82.935 E881.13969
G0 F3600 X135.968 Y82.935
G1 F1800 X151.074 Y98.041 E885.13648
G0 F3600 X151.074 Y95.92
G1 F1800 X138.089 Y82.935 E888.57209
G0 F3600 X140.21 Y82.935
G1 F1800 X151.074 Y93.799 E891.44651
G0 F3600 X151.074 Y91.677
G1 F1800 X142.332 Y82.935 E893.7595
G0 F3600 X144.453 Y82.935
G1 F1800 X151.074 Y89.556 E895.5113
G0 F3600 X151.074 Y87.435
G1 F1800 X146.574 Y82.935 E896.70192
G0 F3600 X148.696 Y82.935
G1 F1800 X151.074 Y85.313 E897.3311
G0 F3600 X151.074 Y83.192
G1 F1800 X150.817 Y82.935 E897.3991
;MESH:NONMESH
G0 F600 X150.817 Y82.935 Z1.2
G0 F3600 X60.75 Y80.796
;TIME_ELAPSED:169.975191
;LAYER:1
M106 S255
;TYPE:WALL-INNER
;MESH:custom_base.STL
G1 F2700 X60.75 Y133.204 E926.81386
G1 X153.25 Y133.204 E978.73085
G1 X153.25 Y107 E993.43823
G1 X153.25 Y80.796 E1008.14562
G1 X60.75 Y80.796 E1060.06261
G0 F5400 X59.25 Y79.296
G1 F2700 X59.25 Y134.704 E1091.16117
G1 X154.75 Y134.704 E1144.76195
G1 X154.75 Y107 E1160.31123
G1 X154.75 Y79.296 E1175.86051
G1 X59.25 Y79.296 E1229.4613
G0 F5400 X60.07 Y80.115
G0 X58.57 Y78.615
G0 X57.75 Y77.796
;TYPE:WALL-OUTER
G1 F1800 X57.75 Y136.204 E1262.24365
G1 X156.25 Y136.204 E1317.52823
G1 X156.25 Y107 E1333.91941
G1 X156.25 Y77.796 E1350.31059
G1 X57.75 Y77.796 E1405.59517
G0 F5400 X57.75 Y78.546
G0 X60.07 Y80.115
G0 X62.175 Y82.221
;TYPE:SKIN
G1 F1800 X62.175 Y131.779 E1433.41033
G1 X151.825 Y131.779 E1483.72771
G1 X151.825 Y107 E1497.63529
G1 X151.825 Y82.221 E1511.54287
G1 X62.175 Y82.221 E1561.86026
G0 F5400 X62.925 Y83.445
G1 F1800 X63.4 Y82.97 E1562.23729
G0 F5400 X65.521 Y82.97
G1 F1800 X62.925 Y85.566 E1564.29786
G0 F5400 X62.925 Y87.688
G1 F1800 X67.643 Y82.97 E1568.04277
G0 F5400 X69.764 Y82.97
G1 F1800 X62.925 Y89.809 E1573.47121
G0 F5400 X62.925 Y91.93
G1 F1800 X71.885 Y82.97 E1580.5832
G0 F5400 X74.007 Y82.97
G1 F1800 X62.925 Y94.052 E1589.37951
G0 F5400 X62.925 Y96.173
G1 F1800 X76.128 Y82.97 E1599.85937
G0 F5400 X78.249 Y82.97
G1 F1800 X62.925 Y98.294 E1612.02277
G0 F5400 X62.925 Y100.416
G1 F1800 X80.371 Y82.97 E1625.8705
G0 F5400 X82.492 Y82.97
G1 F1800 X62.925 Y102.537 E1641.40178
G0 F5400 X62.925 Y104.658
G1 F1800 X84.613 Y82.97 E1658.61659
G0 F5400 X86.735 Y82.97
G1 F1800 X62.925 Y106.78 E1677.51573
G0 F5400 X62.925 Y108.901
G1 F1800 X88.856 Y82.97 E1698.09842
G0 F5400 X90.977 Y82.97
G1 F1800 X62.925 Y111.022 E1720.36465
G0 F5400 X62.925 Y113.144
G1 F1800 X93.099 Y82.97 E1744.31521
G0 F5400 X95.22 Y82.97
G1 F1800 X62.925 Y115.265 E1769.94931
G0 F5400 X62.925 Y117.386
G1 F1800 X97.341 Y82.97 E1797.26695
G0 F5400 X99.463 Y82.97
G1 F1800 X62.925 Y119.508 E1826.26892
G0 F5400 X62.925 Y121.629
G1 F1800 X101.584 Y82.97 E1856.95443
G0 F5400 X103.705 Y82.97
G1 F1800 X62.925 Y123.75 E1889.32349
G0 F5400 X62.925 Y125.872
G1 F1800 X105.827 Y82.97 E1923.37688
G0 F5400 X107.948 Y82.97
G1 F1800 X62.925 Y127.993 E1959.1138
G0 F5400 X62.925 Y130.114
G1 F1800 X110.069 Y82.97 E1996.53427
G0 F5400 X112.19 Y82.97
G1 F1800 X64.132 Y131.029 E2034.68062
G0 F5400 X66.253 Y131.029
G1 F1800 X114.312 Y82.97 E2072.82737
G0 F5400 X116.433 Y82.97
G1 F1800 X68.375 Y131.029 E2110.97372
G0 F5400 X70.496 Y131.029
G1 F1800 X118.554 Y82.97 E2149.12007
G0 F5400 X120.676 Y82.97
G1 F1800 X72.617 Y131.029 E2187.26682
G0 F5400 X74.739 Y131.029
G1 F1800 X122.797 Y82.97 E2225.41317
G0 F5400 X124.918 Y82.97
G1 F1800 X76.86 Y131.029 E2263.55952
G0 F5400 X78.981 Y131.029
G1 F1800 X127.04 Y82.97 E2301.70627
G0 F5400 X129.161 Y82.97
G1 F1800 X81.103 Y131.029 E2339.85262
G0 F5400 X83.224 Y131.029
G1 F1800 X131.282 Y82.97 E2377.99897
G0 F5400 X133.404 Y82.97
G1 F1800 X85.345 Y131.029 E2416.14572
G0 F5400 X87.466 Y131.029
G1 F1800 X135.525 Y82.97 E2454.29247
G0 F5400 X137.646 Y82.97
G1 F1800 X89.588 Y131.029 E2492.43882
G0 F5400 X91.709 Y131.029
G1 F1800 X139.768 Y82.97 E2530.58557
G0 F5400 X141.889 Y82.97
G1 F1800 X93.83 Y131.029 E2568.73231
G0 F5400 X95.952 Y131.029
G1 F1800 X144.01 Y82.97 E2606.87867
G0 F5400 X146.132 Y82.97
G1 F1800 X98.073 Y131.029 E2645.02541
G0 F5400 X100.194 Y131.029
G1 F1800 X148.253 Y82.97 E2683.17216
G0 F5400 X150.374 Y82.97
G1 F1800 X102.316 Y131.029 E2721.31851
G0 F5400 X104.437 Y131.029
G1 F1800 X151.074 Y84.392 E2758.33655
G0 F5400 X151.074 Y86.513
G1 F1800 X106.558 Y131.029 E2793.67105
G0 F5400 X108.68 Y131.029
G1 F1800 X151.074 Y88.635 E2827.32121
G0 F5400 X151.074 Y90.756
G1 F1800 X110.801 Y131.029 E2859.28783
G0 F5400 X112.922 Y131.029
G1 F1800 X151.074 Y92.877 E2889.57092
G0 F5400 X151.074 Y94.999
G1 F1800 X115.044 Y131.029 E2918.16967
G0 F5400 X117.165 Y131.029
G1 F1800 X151.074 Y97.12 E2945.08488
G0 F5400 X151.074 Y99.241
G1 F1800 X119.286 Y131.029 E2970.31655
G0 F5400 X121.408 Y131.029
G1 F1800 X151.074 Y101.363 E2993.86388
G0 F5400 X151.074 Y103.484
G1 F1800 X123.529 Y131.029 E3015.72768
G0 F5400 X125.65 Y131.029
G1 F1800 X151.074 Y105.605 E3035.90794
G0 F5400 X151.074 Y107.727
G1 F1800 X127.772 Y131.029 E3054.40386
G0 F5400 X129.893 Y131.029
G1 F1800 X151.074 Y109.848 E3071.21624
G0 F5400 X151.074 Y111.969
G1 F1800 X132.014 Y131.029 E3086.34508
G0 F5400 X134.136 Y131.029
G1 F1800 X151.074 Y114.09 E3099.78999
G0 F5400 X151.074 Y116.212
G1 F1800 X136.257 Y131.029 E3111.55095
G0 F5400 X138.378 Y131.029
G1 F1800 X151.074 Y118.333 E3121.62838
G0 F5400 X151.074 Y120.454
G1 F1800 X140.499 Y131.029 E3130.02227
G0 F5400 X142.621 Y131.029
G1 F1800 X151.074 Y122.576 E3136.73182
G0 F5400 X151.074 Y124.697
G1 F1800 X144.742 Y131.029 E3141.75784
G0 F5400 X146.863 Y131.029
G1 F1800 X151.074 Y126.818 E3145.10031
