Henry99C/3DPrinting_NonPlanarSurfaces_DobotMagician/data_non_planar/data2/output/valores_angulos.txt
J1 J2 J3 J5 J6
-9.956 30.7638 75.3228 0.0 0.0
-9.1937 30.4514 75.9109 0.0 0.0
-8.4173 30.1527 76.4914 0.0 0.0
-7.6272 29.8676 77.0637 0.0 0.0
-7.7982 29.8817 77.0351 0.0 0.0
-8.0445 29.9081 76.9812 0.0 0.0
-8.2857 29.9462 76.9039 0.0 0.0
-8.5199 29.9957 76.8042 0.0 0.0
-8.7454 30.0564 76.6825 0.0 0.0
-8.9604 30.128 76.5401 0.0 0.0
-9.1635 30.2103 76.3778 0.0 0.0
-9.3532 30.3026 76.1976 0.0 0.0
-9.5284 30.4048 76.0003 0.0 0.0
-9.6879 30.5161 75.7875 0.0 0.0
-9.8307 30.6359 75.5614 0.0 0.0
-9.956 30.7638 75.3228 0.0 0.0
-10.0628 30.8986 75.0744 0.0 0.0
-10.1509 31.0399 74.8174 0.0 0.0
-10.2198 31.1867 74.5537 0.0 0.0
-10.2695 31.3381 74.2851 0.0 0.0
-10.2995 31.4932 74.0132 0.0 0.0
-10.3101 31.6508 73.7404 0.0 0.0
-10.3013 31.8098 73.4683 0.0 0.0
-10.2763 31.9577 73.218 0.0 0.0
-10.2513 32.0649 73.0381 0.0 0.0
-10.045 32.8824 71.7071 0.0 0.0
-9.8468 33.7335 70.3856 0.0 0.0
-9.6562 34.6165 69.0709 0.0 0.0
-9.4728 35.53 67.7603 0.0 0.0
-9.2959 36.4731 66.4517 0.0 0.0
-9.1256 37.445 65.1427 0.0 0.0
-8.9615 38.4453 63.8311 0.0 0.0
-8.8031 39.4739 62.5151 0.0 0.0
-8.6501 40.5308 61.1925 0.0 0.0
-8.5023 41.6163 59.8612 0.0 0.0
-8.3595 42.731 58.5192 0.0 0.0
-8.2214 43.8758 57.1646 0.0 0.0
-8.0877 45.0516 55.7948 0.0 0.0
-7.9582 46.2599 54.4078 0.0 0.0
-7.8328 47.5022 53.0008 0.0 0.0
-7.7111 48.7807 51.5714 0.0 0.0
-7.5933 50.0977 50.1161 0.0 0.0
-7.479 51.4562 48.6318 0.0 0.0
-7.3681 52.8595 47.1146 0.0 0.0
-7.2604 54.3118 45.5599 0.0 0.0
-7.2438 54.5198 45.3384 0.0 0.0
-7.2138 54.8151 45.0246 0.0 0.0
-7.1707 55.1073 44.7146 0.0 0.0
-7.1151 55.3941 44.4108 0.0 0.0
-7.0473 55.6743 44.1147 0.0 0.0
-6.9681 55.9453 43.8284 0.0 0.0
-6.8778 56.2054 43.5544 0.0 0.0
-6.7771 56.4529 43.294 0.0 0.0
-6.6667 56.6858 43.0492 0.0 0.0
-6.5473 56.9026 42.8216 0.0 0.0
-6.4198 57.1021 42.6126 0.0 0.0
-6.2848 57.2818 42.4243 0.0 0.0
-6.1431 57.4412 42.2575 0.0 0.0
-5.9959 57.5787 42.1138 0.0 0.0
-5.8439 57.6934 41.994 0.0 0.0
-5.688 57.7846 41.8988 0.0 0.0
-5.529 57.851 41.8294 0.0 0.0
-5.3682 57.8923 41.7863 0.0 0.0
-5.2061 57.9088 41.7691 0.0 0.0
-5.0583 57.9013 41.7769 0.0 0.0
-4.9497 57.8868 41.792 0.0 0.0
-4.145 57.7585 41.9259 0.0 0.0
-3.3387 57.6533 42.0359 0.0 0.0
-2.5309 57.5708 42.122 0.0 0.0
-1.7222 57.5112 42.1843 0.0 0.0
-0.9129 57.4744 42.2229 0.0 0.0
-0.1032 57.4601 42.2377 0.0 0.0
0.7066 57.4683 42.2293 0.0 0.0
1.5161 57.4994 42.1968 0.0 0.0
2.3251 57.5532 42.1405 0.0 0.0
3.1331 57.6298 42.0605 0.0 0.0
3.9398 57.7292 41.9566 0.0 0.0
4.7449 57.8516 41.8287 0.0 0.0
4.8638 57.8687 41.8109 0.0 0.0
5.0259 57.8797 41.7995 0.0 0.0
5.188 57.8652 41.8147 0.0 0.0
5.3491 57.8253 41.8563 0.0 0.0
5.5082 57.7605 41.9239 0.0 0.0
5.6644 57.6714 42.0169 0.0 0.0
5.8168 57.5583 42.1351 0.0 0.0
5.9644 57.4224 42.2772 0.0 0.0
6.1064 57.2649 42.442 0.0 0.0
6.242 57.0862 42.6291 0.0 0.0
6.37 56.8886 42.8364 0.0 0.0
6.49 56.6732 43.0624 0.0 0.0
6.6013 56.4413 43.3062 0.0 0.0
6.7026 56.1948 43.5656 0.0 0.0
6.7936 55.9358 43.8386 0.0 0.0
6.8737 55.6656 44.1239 0.0 0.0
6.9423 55.3863 44.4191 0.0 0.0
6.9987 55.1001 44.7222 0.0 0.0
7.0426 54.8083 45.0318 0.0 0.0
7.072 54.5321 45.3253 0.0 0.0
7.0882 54.334 45.5363 0.0 0.0
7.1934 52.8806 47.0918 0.0 0.0
7.3016 51.4763 48.6098 0.0 0.0
7.4132 50.117 50.0949 0.0 0.0
7.5282 48.7991 51.5509 0.0 0.0
7.6468 47.5198 52.9811 0.0 0.0
7.7692 46.2767 54.3887 0.0 0.0
7.8955 45.0676 55.7763 0.0 0.0
8.026 43.891 57.1466 0.0 0.0
8.1608 42.7456 58.5019 0.0 0.0
8.3002 41.6299 59.8446 0.0 0.0
8.4443 40.5436 61.1764 0.0 0.0
8.5935 39.4861 62.4997 0.0 0.0
8.7481 38.4568 63.8163 0.0 0.0
8.9084 37.4558 65.1284 0.0 0.0
9.0745 36.4832 66.438 0.0 0.0
9.247 35.5394 67.7472 0.0 0.0
9.426 34.6251 69.0583 0.0 0.0
9.612 33.7414 70.3736 0.0 0.0
9.8055 32.8895 71.6956 0.0 0.0
10.0068 32.0714 73.0274 0.0 0.0
10.0337 31.9587 73.2163 0.0 0.0
10.0625 31.7993 73.4861 0.0 0.0
10.0725 31.6403 73.7584 0.0 0.0
10.0632 31.4828 74.0313 0.0 0.0
10.0342 31.3278 74.3032 0.0 0.0
9.9858 31.1764 74.572 0.0 0.0
9.918 31.0295 74.8362 0.0 0.0
9.8311 30.888 75.0939 0.0 0.0
9.7254 30.7529 75.3431 0.0 0.0
9.6011 30.6248 75.5822 0.0 0.0
9.4595 30.5046 75.8094 0.0 0.0
9.3009 30.3929 76.0231 0.0 0.0
9.1265 30.2903 76.2215 0.0 0.0
8.9374 30.1975 76.403 0.0 0.0
8.7349 30.1147 76.5665 0.0 0.0
8.5204 30.0425 76.7103 0.0 0.0
8.2954 29.9812 76.8332 0.0 0.0
8.0616 29.9312 76.9344 0.0 0.0
7.8208 29.8924 77.0131 0.0 0.0
7.5888 29.8665 77.066 0.0 0.0
7.4221 29.8526 77.0945 0.0 0.0
6.1785 29.7715 77.2614 0.0 0.0
4.9289 29.7056 77.398 0.0 0.0
3.6747 29.655 77.5042 0.0 0.0
2.4169 29.6192 77.5794 0.0 0.0
1.1568 29.5983 77.6236 0.0 0.0
-0.1042 29.5921 77.6366 0.0 0.0
-1.3654 29.6009 77.6182 0.0 0.0
-2.6252 29.6242 77.5688 0.0 0.0
-3.8825 29.6624 77.4884 0.0 0.0
-5.136 29.7156 77.3772 0.0 0.0
-6.3847 29.784 77.2356 0.0 0.0
-7.6272 29.8676 77.0637 0.0 0.0
-7.572 30.0772 76.6408 0.0 0.0
-7.7419 30.0915 76.6126 0.0 0.0
-7.9712 30.1169 76.562 0.0 0.0
-8.195 30.1542 76.4884 0.0 0.0
-8.412 30.2028 76.3925 0.0 0.0
-8.6202 30.2629 76.2749 0.0 0.0
-8.8176 30.3338 76.1373 0.0 0.0
-9.003 30.4151 75.9805 0.0 0.0
-9.1749 30.5066 75.8058 0.0 0.0
-9.3317 30.6075 75.6149 0.0 0.0
-9.4727 30.7171 75.4097 0.0 0.0
-9.5967 30.8349 75.1915 0.0 0.0
-9.7026 30.96 74.9625 0.0 0.0
-9.7902 31.0916 74.7242 0.0 0.0
-9.8587 31.2288 74.4787 0.0 0.0
-9.9081 31.3704 74.2281 0.0 0.0
-9.938 31.5157 73.974 0.0 0.0
-9.9486 31.6635 73.7184 0.0 0.0
-9.9398 31.8127 73.4634 0.0 0.0
-9.9213 31.9216 73.2788 0.0 0.0
-9.8988 32.0219 73.11 0.0 0.0
-9.6994 32.8383 71.7772 0.0 0.0
-9.5077 33.6884 70.4542 0.0 0.0
-9.3235 34.5705 69.1381 0.0 0.0
-9.1462 35.4832 67.8263 0.0 0.0
-8.9753 36.4253 66.5169 0.0 0.0
-8.8107 37.3965 65.2071 0.0 0.0
-8.6521 38.3961 63.8948 0.0 0.0
-8.499 39.424 62.5782 0.0 0.0
-8.3512 40.4802 61.2551 0.0 0.0
-8.2084 41.565 59.9236 0.0 0.0
-8.0704 42.679 58.5814 0.0 0.0
-7.9369 43.8229 57.2266 0.0 0.0
-7.8077 44.9979 55.857 0.0 0.0
-7.6827 46.2053 54.4701 0.0 0.0
-7.5616 47.4464 53.0637 0.0 0.0
-7.444 48.7238 51.6347 0.0 0.0
-7.3302 50.0396 50.1799 0.0 0.0
-7.2198 51.3968 48.6964 0.0 0.0
-7.1126 52.7986 47.1801 0.0 0.0
-7.0086 54.2493 45.6265 0.0 0.0
-6.9925 54.4571 45.4051 0.0 0.0
-6.9646 54.7334 45.1113 0.0 0.0
-6.9237 55.006 44.8219 0.0 0.0
-6.8701 55.2733 44.5387 0.0 0.0
-6.8046 55.5329 44.2639 0.0 0.0
-6.7275 55.783 43.9998 0.0 0.0
-6.6393 56.0215 43.7481 0.0 0.0
-6.5411 56.2465 43.511 0.0 0.0
-6.4334 56.4563 43.2903 0.0 0.0
-6.3169 56.6487 43.0882 0.0 0.0
-6.1927 56.8227 42.9055 0.0 0.0
-6.0615 56.9767 42.7439 0.0 0.0
-5.9242 57.1093 42.605 0.0 0.0
-5.782 57.2191 42.49 0.0 0.0
-5.6356 57.3056 42.3995 0.0 0.0
-5.4862 57.3679 42.3342 0.0 0.0
-5.3348 57.4055 42.2948 0.0 0.0
-5.1823 57.418 42.2819 0.0 0.0
-5.0732 57.4114 42.2888 0.0 0.0
-4.971 57.3979 42.3029 0.0 0.0
-4.1631 57.2707 42.436 0.0 0.0
-3.3536 57.1663 42.5452 0.0 0.0
-2.5426 57.0846 42.6308 0.0 0.0
-1.7308 57.0255 42.6928 0.0 0.0
-0.9181 56.9889 42.7311 0.0 0.0
-0.1051 56.9748 42.746 0.0 0.0
0.7078 56.9828 42.7376 0.0 0.0
1.5206 57.0136 42.7053 0.0 0.0
2.3327 57.0668 42.6494 0.0 0.0
3.1439 57.1427 42.57 0.0 0.0
3.9538 57.2412 42.4669 0.0 0.0
4.7622 57.3624 42.3399 0.0 0.0
4.8816 57.3794 42.3222 0.0 0.0
5.0342 57.3889 42.3123 0.0 0.0
5.1867 57.3731 42.3289 0.0 0.0
5.3379 57.332 42.3717 0.0 0.0
5.4869 57.2663 42.4405 0.0 0.0
5.6328 57.1768 42.5342 0.0 0.0
5.7746 57.0638 42.6527 0.0 0.0
5.9111 56.9283 42.7947 0.0 0.0
6.0413 56.7717 42.9591 0.0 0.0
6.1645 56.5952 43.1444 0.0 0.0
6.28 56.4004 43.3491 0.0 0.0
6.3865 56.1886 43.5721 0.0 0.0
6.4834 55.962 43.811 0.0 0.0
6.57 55.7218 44.0645 0.0 0.0
6.6457 55.4705 44.3299 0.0 0.0
6.7097 55.2101 44.6056 0.0 0.0
6.7615 54.9421 44.8899 0.0 0.0
6.8007 54.6688 45.18 0.0 0.0
6.8213 54.4648 45.397 0.0 0.0
6.836 54.2793 45.5945 0.0 0.0
6.9374 52.8274 47.1492 0.0 0.0
7.0419 51.4243 48.6664 0.0 0.0
7.1495 50.0661 50.1509 0.0 0.0
7.2605 48.7492 51.6064 0.0 0.0
7.375 47.4705 53.0365 0.0 0.0
7.4931 46.2282 54.4439 0.0 0.0
7.615 45.0199 55.8315 0.0 0.0
7.7409 43.844 57.2018 0.0 0.0
7.8711 42.6992 58.5571 0.0 0.0
8.0056 41.5844 59.8999 0.0 0.0
8.1446 40.4987 61.2321 0.0 0.0
8.2887 39.4417 62.5557 0.0 0.0
8.438 38.413 63.8729 0.0 0.0
8.5927 37.4126 65.1857 0.0 0.0
8.7531 36.4404 66.4964 0.0 0.0
8.9196 35.4972 67.8066 0.0 0.0
9.0924 34.5836 69.1188 0.0 0.0
9.2721 33.7007 70.4355 0.0 0.0
9.4589 32.8497 71.759 0.0 0.0
9.6533 32.0325 73.0924 0.0 0.0
9.6792 31.9199 73.2816 0.0 0.0
9.7043 31.7708 73.5346 0.0 0.0
9.7105 31.622 73.7899 0.0 0.0
9.6972 31.4747 74.0454 0.0 0.0
9.6646 31.33 74.2993 0.0 0.0
9.6122 31.1891 74.5493 0.0 0.0
9.5408 31.0529 74.7938 0.0 0.0
9.4506 30.9224 75.0311 0.0 0.0
9.342 30.7984 75.259 0.0 0.0
9.2154 30.6819 75.4752 0.0 0.0
9.0722 30.5737 75.6786 0.0 0.0
8.913 30.4742 75.8674 0.0 0.0
8.739 30.3843 76.0396 0.0 0.0
8.5516 30.3045 76.194 0.0 0.0
8.3524 30.2353 76.3289 0.0 0.0
8.1428 30.177 76.4432 0.0 0.0
7.9248 30.13 76.536 0.0 0.0
7.6997 30.0946 76.6064 0.0 0.0
7.5286 30.0757 76.6439 0.0 0.0
7.3733 30.0624 76.6706 0.0 0.0
6.1382 29.9802 76.8354 0.0 0.0
4.897 29.9134 76.9703 0.0 0.0
3.6515 29.862 77.0751 0.0 0.0
2.4026 29.8257 77.1494 0.0 0.0
1.1514 29.8045 77.1931 0.0 0.0
-0.1012 29.7982 77.206 0.0 0.0
-1.3535 29.8071 77.1879 0.0 0.0
-2.6044 29.8307 77.1392 0.0 0.0
-3.8529 29.8694 77.0599 0.0 0.0
-5.098 29.9233 76.9502 0.0 0.0
-6.338 29.9925 76.8104 0.0 0.0
-7.572 30.0772 76.6408 0.0 0.0
-7.3826 30.5564 75.7113 0.0 0.0
-7.1985 31.0549 74.7902 0.0 0.0
-7.0195 31.5715 73.8772 0.0 0.0
-6.9558 31.9198 73.282 0.0 0.0
-6.3641 32.2417 72.7445 0.0 0.0
-5.2356 32.162 72.8763 0.0 0.0
-4.103 32.0981 72.9827 0.0 0.0
-2.9672 32.0498 73.0633 0.0 0.0
-1.829 32.0172 73.1181 0.0 0.0
-0.6894 32.0 73.1468 0.0 0.0
0.4505 31.9984 73.1496 0.0 0.0
1.5903 32.0123 73.1263 0.0 0.0
2.7288 32.0417 73.077 0.0 0.0
3.8651 32.0867 73.0018 0.0 0.0
4.9985 32.1473 72.9008 0.0 0.0
6.1279 32.2237 72.7742 0.0 0.0
6.0069 33.0412 71.456 0.0 0.0
5.8905 33.8912 70.1468 0.0 0.0
5.7785 34.7719 68.8446 0.0 0.0
5.6707 35.6822 67.5462 0.0 0.0
5.5668 36.6209 66.2501 0.0 0.0
5.4666 37.5877 64.9534 0.0 0.0
5.37 38.5819 63.6547 0.0 0.0
5.2768 39.6034 62.3515 0.0 0.0
5.1867 40.6526 61.0418 0.0 0.0
5.0996 41.7294 59.724 0.0 0.0
5.0154 42.8348 58.3956 0.0 0.0
4.9339 43.9691 57.055 0.0 0.0
4.855 45.1337 55.7 0.0 0.0
4.7786 46.33 54.3278 0.0 0.0
4.7046 47.5593 52.9366 0.0 0.0
4.6328 48.824 51.5233 0.0 0.0
4.5631 50.1258 50.0852 0.0 0.0
4.4956 51.4682 48.6187 0.0 0.0
4.43 52.8539 47.1206 0.0 0.0
3.6113 52.7569 47.2249 0.0 0.0
2.7911 52.6798 47.3079 0.0 0.0
1.9698 52.6226 47.3696 0.0 0.0
1.1477 52.5851 47.4099 0.0 0.0
0.3251 52.5675 47.4291 0.0 0.0
-0.4975 52.5695 47.4268 0.0 0.0
-1.32 52.5913 47.4032 0.0 0.0
-2.142 52.6329 47.3584 0.0 0.0
-2.9631 52.6943 47.2923 0.0 0.0
-3.783 52.7756 47.2048 0.0 0.0
-4.6013 52.8767 47.0959 0.0 0.0
-4.6695 51.4907 48.5943 0.0 0.0
-4.7396 50.1479 50.0609 0.0 0.0
-4.8119 48.8458 51.4991 0.0 0.0
-4.8865 47.5808 52.9125 0.0 0.0
-4.9633 46.3513 54.3037 0.0 0.0
-5.0427 45.1547 55.6758 0.0 0.0
-5.1246 43.9899 57.0307 0.0 0.0
-5.2092 42.8553 58.371 0.0 0.0
-5.2966 41.7497 59.6992 0.0 0.0
-5.387 40.6728 61.0168 0.0 0.0
-5.4806 39.6234 62.3262 0.0 0.0
-5.5774 38.6017 63.629 0.0 0.0
-5.6777 37.6074 64.9274 0.0 0.0
-5.7816 36.6404 66.2237 0.0 0.0
-5.8895 35.7015 67.5194 0.0 0.0
-6.0014 34.7909 68.8171 0.0 0.0
-6.1176 33.9099 70.1186 0.0 0.0
-6.2384 33.0595 71.427 0.0 0.0
-6.3641 32.2417 72.7445 0.0 0.0
-6.7598 32.0246 73.1056 0.0 0.0
-5.6611 31.943 73.2428 0.0 0.0
-4.5579 31.876 73.3559 0.0 0.0
-3.4516 31.8237 73.4446 0.0 0.0
-2.3427 31.7859 73.5088 0.0 0.0
-1.2318 31.7627 73.5486 0.0 0.0
-0.1202 31.7539 73.5636 0.0 0.0
0.9914 31.7595 73.5538 0.0 0.0
2.1026 31.7797 73.5196 0.0 0.0
3.2119 31.8143 73.4606 0.0 0.0
4.3189 31.8635 73.3772 0.0 0.0
5.4228 31.9272 73.2693 0.0 0.0
6.5225 32.0057 73.1373 0.0 0.0
6.3954 32.7976 71.8419 0.0 0.0
6.2732 33.6213 70.5564 0.0 0.0
6.1555 34.475 69.2781 0.0 0.0
6.0421 35.3574 68.0045 0.0 0.0
5.9329 36.2676 66.7335 0.0 0.0
5.8275 37.2048 65.4629 0.0 0.0
5.7257 38.1685 64.1907 0.0 0.0
5.6275 39.1587 62.9152 0.0 0.0
5.5325 40.1751 61.6344 0.0 0.0
5.4407 41.2182 60.3464 0.0 0.0
5.3519 42.2883 59.0494 0.0 0.0
5.2659 43.386 57.7415 0.0 0.0
5.1826 44.5122 56.4206 0.0 0.0
5.102 45.6681 55.0847 0.0 0.0
5.0238 46.855 53.7316 0.0 0.0
4.9479 48.0745 52.3588 0.0 0.0
4.8743 49.3287 50.9638 0.0 0.0
4.8028 50.6199 49.5437 0.0 0.0
4.7334 51.9509 48.0952 0.0 0.0
4.666 53.3251 46.6146 0.0 0.0
3.8768 53.2241 46.7228 0.0 0.0
3.0859 53.142 46.811 0.0 0.0
2.294 53.0786 46.879 0.0 0.0
1.5013 53.0339 46.9269 0.0 0.0
0.7078 53.008 46.9549 0.0 0.0
-0.0858 53.0007 46.9628 0.0 0.0
-0.8794 53.012 46.9505 0.0 0.0
-1.6728 53.042 46.9183 0.0 0.0
-2.4654 53.0907 46.866 0.0 0.0
-3.2571 53.1581 46.7936 0.0 0.0
-4.0476 53.2443 46.7011 0.0 0.0
-4.8365 53.3494 46.5885 0.0 0.0
-4.9064 51.9748 48.0693 0.0 0.0
-4.9783 50.6434 49.518 0.0 0.0
-5.0523 49.3518 50.9382 0.0 0.0
-5.1286 48.0973 52.3333 0.0 0.0
-5.2072 46.8775 53.706 0.0 0.0
-5.2882 45.6904 55.0591 0.0 0.0
-5.3718 44.5343 56.3949 0.0 0.0
-5.4581 43.4078 57.7156 0.0 0.0
-5.5472 42.3099 59.0234 0.0 0.0
-5.6392 41.2397 60.3202 0.0 0.0
-5.7343 40.1964 61.6079 0.0 0.0
-5.8327 39.1797 62.8883 0.0 0.0
-5.9345 38.1894 64.1635 0.0 0.0
-6.0398 37.2255 65.4352 0.0 0.0
-6.149 36.288 66.7052 0.0 0.0
-6.2622 35.3777 67.9758 0.0 0.0
-6.3797 34.495 69.2488 0.0 0.0
-6.5015 33.641 70.5265 0.0 0.0
-6.6282 32.817 71.8112 0.0 0.0
-6.7598 32.0246 73.1056 0.0 0.0
-6.5432 32.1427 72.9083 0.0 0.0
-6.9408 31.9277 73.2685 0.0 0.0
-7.1599 31.812 73.4645 0.0 0.0
-5.9961 31.722 73.6181 0.0 0.0
-4.827 31.6482 73.7447 0.0 0.0
-3.6542 31.5906 73.8441 0.0 0.0
-2.4783 31.5491 73.916 0.0 0.0
-1.3001 31.5235 73.9603 0.0 0.0
-0.121 31.5139 73.977 0.0 0.0
1.0582 31.5203 73.9661 0.0 0.0
2.2367 31.5426 73.9274 0.0 0.0
3.4131 31.5808 73.8611 0.0 0.0
4.5867 31.6351 73.7674 0.0 0.0
5.7566 31.7055 73.6463 0.0 0.0
6.9215 31.7922 73.4982 0.0 0.0
6.7818 32.5995 72.16 0.0 0.0
6.6475 33.4411 70.833 0.0 0.0
6.5185 34.3149 69.5141 0.0 0.0
6.3944 35.2195 68.2007 0.0 0.0
6.2749 36.1538 66.8903 0.0 0.0
6.1597 37.1168 65.5806 0.0 0.0
6.0487 38.1082 64.2695 0.0 0.0
5.9416 39.1276 62.9548 0.0 0.0
5.8382 40.175 61.6346 0.0 0.0
5.7384 41.2507 60.3067 0.0 0.0
5.6418 42.3551 58.9691 0.0 0.0
5.5485 43.489 57.6198 0.0 0.0
5.4582 44.6533 56.2565 0.0 0.0
5.3708 45.8493 54.877 0.0 0.0
5.2861 47.0785 53.4787 0.0 0.0
5.2041 48.3428 52.059 0.0 0.0
5.1245 49.6445 50.6151 0.0 0.0
5.0474 50.9862 49.1435 0.0 0.0
4.9725 52.3712 47.6408 0.0 0.0
4.8998 53.8033 46.1025 0.0 0.0
4.0721 53.6903 46.2234 0.0 0.0
3.2425 53.5983 46.3218 0.0 0.0
2.4117 53.5273 46.3977 0.0 0.0
1.58 53.4773 46.4513 0.0 0.0
0.7473 53.4482 46.4826 0.0 0.0
-0.0855 53.4399 46.4915 0.0 0.0
-0.9182 53.4524 46.478 0.0 0.0
-1.7507 53.4859 46.4422 0.0 0.0
-2.5823 53.5402 46.384 0.0 0.0
-3.4129 53.6155 46.3035 0.0 0.0
-4.2421 53.7117 46.2004 0.0 0.0
-5.0694 53.8291 46.0749 0.0 0.0
-5.1446 52.3965 47.6134 0.0 0.0
-5.2221 51.0111 49.1164 0.0 0.0
-5.3018 49.669 50.5881 0.0 0.0
-5.3841 48.367 52.0321 0.0 0.0
-5.469 47.1023 53.4517 0.0 0.0
-5.5565 45.8728 54.85 0.0 0.0
-5.6469 44.6766 56.2295 0.0 0.0
-5.7403 43.512 57.5926 0.0 0.0
-5.8368 42.3779 58.9417 0.0 0.0
-5.9366 41.2733 60.279 0.0 0.0
-6.0399 40.1974 61.6066 0.0 0.0
-6.1468 39.1498 62.9265 0.0 0.0
-6.2575 38.1302 64.2408 0.0 0.0
-6.3723 37.1386 65.5514 0.0 0.0
-6.4914 36.1753 66.8605 0.0 0.0
-6.6149 35.2408 68.1703 0.0 0.0
-6.7433 34.3359 69.483 0.0 0.0
-6.8767 33.4617 70.8011 0.0 0.0
-7.0154 32.6198 72.1274 0.0 0.0
-7.1599 31.812 73.4645 0.0 0.0
-6.9811 31.7971 73.4899 0.0 0.0
-6.5432 32.1427 72.9083 0.0 0.0
-5.9921 32.452 72.3994 0.0 0.0
-4.8236 32.3739 72.5271 0.0 0.0
-3.651 32.3128 72.6272 0.0 0.0
-2.4754 32.2688 72.6997 0.0 0.0
-1.2976 32.2417 72.7443 0.0 0.0
-0.1188 32.2316 72.7612 0.0 0.0
1.0602 32.2383 72.75 0.0 0.0
2.2382 32.262 72.711 0.0 0.0
3.4143 32.3026 72.6441 0.0 0.0
4.5876 32.3602 72.5495 0.0 0.0
5.757 32.4349 72.4273 0.0 0.0
5.6413 33.2811 71.0805 0.0 0.0
5.5301 34.1606 69.7431 0.0 0.0
5.4232 35.0721 68.4116 0.0 0.0
5.3204 36.0138 67.0838 0.0 0.0
5.2214 36.9854 65.7571 0.0 0.0
5.1259 37.9858 64.4295 0.0 0.0
5.0339 39.0151 63.0982 0.0 0.0
4.9452 40.073 61.762 0.0 0.0
4.8595 41.1599 60.4178 0.0 0.0
4.7767 42.2762 59.0639 0.0 0.0
4.6966 43.4223 57.6985 0.0 0.0
4.6193 44.5998 56.3186 0.0 0.0
4.5444 45.8094 54.9226 0.0 0.0
4.4719 47.0533 53.5072 0.0 0.0
4.4016 48.3327 52.0703 0.0 0.0
4.3336 49.6506 50.6082 0.0 0.0
4.2676 51.0093 49.1183 0.0 0.0
4.2036 52.4127 47.596 0.0 0.0
3.3478 52.3189 47.6972 0.0 0.0
2.4905 52.2465 47.7754 0.0 0.0
1.6321 52.1955 47.8306 0.0 0.0
0.7729 52.1657 47.8627 0.0 0.0
-0.0866 52.1572 47.8718 0.0 0.0
-0.9461 52.17 47.8581 0.0 0.0
-1.8051 52.204 47.8212 0.0 0.0
-2.6633 52.2594 47.7615 0.0 0.0
-3.5203 52.336 47.6786 0.0 0.0
-4.3758 52.4341 47.5728 0.0 0.0
-4.4424 51.0304 49.0952 0.0 0.0
-4.5111 49.6714 50.5853 0.0 0.0
-4.5819 48.3532 52.0475 0.0 0.0
-4.655 47.0735 53.4844 0.0 0.0
-4.7304 45.8294 54.8997 0.0 0.0
-4.8084 44.6196 56.2957 0.0 0.0
-4.8889 43.4419 57.6754 0.0 0.0
-4.9721 42.2955 59.0406 0.0 0.0
-5.0583 41.1791 60.3943 0.0 0.0
-5.1475 40.092 61.7382 0.0 0.0
-5.2398 39.034 63.0742 0.0 0.0
-5.3356 38.0045 64.4051 0.0 0.0
-5.4348 37.0039 65.7323 0.0 0.0
-5.5379 36.0321 67.0585 0.0 0.0
-5.6449 35.0901 68.3857 0.0 0.0
-5.7561 34.1784 69.7166 0.0 0.0
-5.8717 33.2986 71.0534 0.0 0.0
-5.9921 32.452 72.3994 0.0 0.0
-4.8393 32.3917 72.4978 0.0 0.0
-3.6834 32.3478 72.5698 0.0 0.0
-2.5255 32.3205 72.6145 0.0 0.0
-1.3666 32.3097 72.6323 0.0 0.0
-0.2077 32.3153 72.623 0.0 0.0
0.9507 32.3372 72.5871 0.0 0.0
2.1073 32.3758 72.5239 0.0 0.0
3.2612 32.4309 72.4339 0.0 0.0
4.4115 32.5024 72.3175 0.0 0.0
5.5573 32.5907 72.1743 0.0 0.0
5.5027 32.5433 72.251 0.0 0.0
5.0046 32.5107 72.304 0.0 0.0
5.5094 32.9498 71.6003 0.0 0.0
5.4622 33.315 71.0281 0.0 0.0
4.9887 32.8925 71.691 0.0 0.0
4.5057 32.4812 72.3519 0.0 0.0
4.0061 32.4548 72.3949 0.0 0.0
4.7211 33.0586 71.4284 0.0 0.0
5.4159 33.6864 70.4572 0.0 0.0
5.3703 34.0636 69.888 0.0 0.0
4.7645 33.5013 70.7403 0.0 0.0
4.143 32.9571 71.5887 0.0 0.0
3.5057 32.4315 72.4327 0.0 0.0
3.005 32.4114 72.4656 0.0 0.0
3.6057 32.8964 71.6849 0.0 0.0
4.1925 33.3974 70.9005 0.0 0.0
4.7656 33.9142 70.1123 0.0 0.0
5.3255 34.4465 69.3199 0.0 0.0
5.2814 34.8353 68.7526 0.0 0.0
4.6158 34.1916 69.6969 0.0 0.0
3.9311 33.5701 70.6347 0.0 0.0
3.2274 32.971 71.5667 0.0 0.0
2.5039 32.3944 72.4935 0.0 0.0
2.0021 32.3805 72.5163 0.0 0.0
2.6829 32.9115 71.6607 0.0 0.0
3.3466 33.4624 70.8002 0.0 0.0
3.9932 34.0324 69.9347 0.0 0.0
4.6237 34.6217 69.0633 0.0 0.0
5.2381 35.2296 68.1864 0.0 0.0
5.1955 35.6293 67.6206 0.0 0.0
4.4986 34.9281 68.6187 0.0 0.0
3.7814 34.2513 69.6083 0.0 0.0
3.043 33.599 70.5906 0.0 0.0
2.283 32.9717 71.5654 0.0 0.0
1.5002 32.3697 72.534 0.0 0.0
0.9982 32.362 72.5466 0.0 0.0
1.7383 32.9198 71.6478 0.0 0.0
2.4587 33.4997 70.7428 0.0 0.0
3.1597 34.1014 69.8315 0.0 0.0
3.8422 34.7244 68.9136 0.0 0.0
4.5067 35.3689 67.9883 0.0 0.0
5.1535 36.0344 67.0553 0.0 0.0
5.1122 36.4451 66.4899 0.0 0.0
4.5019 35.8037 67.3764 0.0 0.0
3.8758 35.1809 68.2558 0.0 0.0
3.2338 34.5774 69.128 0.0 0.0
2.5753 33.9931 69.9936 0.0 0.0
1.8998 33.4282 70.853 0.0 0.0
1.2066 32.8827 71.7065 0.0 0.0
0.4957 32.3574 72.5542 0.0 0.0
-0.0066 32.3558 72.5566 0.0 0.0
0.7806 32.9292 71.6328 0.0 0.0
1.5464 33.5266 70.7016 0.0 0.0
2.291 34.1473 69.7629 0.0 0.0
3.0152 34.7913 68.8164 0.0 0.0
3.7196 35.4583 67.8615 0.0 0.0
4.405 36.1484 66.8977 0.0 0.0
5.0716 36.861 65.9249 0.0 0.0
5.0316 37.2821 65.3596 0.0 0.0
4.4008 36.5937 66.2872 0.0 0.0
3.7534 35.9259 67.2059 0.0 0.0
3.0888 35.2787 68.1162 0.0 0.0
2.4064 34.6523 69.0186 0.0 0.0
1.7061 34.0466 69.9135 0.0 0.0
0.9871 33.4621 70.8006 0.0 0.0
0.2489 32.899 71.6808 0.0 0.0
-0.5089 32.3574 72.554 0.0 0.0
-1.0114 32.3621 72.5463 0.0 0.0
-0.1849 32.9442 71.6091 0.0 0.0
0.6188 33.5516 70.6632 0.0 0.0
1.3999 34.1836 69.7089 0.0 0.0
2.1592 34.8402 68.7457 0.0 0.0
2.8977 35.5212 67.7727 0.0 0.0
3.6154 36.2263 66.7903 0.0 0.0
4.3135 36.9555 65.7972 0.0 0.0
4.9922 37.7086 64.7938 0.0 0.0
4.9535 38.1402 64.2277 0.0 0.0
4.3092 37.4109 65.1881 0.0 0.0
3.6475 36.7032 66.1383 0.0 0.0
2.9681 36.0177 67.0785 0.0 0.0
2.2701 35.3539 68.0094 0.0 0.0
1.5535 34.7124 68.9311 0.0 0.0
0.8172 34.0928 69.8442 0.0 0.0
0.0611 33.4959 70.7487 0.0 0.0
-0.7158 32.9214 71.6452 0.0 0.0
-1.5135 32.3699 72.5335 0.0 0.0
-2.0153 32.3808 72.5157 0.0 0.0
-1.2398 32.9074 71.6674 0.0 0.0
-0.484 33.4549 70.8117 0.0 0.0
0.2528 34.0235 69.9479 0.0 0.0
0.971 34.6129 69.0761 0.0 0.0
1.6709 35.2226 68.1963 0.0 0.0
2.3533 35.8529 67.3076 0.0 0.0
3.0185 36.5035 66.4101 0.0 0.0
3.6669 37.1745 65.5034 0.0 0.0
4.2989 37.8654 64.5873 0.0 0.0
4.9153 38.5769 63.661 0.0 0.0
4.8777 39.0191 63.0932 0.0 0.0
4.2246 38.2527 64.0812 0.0 0.0
3.5538 37.5093 65.0573 0.0 0.0
2.8647 36.789 66.0222 0.0 0.0
2.1568 36.0916 66.9763 0.0 0.0
1.4295 35.4173 67.9196 0.0 0.0
0.6825 34.766 68.8532 0.0 0.0
-0.0852 34.1379 69.7771 0.0 0.0
-0.874 33.5331 70.6914 0.0 0.0
-1.6845 32.952 71.5966 0.0 0.0
-2.5171 32.3948 72.4928 0.0 0.0
-3.0183 32.4119 72.4648 0.0 0.0
-2.2078 32.9448 71.608 0.0 0.0
-1.418 33.4999 70.7424 0.0 0.0
-0.6486 34.0767 69.8683 0.0 0.0
0.1013 34.6754 68.9849 0.0 0.0
0.832 35.2957 68.0922 0.0 0.0
1.544 35.9374 67.19 0.0 0.0
2.2378 36.6005 66.278 0.0 0.0
2.914 37.2849 65.3558 0.0 0.0
3.5727 37.9904 64.4234 0.0 0.0
4.2148 38.7176 63.4798 0.0 0.0
4.8407 39.4663 62.5248 0.0 0.0
4.8043 39.9186 61.955 0.0 0.0
4.1458 39.118 62.9669 0.0 0.0
3.4696 38.3418 63.9653 0.0 0.0
2.7747 37.5894 64.9514 0.0 0.0
2.0607 36.8607 65.9251 0.0 0.0
1.3273 36.1561 66.887 0.0 0.0
0.5734 35.4751 67.8378 0.0 0.0
-0.2011 34.8183 68.7774 0.0 0.0
-0.9971 34.1852 69.7065 0.0 0.0
-1.8151 33.5763 70.6252 0.0 0.0
-2.6554 32.992 71.5335 0.0 0.0
-3.5189 32.4321 72.4318 0.0 0.0
-4.0193 32.4555 72.3938 0.0 0.0
-3.1777 32.9918 71.5337 0.0 0.0
-2.3575 33.5512 70.6637 0.0 0.0
-1.5585 34.1332 69.7841 0.0 0.0
-0.7801 34.7376 68.8943 0.0 0.0
-0.0217 35.3645 67.9945 0.0 0.0
0.7171 36.0136 67.0842 0.0 0.0
1.4371 36.6851 66.1629 0.0 0.0
2.1384 37.3787 65.2309 0.0 0.0
2.8216 38.0945 64.2874 0.0 0.0
3.4873 38.8325 63.3321 0.0 0.0
4.1362 39.5933 62.3643 0.0 0.0
4.7684 40.3765 61.3838 0.0 0.0
4.733 40.8393 60.8113 0.0 0.0
4.1234 40.07 61.7657 0.0 0.0
3.4982 39.3218 62.7077 0.0 0.0
2.8574 38.5952 63.6375 0.0 0.0
2.2002 37.8894 64.556 0.0 0.0
1.5265 37.2047 65.4629 0.0 0.0
0.8357 36.541 66.3591 0.0 0.0
0.127 35.8979 67.245 0.0 0.0
-0.5995 35.2759 68.1204 0.0 0.0
-1.3444 34.6748 68.9857 0.0 0.0
-2.1086 34.0946 69.8415 0.0 0.0
-2.8919 33.5358 70.6874 0.0 0.0
-3.6954 32.998 71.5239 0.0 0.0
-4.5189 32.4819 72.3507 0.0 0.0
-5.0177 32.5115 72.3027 0.0 0.0
-4.1478 33.0492 71.4432 0.0 0.0
-3.3003 33.6103 70.5733 0.0 0.0
-2.4744 34.1948 69.6922 0.0 0.0
-1.6699 34.8023 68.8004 0.0 0.0
-0.886 35.4331 67.8973 0.0 0.0
-0.1226 36.0866 66.983 0.0 0.0
0.6213 36.7633 66.057 0.0 0.0
1.3457 37.4626 65.1192 0.0 0.0
2.0517 38.1852 64.1691 0.0 0.0
2.7393 38.9306 63.2065 0.0 0.0
3.4093 39.6994 62.2305 0.0 0.0
4.062 40.4914 61.2411 0.0 0.0
4.6981 41.3075 60.2373 0.0 0.0
4.6638 41.7812 59.6611 0.0 0.0
4.0495 40.9787 60.64 0.0 0.0
3.4197 40.1988 61.6049 0.0 0.0
2.7739 39.4412 62.5565 0.0 0.0
2.1116 38.7056 63.4952 0.0 0.0
1.4325 37.9919 64.4215 0.0 0.0
0.7359 37.2999 65.3358 0.0 0.0
0.0216 36.6295 66.2385 0.0 0.0
-0.7108 35.9809 67.1295 0.0 0.0
-1.4622 35.3538 68.0097 0.0 0.0
-2.2327 34.7482 68.8789 0.0 0.0
-3.023 34.1644 69.7375 0.0 0.0
-3.8333 33.6024 70.5855 0.0 0.0
-4.6642 33.0623 71.4228 0.0 0.0
-5.516 32.5442 72.2495 0.0 0.0
-5.7762 32.7187 71.9683 0.0 0.0
-4.9031 33.2518 71.1261 0.0 0.0
-4.0518 33.808 70.2726 0.0 0.0
-3.2222 34.3868 69.4078 0.0 0.0
-2.4133 34.9887 68.5314 0.0 0.0
-1.6248 35.6132 67.6433 0.0 0.0
-0.8563 36.2604 66.7434 0.0 0.0
-0.1075 36.9301 65.8315 0.0 0.0
0.6224 37.6224 64.9077 0.0 0.0
1.3339 38.3375 63.9709 0.0 0.0
2.0273 39.0755 63.0212 0.0 0.0
2.7031 39.8365 62.0581 0.0 0.0
3.3617 40.6205 61.0813 0.0 0.0
4.0039 41.4283 60.0898 0.0 0.0
4.6299 42.2601 59.0832 0.0 0.0
4.5966 42.7444 58.5032 0.0 0.0
3.9747 41.9037 59.513 0.0 0.0
3.3369 41.087 60.507 0.0 0.0
2.6829 40.2943 61.486 0.0 0.0
2.0119 39.5247 62.4509 0.0 0.0
1.3236 38.7782 63.4019 0.0 0.0
0.6176 38.0545 64.3396 0.0 0.0
-0.1067 37.3538 65.2641 0.0 0.0
-0.8495 36.6754 66.1761 0.0 0.0
-1.6117 36.0196 67.0758 0.0 0.0
-2.3935 35.3864 67.9635 0.0 0.0
-3.1955 34.7757 68.8391 0.0 0.0
-4.0178 34.1878 69.7027 0.0 0.0
-4.8614 33.6224 70.5548 0.0 0.0
-5.7265 33.0798 71.3952 0.0 0.0
-5.6776 33.447 70.8238 0.0 0.0
-4.8204 33.9989 69.9849 0.0 0.0
-3.9844 34.5733 69.1339 0.0 0.0
-3.1692 35.1703 68.2709 0.0 0.0
-2.3741 35.7896 67.3961 0.0 0.0
-1.5987 36.4314 66.5086 0.0 0.0
-0.8428 37.0958 65.6088 0.0 0.0
-0.1059 37.7826 64.6962 0.0 0.0
0.6128 38.4921 63.7707 0.0 0.0
1.3135 39.2242 62.8317 0.0 0.0
1.9968 39.9793 61.8791 0.0 0.0
2.663 40.7573 60.9124 0.0 0.0
3.3124 41.559 59.9308 0.0 0.0
3.9459 42.3846 58.9337 0.0 0.0
4.5637 43.2345 57.9206 0.0 0.0
4.5312 43.73 57.3358 0.0 0.0
3.9175 42.8708 58.3526 0.0 0.0
3.2882 42.0362 59.3529 0.0 0.0
2.6433 41.2258 60.337 0.0 0.0
1.9818 40.4389 61.3063 0.0 0.0
1.3036 39.6753 62.2609 0.0 0.0
0.6081 38.9346 63.2012 0.0 0.0
-0.105 38.2169 64.1276 0.0 0.0
-0.8361 37.5216 65.041 0.0 0.0
-1.586 36.8488 65.9413 0.0 0.0
-2.3549 36.1983 66.8287 0.0 0.0
-3.1433 35.5703 67.7037 0.0 0.0
-3.9514 34.9647 68.5658 0.0 0.0
-4.7801 34.3814 69.416 0.0 0.0
-5.6296 33.8205 70.2537 0.0 0.0
-5.5824 34.1996 69.6852 0.0 0.0
-4.7405 34.7694 68.8483 0.0 0.0
-3.9191 35.3615 67.9987 0.0 0.0
-3.1179 35.9757 67.1368 0.0 0.0
-2.3361 36.6123 66.2619 0.0 0.0
-1.5735 37.2712 65.374 0.0 0.0
-0.8296 37.9525 64.4731 0.0 0.0
-0.1042 38.656 63.559 0.0 0.0
0.6035 39.3824 62.6309 0.0 0.0
1.2938 40.1316 61.6888 0.0 0.0
1.9671 40.9038 60.732 0.0 0.0
2.6239 41.6995 59.7602 0.0 0.0
3.2645 42.5187 58.7729 0.0 0.0
3.8895 43.3625 57.7691 0.0 0.0
4.4993 44.2312 56.7483 0.0 0.0
4.4678 44.7384 56.1577 0.0 0.0
3.8619 43.8601 57.1829 0.0 0.0
3.241 43.0071 58.1906 0.0 0.0
2.6049 42.1785 59.1813 0.0 0.0
1.9526 41.3743 60.1558 0.0 0.0
1.2842 40.5933 61.1149 0.0 0.0
0.5989 39.8356 62.0592 0.0 0.0
-0.1034 39.1008 62.989 0.0 0.0
-0.8232 38.3886 63.9046 0.0 0.0
-1.5612 37.6989 64.8065 0.0 0.0
-2.3176 37.0316 65.695 0.0 0.0
-3.0929 36.3867 66.57 0.0 0.0
-3.8873 35.7637 67.4321 0.0 0.0
-4.7016 35.163 68.2814 0.0 0.0
-5.536 34.5844 69.1177 0.0 0.0
-5.4903 34.9751 68.5509 0.0 0.0
-4.6632 35.5623 67.7148 0.0 0.0
-3.8559 36.1716 66.8656 0.0 0.0
-3.0683 36.8028 66.0034 0.0 0.0
-2.2993 37.4563 65.1276 0.0 0.0
-1.549 38.1321 64.2384 0.0 0.0
-0.8169 38.8301 63.3351 0.0 0.0
-0.1027 39.5505 62.4182 0.0 0.0
0.5944 40.2938 61.4865 0.0 0.0
1.2746 41.0602 60.54 0.0 0.0
1.9384 41.8498 59.578 0.0 0.0
2.586 42.6633 58.6002 0.0 0.0
3.2179 43.5007 57.6059 0.0 0.0
3.8347 44.3632 56.5942 0.0 0.0
4.4367 45.2512 55.5643 0.0 0.0
4.406 45.7701 54.9677 0.0 0.0
3.8079 44.8721 56.0025 0.0 0.0
3.1951 44.0 57.0188 0.0 0.0
2.5675 43.1533 58.0169 0.0 0.0
1.9243 42.3308 58.9982 0.0 0.0
1.2653 41.5323 59.9632 0.0 0.0
0.59 40.7573 60.9124 0.0 0.0
-0.1019 40.0057 61.846 0.0 0.0
-0.8106 39.2767 62.7651 0.0 0.0
-1.5371 38.5702 63.6697 0.0 0.0
-2.2814 37.8861 64.5602 0.0 0.0
-3.044 37.2242 65.4368 0.0 0.0
-3.8251 36.5846 66.2995 0.0 0.0
-4.6255 35.9669 67.149 0.0 0.0
-5.4454 35.3711 67.985 0.0 0.0
-5.4012 35.7726 67.4197 0.0 0.0
-4.5884 36.3768 66.5834 0.0 0.0
-3.7948 37.003 65.7335 0.0 0.0
-3.0201 37.6511 64.8697 0.0 0.0
-2.2637 38.3211 63.9922 0.0 0.0
-1.5253 39.0135 63.1003 0.0 0.0
-0.8045 39.7284 62.194 0.0 0.0
-0.1011 40.4659 61.2728 0.0 0.0
0.5857 41.2263 60.3364 0.0 0.0
1.2561 42.0101 59.3844 0.0 0.0
1.9104 42.8175 58.4161 0.0 0.0
2.5492 43.6489 57.4312 0.0 0.0
3.1726 44.5053 56.4286 0.0 0.0
3.7814 45.3872 55.4076 0.0 0.0
4.3758 46.2954 54.3674 0.0 0.0
4.346 46.8267 53.7636 0.0 0.0
3.7553 45.9081 54.8096 0.0 0.0
3.1505 45.0163 55.8358 0.0 0.0
2.5312 44.1505 56.8427 0.0 0.0
1.8968 43.3095 57.8318 0.0 0.0
1.247 42.493 58.8037 0.0 0.0
0.5814 41.7005 59.759 0.0 0.0
-0.1004 40.9316 60.6978 0.0 0.0
-0.7985 40.1856 61.6214 0.0 0.0
-1.5137 39.4623 62.5297 0.0 0.0
-2.2463 38.7615 63.4233 0.0 0.0
-2.9967 38.083 64.3023 0.0 0.0
-3.7649 37.4268 65.1669 0.0 0.0
-4.5519 36.7923 66.0176 0.0 0.0
-5.3577 36.1797 66.8544 0.0 0.0
-5.3149 36.592 66.2895 0.0 0.0
-4.5159 37.2129 65.452 0.0 0.0
-3.7355 37.8556 64.6002 0.0 0.0
-2.9735 38.5201 63.7344 0.0 0.0
-2.2292 39.2069 62.8537 0.0 0.0
-1.5023 39.9161 61.9582 0.0 0.0
-0.7925 40.6478 61.0476 0.0 0.0
-0.0996 41.4022 60.1217 0.0 0.0
0.5771 42.18 59.1795 0.0 0.0
1.238 42.9815 58.2209 0.0 0.0
1.8833 43.8072 57.2452 0.0 0.0
2.5134 44.6576 56.2516 0.0 0.0
3.1286 45.5331 55.2397 0.0 0.0
3.7296 46.4352 54.2081 0.0 0.0
4.3166 47.3644 53.156 0.0 0.0
4.2875 47.909 52.5441 0.0 0.0
3.7042 46.9689 53.6027 0.0 0.0
3.1071 46.0564 54.6401 0.0 0.0
2.4959 45.1705 55.6574 0.0 0.0
1.87 44.3107 56.6554 0.0 0.0
1.2292 43.4758 57.6354 0.0 0.0
0.573 42.6653 58.5978 0.0 0.0
-0.0989 41.8786 59.5432 0.0 0.0
-0.7867 41.1154 60.4723 0.0 0.0
-1.4911 40.3751 61.3854 0.0 0.0
-2.2123 39.6576 62.2832 0.0 0.0
-2.9508 38.9627 63.1654 0.0 0.0
-3.7066 38.2897 64.0331 0.0 0.0
-4.4805 37.6387 64.8861 0.0 0.0
-5.2728 37.0096 65.7246 0.0 0.0
-5.2313 37.4326 65.1592 0.0 0.0
-4.4457 38.0699 64.3194 0.0 0.0
-3.6781 38.7291 63.4649 0.0 0.0
-2.9283 39.4102 62.5957 0.0 0.0
-2.1957 40.1137 61.7111 0.0 0.0
-1.48 40.8396 60.8109 0.0 0.0
-0.7809 41.5884 59.895 0.0 0.0
-0.0982 42.3602 58.963 0.0 0.0
0.5689 43.1558 58.014 0.0 0.0
1.2204 43.9755 57.0476 0.0 0.0
1.8569 44.8199 56.0631 0.0 0.0
2.4787 45.6898 55.0598 0.0 0.0
3.0858 46.5856 54.0372 0.0 0.0
3.6792 47.5088 52.9936 0.0 0.0
4.2589 48.4601 51.9281 0.0 0.0
4.2306 49.0182 51.3076 0.0 0.0
3.6545 48.0553 52.3803 0.0 0.0
3.0649 47.1212 53.4305 0.0 0.0
2.4616 46.2149 54.4591 0.0 0.0
1.844 45.335 55.4677 0.0 0.0
1.2119 44.4809 56.457 0.0 0.0
0.5648 43.6519 57.4278 0.0 0.0
-0.0975 42.8475 58.3804 0.0 0.0
-0.7752 42.0667 59.3161 0.0 0.0
-1.4691 41.3092 60.2351 0.0 0.0
-2.1793 40.5748 61.138 0.0 0.0
-2.9062 39.8629 62.0249 0.0 0.0
-3.65 39.1736 62.8962 0.0 0.0
-4.4114 38.5062 63.7524 0.0 0.0
-5.1905 37.8606 64.5936 0.0 0.0
-5.1503 38.2939 64.0276 0.0 0.0
-4.3776 38.9476 63.1846 0.0 0.0
-3.6224 39.6233 62.3264 0.0 0.0
-2.8845 40.3209 61.4528 0.0 0.0
-2.1632 41.0412 60.5633 0.0 0.0
-1.4583 41.7842 59.6575 0.0 0.0
-0.7696 42.5504 58.7352 0.0 0.0
-0.0968 43.3401 57.7957 0.0 0.0
0.5608 44.1537 56.8389 0.0 0.0
1.2034 44.9922 55.8635 0.0 0.0
1.8313 45.8562 54.8691 0.0 0.0
2.4448 46.7463 53.8548 0.0 0.0
3.0442 47.6633 52.8199 0.0 0.0
3.6301 48.6087 51.7627 0.0 0.0
4.2027 49.5835 50.6823 0.0 0.0
4.1752 50.1565 50.0516 0.0 0.0
3.6061 49.1694 51.1402 0.0 0.0
3.0238 48.2124 52.2047 0.0 0.0
2.4282 47.2844 53.2463 0.0 0.0
1.8187 46.3837 54.2666 0.0 0.0
1.195 45.5098 55.2666 0.0 0.0
0.5569 44.6615 56.2469 0.0 0.0
-0.0961 43.8386 57.2082 0.0 0.0
-0.7641 43.0398 58.1516 0.0 0.0
-1.4477 42.2648 59.0776 0.0 0.0
-2.1473 41.5131 59.9866 0.0 0.0
-2.863 40.7844 60.8791 0.0 0.0
-3.5951 40.0784 61.7551 0.0 0.0
-4.3443 39.3945 62.6157 0.0 0.0
-5.1108 38.7326 63.4606 0.0 0.0
-5.0718 39.1762 62.8928 0.0 0.0
-4.3116 39.8463 62.0457 0.0 0.0
-3.5683 40.5385 61.1828 0.0 0.0
-2.8419 41.2529 60.3039 0.0 0.0
-2.1316 41.9902 59.4083 0.0 0.0
-1.4373 42.7506 58.4958 0.0 0.0
-0.7586 43.5346 57.5661 0.0 0.0
-0.0954 44.3426 56.6183 0.0 0.0
0.553 45.175 55.6522 0.0 0.0
1.1868 46.0331 54.6666 0.0 0.0
1.8063 46.9174 53.6609 0.0 0.0
2.4119 47.8288 52.6341 0.0 0.0
3.0037 48.7681 51.5854 0.0 0.0
3.5823 49.737 50.513 0.0 0.0
4.1481 50.7368 49.4158 0.0 0.0
4.1212 51.3251 48.7744 0.0 0.0
3.5589 50.3122 49.8808 0.0 0.0
2.9838 49.3309 50.9614 0.0 0.0
2.3957 48.38 52.0176 0.0 0.0
1.7941 47.4575 53.0512 0.0 0.0
1.1787 46.5627 54.0631 0.0 0.0
0.5492 45.6946 55.0544 0.0 0.0
-0.0947 44.8522 56.0258 0.0 0.0
-0.7532 44.035 56.9778 0.0 0.0
-1.427 43.242 57.9118 0.0 0.0
-2.1162 42.4727 58.828 0.0 0.0
-2.8211 41.7268 59.727 0.0 0.0
-3.5419 41.004 60.609 0.0 0.0
-4.2793 40.3034 61.4746 0.0 0.0
-5.0334 39.6251 62.3242 0.0 0.0
-4.9956 40.0794 61.754 0.0 0.0
-4.2475 40.766 60.9018 0.0 0.0
-3.5159 41.4749 60.0331 0.0 0.0
-2.8006 42.2063 59.1479 0.0 0.0
-2.101 42.961 58.2453 0.0 0.0
-1.4169 43.7392 57.325 0.0 0.0
-0.7479 44.5415 56.3866 0.0 0.0
-0.0941 45.3681 55.4295 0.0 0.0
0.5454 46.2205 54.4528 0.0 0.0
1.1707 47.0989 53.4555 0.0 0.0
1.782 48.0046 52.4372 0.0 0.0
2.3798 48.9384 51.3963 0.0 0.0
2.9642 49.9013 50.3321 0.0 0.0
3.5358 50.8953 49.2427 0.0 0.0
4.0948 51.9218 48.1267 0.0 0.0
3.8756 52.1587 47.8703 0.0 0.0
3.3298 51.1554 48.9591 0.0 0.0
2.772 50.1832 50.0223 0.0 0.0
2.202 49.2406 51.0614 0.0 0.0
1.6197 48.3265 52.0773 0.0 0.0
1.0243 47.4392 53.0719 0.0 0.0
0.4159 46.5779 54.0458 0.0 0.0
-0.2059 45.7419 55.0001 0.0 0.0
-0.8414 44.9301 55.9353 0.0 0.0
-1.491 44.1421 56.8525 0.0 0.0
-2.1548 43.3771 57.7519 0.0 0.0
-2.8329 42.6349 58.634 0.0 0.0
-3.5262 41.9146 59.4997 0.0 0.0
-4.2346 41.216 60.3492 0.0 0.0
-4.9584 40.5387 61.1827 0.0 0.0
-4.9217 41.0033 60.6098 0.0 0.0
-4.1834 41.7084 59.7492 0.0 0.0
-3.4614 42.4362 58.8719 0.0 0.0
-2.755 43.1873 57.9766 0.0 0.0
-2.0642 43.9618 57.0636 0.0 0.0
-1.3885 44.7607 56.1317 0.0 0.0
-0.7277 45.5842 55.181 0.0 0.0
-0.0813 46.4335 54.2101 0.0 0.0
0.5507 47.3088 53.2188 0.0 0.0
1.169 48.2117 52.2055 0.0 0.0
1.7735 49.1427 51.1698 0.0 0.0
2.3649 50.1035 50.1097 0.0 0.0
2.9432 51.0951 49.0247 0.0 0.0
3.509 52.1197 47.9124 0.0 0.0
3.1419 52.0846 47.9503 0.0 0.0
2.5992 51.1144 49.0037 0.0 0.0
2.0449 50.1734 50.0329 0.0 0.0
1.479 49.2609 51.0388 0.0 0.0
0.9011 48.375 52.0231 0.0 0.0
0.3107 47.5152 52.9862 0.0 0.0
-0.292 46.6803 53.9296 0.0 0.0
-0.9076 45.8692 54.8541 0.0 0.0
-1.5363 45.0816 55.7601 0.0 0.0
-2.1785 44.3168 56.6484 0.0 0.0
-2.8341 43.5737 57.5198 0.0 0.0
-3.5037 42.8526 58.3743 0.0 0.0
-4.1875 42.1524 59.2129 0.0 0.0
-4.8855 41.4731 60.0352 0.0 0.0
-4.8499 41.9486 59.4586 0.0 0.0
-4.137 42.6566 58.6081 0.0 0.0
-3.4392 43.3869 57.7404 0.0 0.0
-2.7558 44.14 56.8548 0.0 0.0
-2.0872 44.9162 55.9515 0.0 0.0
-1.4328 45.7162 55.0295 0.0 0.0
-0.7923 46.5406 54.0882 0.0 0.0
-0.1654 47.3903 53.1268 0.0 0.0
0.4481 48.2662 52.1447 0.0 0.0
1.0488 49.1691 51.1404 0.0 0.0
1.6365 50.1006 50.1129 0.0 0.0
2.2117 51.0615 49.0614 0.0 0.0
2.7747 52.0535 47.9842 0.0 0.0
2.4072 52.0262 48.0137 0.0 0.0
1.8207 51.0077 49.1202 0.0 0.0
1.2212 50.0225 50.1989 0.0 0.0
0.6081 49.0684 51.2521 0.0 0.0
-0.0187 48.1442 52.2808 0.0 0.0
-0.6593 47.2491 53.286 0.0 0.0
-1.3143 46.3814 54.2694 0.0 0.0
-1.9839 45.5406 55.231 0.0 0.0
-2.6685 44.7256 56.1726 0.0 0.0
-3.3684 43.9357 57.0943 0.0 0.0
-4.0836 43.1706 57.9965 0.0 0.0
-4.8148 42.4293 58.8802 0.0 0.0
-4.7802 42.9154 58.2995 0.0 0.0
-4.0942 43.6236 57.4611 0.0 0.0
-3.4223 44.3534 56.6057 0.0 0.0
-2.764 45.1051 55.733 0.0 0.0
-2.1191 45.8797 54.8421 0.0 0.0
-1.4874 46.6777 53.9326 0.0 0.0
-0.8688 47.4997 53.0038 0.0 0.0
-0.2627 48.3465 52.0548 0.0 0.0
0.3309 49.2192 51.085 0.0 0.0
0.9123 50.1184 50.0935 0.0 0.0
1.4816 51.0458 49.0784 0.0 0.0
2.0395 52.0027 48.039 0.0 0.0
1.6717 51.9832 48.0601 0.0 0.0
1.0896 50.9991 49.1295 0.0 0.0
0.4951 50.0463 50.1727 0.0 0.0
-0.1121 49.1236 51.1909 0.0 0.0
-0.7326 48.2291 52.1859 0.0 0.0
-1.3665 47.3621 53.1586 0.0 0.0
-2.0141 46.5215 54.11 0.0 0.0
-2.6755 45.7064 55.0408 0.0 0.0
-3.351 44.9163 55.9514 0.0 0.0
-4.0412 44.1501 56.8432 0.0 0.0
-4.7461 43.4073 57.7162 0.0 0.0
-4.7124 43.9046 57.1306 0.0 0.0
-4.0558 44.6091 56.3079 0.0 0.0
-3.4121 45.3342 55.4686 0.0 0.0
-2.7808 46.081 54.612 0.0 0.0
-2.1619 46.8498 53.7375 0.0 0.0
-1.5552 47.6412 52.8446 0.0 0.0
-0.9605 48.4558 51.933 0.0 0.0
-0.3774 49.2949 51.0012 0.0 0.0
0.1942 50.1592 50.0486 0.0 0.0
0.7544 51.0495 49.0745 0.0 0.0
1.3037 51.9675 48.0771 0.0 0.0
0.9357 51.9558 48.0899 0.0 0.0
0.3617 51.01 49.1175 0.0 0.0
-0.2243 50.0934 50.1208 0.0 0.0
-0.8223 49.2052 51.1005 0.0 0.0
-1.4328 48.3436 52.0582 0.0 0.0
-2.0558 47.5081 52.9943 0.0 0.0
-2.6919 46.6973 53.9102 0.0 0.0
-3.3409 45.911 54.8064 0.0 0.0
-4.0034 45.1478 55.6837 0.0 0.0
-4.6793 44.4077 56.5423 0.0 0.0
-4.6466 44.9168 55.9508 0.0 0.0
-3.9455 45.7005 55.0475 0.0 0.0
-3.2589 46.5098 54.1233 0.0 0.0
-2.5869 47.345 53.178 0.0 0.0
-1.929 48.2071 52.2106 0.0 0.0
-1.2849 49.0972 51.2201 0.0 0.0
-0.6541 50.0164 50.2055 0.0 0.0
-0.0368 50.9663 49.1652 0.0 0.0
0.5674 51.9479 48.0985 0.0 0.0
0.1993 51.9438 48.1028 0.0 0.0
-0.3621 51.0417 49.0829 0.0 0.0
-0.9346 50.1669 50.0402 0.0 0.0
-1.5184 49.318 50.9756 0.0 0.0
-2.1139 48.4939 51.8905 0.0 0.0
-2.7209 47.6942 52.7852 0.0 0.0
-3.3399 46.9177 53.6606 0.0 0.0
-3.9709 46.1637 54.5175 0.0 0.0
-4.6143 45.4316 55.3565 0.0 0.0
-4.5825 45.9525 54.7589 0.0 0.0
-3.9131 46.7302 53.8729 0.0 0.0
-3.2569 47.5327 52.9666 0.0 0.0
-2.614 48.3603 52.0396 0.0 0.0
-1.984 49.214 51.0908 0.0 0.0
-1.3667 50.0949 50.1191 0.0 0.0
-0.7616 51.0046 49.1235 0.0 0.0
-0.1689 51.9437 48.103 0.0 0.0
-0.5372 51.9474 48.0989 0.0 0.0
-1.0795 51.097 49.0227 0.0 0.0
-1.6319 50.2712 49.9256 0.0 0.0
-2.1945 49.4691 50.8087 0.0 0.0
-2.7678 48.6894 51.6729 0.0 0.0
-3.3514 47.9318 52.5185 0.0 0.0
-3.9458 47.1955 53.3465 0.0 0.0
-4.5512 46.4798 54.1574 0.0 0.0
-4.5202 47.0132 53.5526 0.0 0.0
-3.8886 47.776 52.6934 0.0 0.0
-3.2688 48.5619 51.8148 0.0 0.0
-2.6608 49.3716 50.9164 0.0 0.0
-2.0645 50.2064 49.9967 0.0 0.0
-1.4794 51.0672 49.0552 0.0 0.0
-0.9053 51.955 48.0907 0.0 0.0
-1.2734 51.9664 48.0783 0.0 0.0
-1.8908 51.0249 49.1013 0.0 0.0
-2.5208 50.1143 50.098 0.0 0.0
-3.1639 49.2327 51.07 0.0 0.0
-3.82 48.3795 52.0181 0.0 0.0
-4.4897 47.5531 52.9438 0.0 0.0
-4.4596 48.0999 52.3305 0.0 0.0
-3.8759 48.8324 51.5139 0.0 0.0
-3.3024 49.586 50.6795 0.0 0.0
-2.7388 50.3618 49.8263 0.0 0.0
-2.1853 51.16 48.9541 0.0 0.0
-1.6415 51.9818 48.0617 0.0 0.0
-2.0093 52.001 48.0409 0.0 0.0
-2.5973 51.1246 48.9927 0.0 0.0
-3.1966 50.2753 49.9212 0.0 0.0
-3.8075 49.4517 50.8279 0.0 0.0
-4.4299 48.6533 51.7131 0.0 0.0
-4.4006 49.2137 51.0911 0.0 0.0
-3.8827 49.889 50.3456 0.0 0.0
-3.3729 50.5821 49.5849 0.0 0.0
-2.871 51.2936 48.8086 0.0 0.0
-2.3769 52.0241 48.0159 0.0 0.0
-2.7445 52.0511 47.9867 0.0 0.0
-3.2778 51.2731 48.8309 0.0 0.0
-3.8202 50.5169 49.6564 0.0 0.0
-4.3716 49.7817 50.4639 0.0 0.0
-4.3431 50.3568 49.8317 0.0 0.0
-3.7217 51.2056 48.9044 0.0 0.0
-3.1117 52.0819 47.9533 0.0 0.0
-3.4787 52.1167 47.9157 0.0 0.0
-3.8941 51.5217 48.5606 0.0 0.0
-4.3149 50.9398 49.1942 0.0 0.0
-4.287 51.5309 48.5505 0.0 0.0
-3.8455 52.1554 47.8739 0.0 0.0
-4.2119 52.1979 47.8278 0.0 0.0
-4.2596 52.1302 47.9012 0.0 0.0
-4.2596 51.8465 47.6846 0.0 0.0
-4.3412 50.5154 49.119 0.0 0.0
-4.4252 49.2234 50.5253 0.0 0.0
-4.5117 47.9681 51.9057 0.0 0.0
-4.6008 46.7469 53.2636 0.0 0.0
-4.6927 45.5574 54.6016 0.0 0.0
-4.7873 44.3986 55.9217 0.0 0.0
-4.8851 43.2686 57.2266 0.0 0.0
-4.9861 42.1665 58.5175 0.0 0.0
-5.0901 41.0913 59.7969 0.0 0.0
-5.1979 40.0421 61.0669 0.0 0.0
-5.309 39.0187 62.3286 0.0 0.0
-5.4242 38.0207 63.5841 0.0 0.0
-5.5434 37.0477 64.8354 0.0 0.0
-5.6666 36.1001 66.0837 0.0 0.0
-5.7945 35.1781 67.3316 0.0 0.0
-5.9269 34.2824 68.5802 0.0 0.0
-6.0645 33.4136 69.8319 0.0 0.0
-6.2072 32.5728 71.0893 0.0 0.0
-6.3556 31.7615 72.3541 0.0 0.0
-5.2287 31.6802 72.484 0.0 0.0
-4.0975 31.6149 72.5888 0.0 0.0
-2.9634 31.5656 72.6682 0.0 0.0
-1.8269 31.5322 72.7221 0.0 0.0
-0.6887 31.5147 72.7505 0.0 0.0
0.4498 31.5131 72.7532 0.0 0.0
1.5881 31.5272 72.7302 0.0 0.0
2.725 31.5573 72.6817 0.0 0.0
3.8597 31.6032 72.6075 0.0 0.0
4.9916 31.6651 72.5081 0.0 0.0
6.1194 31.7431 72.3834 0.0 0.0
5.9985 32.5785 71.0804 0.0 0.0
5.8823 33.4453 69.7855 0.0 0.0
5.7705 34.3415 68.4966 0.0 0.0
5.6628 35.2662 67.2107 0.0 0.0
5.5591 36.2184 65.9262 0.0 0.0
5.4591 37.1978 64.6405 0.0 0.0
5.3626 38.2036 63.3519 0.0 0.0
5.2694 39.2362 62.0585 0.0 0.0
5.1795 40.2957 60.7579 0.0 0.0
5.0925 41.3822 59.4487 0.0 0.0
5.0084 42.4968 58.1287 0.0 0.0
4.927 43.6397 56.7959 0.0 0.0
4.8483 44.8124 55.4484 0.0 0.0
4.772 46.0164 54.0834 0.0 0.0
4.698 47.2529 52.6991 0.0 0.0
4.6263 48.5243 51.2922 0.0 0.0
4.5568 49.8326 49.8605 0.0 0.0
4.4893 51.181 48.4001 0.0 0.0
4.4238 52.5723 46.9079 0.0 0.0
3.6745 52.4825 47.0037 0.0 0.0
2.9237 52.4095 47.0817 0.0 0.0
2.1721 52.3532 47.142 0.0 0.0
1.4198 52.3135 47.1843 0.0 0.0
0.6668 52.2905 47.209 0.0 0.0
-0.0862 52.2841 47.2158 0.0 0.0
-0.8392 52.2943 47.2049 0.0 0.0
-1.5921 52.3211 47.1762 0.0 0.0
-2.3443 52.3646 47.1297 0.0 0.0
-3.0957 52.4247 47.0654 0.0 0.0
-3.8462 52.5016 46.9833 0.0 0.0
-4.5952 52.5952 46.8834 0.0 0.0
-4.6632 51.2035 48.3758 0.0 0.0
-4.7333 49.8547 49.8363 0.0 0.0
-4.8055 48.5462 51.2682 0.0 0.0
-4.8799 47.2745 52.6751 0.0 0.0
-4.9567 46.0377 54.0593 0.0 0.0
-5.0359 44.8335 55.4243 0.0 0.0
-5.1177 43.6606 56.7718 0.0 0.0
-5.2022 42.5175 58.1043 0.0 0.0
-5.2895 41.4027 59.4242 0.0 0.0
-5.3798 40.3161 60.7331 0.0 0.0
-5.4732 39.2564 62.0335 0.0 0.0
-5.5699 38.2237 63.3266 0.0 0.0
-5.6701 37.2176 64.6146 0.0 0.0
-5.7739 36.2381 65.9 0.0 0.0
-5.8816 35.2857 67.184 0.0 0.0
-5.9934 34.3607 68.4693 0.0 0.0
-6.1094 33.4643 69.7577 0.0 0.0
-6.2301 32.5973 71.0519 0.0 0.0
-6.3556 31.7615 72.3541 0.0 0.0
-6.7512 31.5392 72.7109 0.0 0.0
-5.6539 31.4558 72.846 0.0 0.0
-4.5522 31.3874 72.9575 0.0 0.0
-3.4473 31.3339 73.0449 0.0 0.0
-2.3398 31.2953 73.1082 0.0 0.0
-1.2304 31.2715 73.1472 0.0 0.0
-0.1202 31.2625 73.162 0.0 0.0
0.99 31.2683 73.1525 0.0 0.0
2.0997 31.2889 73.1187 0.0 0.0
3.2076 31.3243 73.0606 0.0 0.0
4.3131 31.3745 72.9784 0.0 0.0
5.4157 31.4397 72.8722 0.0 0.0
6.514 31.5199 72.7422 0.0 0.0
6.387 32.3299 71.4622 0.0 0.0
6.265 33.1702 70.1909 0.0 0.0
6.1474 34.0395 68.9259 0.0 0.0
6.0342 34.9364 67.6647 0.0 0.0
5.9251 35.8601 66.4053 0.0 0.0
5.8198 36.8099 65.1457 0.0 0.0
5.7182 37.7855 63.8839 0.0 0.0
5.6201 38.7867 62.6181 0.0 0.0
5.5253 39.8136 61.3464 0.0 0.0
5.4336 40.8665 60.0672 0.0 0.0
5.3449 41.9458 58.7785 0.0 0.0
5.259 43.0522 57.4784 0.0 0.0
5.1758 44.1866 56.1651 0.0 0.0
5.0953 45.3503 54.8364 0.0 0.0
5.0171 46.5444 53.4901 0.0 0.0
4.9414 47.7708 52.1239 0.0 0.0
4.8679 49.0315 50.7353 0.0 0.0
4.7965 50.3288 49.3213 0.0 0.0
4.7272 51.6656 47.8787 0.0 0.0
4.6599 53.0452 46.4038 0.0 0.0
3.8717 52.9441 46.5114 0.0 0.0
3.0818 52.8619 46.599 0.0 0.0
2.291 52.7984 46.6665 0.0 0.0
1.4992 52.7537 46.7142 0.0 0.0
0.7067 52.7277 46.7419 0.0 0.0
-0.0858 52.7204 46.7498 0.0 0.0
-0.8784 52.7318 46.7377 0.0 0.0
-1.6708 52.7618 46.7056 0.0 0.0
-2.4623 52.8106 46.6537 0.0 0.0
-3.253 52.8781 46.5817 0.0 0.0
-4.0425 52.9644 46.4898 0.0 0.0
-4.8304 53.0696 46.3779 0.0 0.0
-4.9002 51.6896 47.853 0.0 0.0
-4.972 50.3524 49.2957 0.0 0.0
-5.0459 49.0547 50.7098 0.0 0.0
-5.1221 47.7938 52.0986 0.0 0.0
-5.2006 46.5671 53.4648 0.0 0.0
-5.2815 45.3727 54.811 0.0 0.0
-5.365 44.2088 56.1395 0.0 0.0
-5.4512 43.0742 57.4528 0.0 0.0
-5.5401 41.9676 58.7527 0.0 0.0
-5.632 40.8881 60.0412 0.0 0.0
-5.727 39.8351 61.3202 0.0 0.0
-5.8253 38.808 62.5915 0.0 0.0
-5.9269 37.8066 63.8569 0.0 0.0
-6.0322 36.8308 65.1183 0.0 0.0
-6.1413 35.8808 66.3774 0.0 0.0
-6.2543 34.9569 67.6363 0.0 0.0
-6.3716 34.0598 68.8969 0.0 0.0
-6.4933 33.1903 70.1613 0.0 0.0
-6.6198 32.3496 71.4318 0.0 0.0
-6.7512 31.5392 72.7109 0.0 0.0
-6.5346 31.6602 72.5161 0.0 0.0
-6.9323 31.4399 72.8718 0.0 0.0
-7.1513 31.3214 73.0655 0.0 0.0
-5.9889 31.2293 73.2167 0.0 0.0
-4.8213 31.1539 73.3415 0.0 0.0
-3.6499 31.0949 73.4393 0.0 0.0
-2.4754 31.0524 73.5102 0.0 0.0
-1.2986 31.0263 73.5539 0.0 0.0
-0.121 31.0164 73.5703 0.0 0.0
1.0567 31.0229 73.5595 0.0 0.0
2.2338 31.0457 73.5214 0.0 0.0
3.4088 31.0849 73.4562 0.0 0.0
4.5809 31.1404 73.3638 0.0 0.0
5.7494 31.2125 73.2446 0.0 0.0
6.9129 31.3011 73.0987 0.0 0.0
6.7734 32.1274 71.7766 0.0 0.0
6.6393 32.9865 70.4645 0.0 0.0
6.5104 33.8766 69.1596 0.0 0.0
6.3864 34.7963 67.8591 0.0 0.0
6.2671 35.7446 66.5608 0.0 0.0
6.1521 36.7208 65.2625 0.0 0.0
6.0412 37.7244 63.9621 0.0 0.0
5.9342 38.7553 62.6575 0.0 0.0
5.831 39.8134 61.3467 0.0 0.0
5.7312 40.8992 60.0278 0.0 0.0
5.6348 42.0131 58.6988 0.0 0.0
5.5416 43.1559 57.3575 0.0 0.0
5.4514 44.3287 56.002 0.0 0.0
5.3641 45.5326 54.6298 0.0 0.0
5.2796 46.7692 53.2385 0.0 0.0
5.1976 48.0406 51.8257 0.0 0.0
5.1182 49.3488 50.3881 0.0 0.0
5.0411 50.6968 48.9229 0.0 0.0
4.9663 52.0876 47.4262 0.0 0.0
4.8937 53.5251 45.8937 0.0 0.0
4.067 53.412 46.0139 0.0 0.0
3.2384 53.3199 46.1117 0.0 0.0
2.4087 53.2489 46.1872 0.0 0.0
1.5779 53.1988 46.2404 0.0 0.0
0.7463 53.1696 46.2715 0.0 0.0
-0.0855 53.1613 46.2803 0.0 0.0
-0.9172 53.1739 46.2669 0.0 0.0
-1.7487 53.2074 46.2313 0.0 0.0
-2.5793 53.2618 46.1735 0.0 0.0
-3.4088 53.3371 46.0934 0.0 0.0
-4.237 53.4335 45.991 0.0 0.0
-5.0633 53.551 45.8663 0.0 0.0
-5.1384 52.1129 47.3989 0.0 0.0
-5.2158 50.7217 48.8959 0.0 0.0
-5.2955 49.3734 50.3613 0.0 0.0
-5.3776 48.0648 51.7989 0.0 0.0
-5.4624 46.7932 53.2118 0.0 0.0
-5.5498 45.5562 54.603 0.0 0.0
-5.6401 44.3521 55.9751 0.0 0.0
-5.7334 43.1791 57.3305 0.0 0.0
-5.8298 42.0361 58.6715 0.0 0.0
-5.9295 40.922 60.0003 0.0 0.0
-6.0326 39.8361 61.319 0.0 0.0
-6.1394 38.7777 62.6294 0.0 0.0
-6.25 37.7466 63.9336 0.0 0.0
-6.3647 36.7428 65.2335 0.0 0.0
-6.4836 35.7664 66.5313 0.0 0.0
-6.607 34.8179 67.8291 0.0 0.0
-6.7352 33.8979 69.1288 0.0 0.0
-6.8684 33.0075 70.4331 0.0 0.0
-7.007 32.1481 71.7444 0.0 0.0
-7.1513 31.3214 73.0655 0.0 0.0
-6.9725 31.3061 73.0905 0.0 0.0
-6.5346 31.6602 72.5161 0.0 0.0
-5.9837 31.9767 72.013 0.0 0.0
-4.8167 31.897 72.1389 0.0 0.0
-3.6458 31.8347 72.2375 0.0 0.0
-2.472 31.7898 72.3089 0.0 0.0
-1.296 31.7622 72.353 0.0 0.0
-0.1188 31.7518 72.3695 0.0 0.0
1.0585 31.7587 72.3585 0.0 0.0
2.2349 31.7828 72.32 0.0 0.0
3.4091 31.8242 72.2541 0.0 0.0
4.5808 31.883 72.1609 0.0 0.0
5.7486 31.9592 72.0406 0.0 0.0
5.633 32.8235 70.7092 0.0 0.0
5.522 33.7197 69.386 0.0 0.0
5.4153 34.6466 68.0678 0.0 0.0
5.3126 35.6028 66.7525 0.0 0.0
5.2137 36.5878 65.4374 0.0 0.0
5.1184 37.6007 64.1206 0.0 0.0
5.0265 38.6418 62.7998 0.0 0.0
4.9379 39.7105 61.473 0.0 0.0
4.8523 40.8077 60.138 0.0 0.0
4.7696 41.9337 58.7929 0.0 0.0
4.6897 43.0889 57.4356 0.0 0.0
4.6124 44.2749 56.0636 0.0 0.0
4.5377 45.4926 54.675 0.0 0.0
4.4653 46.744 53.2668 0.0 0.0
4.3952 48.0305 51.8367 0.0 0.0
4.3272 49.3551 50.3812 0.0 0.0
4.2613 50.7201 48.8976 0.0 0.0
4.1974 52.1293 47.3813 0.0 0.0
3.3428 52.0355 47.4819 0.0 0.0
2.4867 51.963 47.5595 0.0 0.0
1.6296 51.9119 47.6143 0.0 0.0
0.7717 51.8821 47.6462 0.0 0.0
-0.0866 51.8736 47.6553 0.0 0.0
-0.9448 51.8864 47.6416 0.0 0.0
-1.8027 51.9205 47.6051 0.0 0.0
-2.6595 51.9759 47.5457 0.0 0.0
-3.5153 52.0527 47.4635 0.0 0.0
-4.3696 52.1509 47.3583 0.0 0.0
-4.4361 50.7413 48.8747 0.0 0.0
-4.5047 49.376 50.3585 0.0 0.0
-4.5754 48.0511 51.814 0.0 0.0
-4.6484 46.7643 53.2441 0.0 0.0
-4.7237 45.5127 54.6523 0.0 0.0
-4.8015 44.2948 56.0408 0.0 0.0
-4.882 43.1086 57.4127 0.0 0.0
-4.9651 41.9532 58.7698 0.0 0.0
-5.0511 40.8271 60.1148 0.0 0.0
-5.1402 39.7297 61.4495 0.0 0.0
-5.2324 38.6608 62.7759 0.0 0.0
-5.328 37.6196 64.0965 0.0 0.0
-5.4272 36.6065 65.4128 0.0 0.0
-5.5301 35.6213 66.7275 0.0 0.0
-5.6369 34.6649 68.0422 0.0 0.0
-5.748 33.7377 69.3598 0.0 0.0
-5.8634 32.8413 70.6824 0.0 0.0
-5.9837 31.9767 72.013 0.0 0.0
-5.6783 32.0834 71.8455 0.0 0.0
-5.7785 32.173 71.7055 0.0 0.0
-5.7287 32.5405 71.1385 0.0 0.0
-5.1805 32.0489 71.8996 0.0 0.0
-4.6817 32.0176 71.9487 0.0 0.0
-5.1859 32.4599 71.2621 0.0 0.0
-5.6797 32.9141 70.5728 0.0 0.0
-5.6316 33.2933 70.0088 0.0 0.0
-4.918 32.629 71.0035 0.0 0.0
-4.1824 31.9895 71.9929 0.0 0.0
-3.6824 31.9646 72.0321 0.0 0.0
-4.333 32.517 71.1746 0.0 0.0
-4.9667 33.0881 70.3128 0.0 0.0
-5.5843 33.6782 69.4461 0.0 0.0
-5.5377 34.0688 68.8839 0.0 0.0
-4.9696 33.5134 69.6859 0.0 0.0
-4.3879 32.9737 70.4836 0.0 0.0
-3.7919 32.4502 71.2768 0.0 0.0
-3.1817 31.9428 72.0663 0.0 0.0
-2.6806 31.9243 72.0956 0.0 0.0
-3.4137 32.5254 71.1617 0.0 0.0
-4.126 33.1492 70.2222 0.0 0.0
-4.8186 33.7958 69.276 0.0 0.0
-5.492 34.4647 68.3229 0.0 0.0
-5.447 34.8659 67.7623 0.0 0.0
-4.827 34.236 68.6459 0.0 0.0
-4.1907 33.6252 69.5231 0.0 0.0
-3.5378 33.0337 70.3941 0.0 0.0
-2.8674 32.4614 71.2595 0.0 0.0
-2.1792 31.909 72.1199 0.0 0.0
-1.6772 31.8968 72.1391 0.0 0.0
-2.4669 32.5218 71.1671 0.0 0.0
-3.2335 33.1722 70.1879 0.0 0.0
-3.9781 33.8479 69.2008 0.0 0.0
-4.7008 34.5481 68.2057 0.0 0.0
-5.4027 35.2726 67.2019 0.0 0.0
-5.3591 35.6844 66.642 0.0 0.0
-4.7085 34.9981 67.5794 0.0 0.0
-4.04 34.3329 68.5086 0.0 0.0
-3.3528 33.6891 69.4303 0.0 0.0
-2.6467 33.0666 70.3449 0.0 0.0
-1.9211 32.4661 71.2524 0.0 0.0
-1.1752 31.8878 72.1534 0.0 0.0
-0.673 31.882 72.1626 0.0 0.0
-1.3887 32.4261 71.3138 0.0 0.0
-2.0863 32.9903 70.4587 0.0 0.0
-2.7659 33.574 69.5975 0.0 0.0
-3.4282 34.1771 68.7295 0.0 0.0
-4.0737 34.7994 67.8546 0.0 0.0
-4.703 35.441 66.9721 0.0 0.0
-5.3162 36.1014 66.0822 0.0 0.0
-5.274 36.5236 65.5218 0.0 0.0
-4.6048 35.7912 66.4979 0.0 0.0
-3.9165 35.0813 67.4646 0.0 0.0
-3.2089 34.3945 68.4217 0.0 0.0
-2.4809 33.7304 69.3703 0.0 0.0
-1.7324 33.0898 70.3103 0.0 0.0
-0.9624 32.4726 71.2426 0.0 0.0
-0.1705 31.8793 72.1668 0.0 0.0
0.3318 31.8798 72.166 0.0 0.0
-0.43 32.4397 71.2929 0.0 0.0
-1.172 33.0214 70.4124 0.0 0.0
-1.8943 33.6241 69.5246 0.0 0.0
-2.5979 34.2481 68.6287 0.0 0.0
-3.2828 34.8928 67.7251 0.0 0.0
-3.9498 35.5581 66.8129 0.0 0.0
-4.5997 36.2443 65.8917 0.0 0.0
-5.2325 36.9508 64.9615 0.0 0.0
-5.1916 37.3831 64.4007 0.0 0.0
-4.511 36.6109 65.407 0.0 0.0
-3.8111 35.8628 66.4016 0.0 0.0
-3.0908 35.1386 67.3859 0.0 0.0
-2.35 34.4386 68.3595 0.0 0.0
-1.5877 33.7629 69.3234 0.0 0.0
-0.8034 33.1115 70.278 0.0 0.0
0.0037 32.4849 71.2237 0.0 0.0
0.8341 31.8835 72.1602 0.0 0.0
1.3364 31.8903 72.1493 0.0 0.0
0.5352 32.46 71.2619 0.0 0.0
-0.2445 33.0522 70.3663 0.0 0.0
-1.0036 33.6672 69.4619 0.0 0.0
-1.7423 34.3046 68.5488 0.0 0.0
-2.4612 34.9638 67.6267 0.0 0.0
-3.1611 35.6452 66.6949 0.0 0.0
-3.8425 36.3486 65.7533 0.0 0.0
-4.5056 37.0736 64.8017 0.0 0.0
-5.1513 37.8206 63.839 0.0 0.0
-5.1117 38.263 63.2767 0.0 0.0
-4.4942 37.535 64.2049 0.0 0.0
-3.861 36.8276 65.1225 0.0 0.0
-3.2111 36.1403 66.0301 0.0 0.0
-2.5445 35.4731 66.9284 0.0 0.0
-1.8605 34.8262 67.8175 0.0 0.0
-1.1584 34.1998 68.6974 0.0 0.0
-0.4381 33.5939 69.5687 0.0 0.0
0.3013 33.0084 70.4318 0.0 0.0
1.06 32.4439 71.2864 0.0 0.0
1.8384 31.9003 72.1334 0.0 0.0
2.34 31.9135 72.1126 0.0 0.0
1.5044 32.4885 71.2181 0.0 0.0
0.6915 33.087 70.3145 0.0 0.0
-0.0997 33.7093 69.4011 0.0 0.0
-0.8694 34.3546 68.478 0.0 0.0
-1.6185 35.0233 67.5446 0.0 0.0
-2.3475 35.7149 66.6007 0.0 0.0
-3.0566 36.4293 65.6464 0.0 0.0
-3.747 37.1668 64.6806 0.0 0.0
-4.4187 37.927 63.7033 0.0 0.0
-5.0727 38.7105 62.7136 0.0 0.0
-5.0342 39.1632 62.149 0.0 0.0
-4.4077 38.3985 63.1056 0.0 0.0
-3.7649 37.6555 64.0502 0.0 0.0
-3.105 36.9337 64.9838 0.0 0.0
-2.4278 36.2332 65.9065 0.0 0.0
-1.7329 35.5541 66.8183 0.0 0.0
-1.0193 34.8962 67.7204 0.0 0.0
-0.2871 34.2597 68.6122 0.0 0.0
0.4647 33.6446 69.4948 0.0 0.0
1.2365 33.0511 70.368 0.0 0.0
2.0284 32.4796 71.2318 0.0 0.0
2.8416 31.9299 72.0867 0.0 0.0
3.3424 31.9495 72.0559 0.0 0.0
2.4764 32.5265 71.1599 0.0 0.0
1.6336 33.1282 70.2533 0.0 0.0
0.8138 33.754 69.3363 0.0 0.0
0.0159 34.404 68.4082 0.0 0.0
-0.7602 35.0778 67.4694 0.0 0.0
-1.5154 35.7756 66.519 0.0 0.0
-2.25 36.4969 65.5572 0.0 0.0
-2.965 37.2421 64.5829 0.0 0.0
-3.6606 38.011 63.5965 0.0 0.0
-4.3376 38.8039 62.5966 0.0 0.0
-4.9964 39.6208 61.5834 0.0 0.0
-4.9591 40.0835 61.0164 0.0 0.0
-4.3267 39.2848 61.9981 0.0 0.0
-3.6774 38.5086 62.967 0.0 0.0
-3.0112 37.755 63.923 0.0 0.0
-2.3273 37.0236 64.8667 0.0 0.0
-1.625 36.3142 65.7989 0.0 0.0
-0.9042 35.6271 66.7195 0.0 0.0
-0.1642 34.9621 67.6291 0.0 0.0
0.5958 34.3192 68.5282 0.0 0.0
1.3758 33.6987 69.4164 0.0 0.0
2.1766 33.1006 70.2944 0.0 0.0
2.9989 32.5249 71.1623 0.0 0.0
3.8428 31.9722 72.02 0.0 0.0
4.3428 31.9981 71.9792 0.0 0.0
3.5171 32.5299 71.1548 0.0 0.0
2.7119 33.083 70.3205 0.0 0.0
1.9268 33.6573 69.4764 0.0 0.0
1.1611 34.2528 68.622 0.0 0.0
0.4148 34.8691 67.7578 0.0 0.0
-0.3128 35.5063 66.8833 0.0 0.0
-1.0223 36.1643 65.9983 0.0 0.0
-1.7139 36.843 65.1023 0.0 0.0
-2.3883 37.5426 64.1953 0.0 0.0
-3.0461 38.2632 63.2764 0.0 0.0
-3.6873 39.0047 62.346 0.0 0.0
-4.3125 39.7674 61.4032 0.0 0.0
-4.9223 40.5516 60.4475 0.0 0.0
-4.8861 41.0246 59.8771 0.0 0.0
-4.2501 40.1936 60.8821 0.0 0.0
-3.5971 39.3862 61.8728 0.0 0.0
-2.9269 38.6023 62.8491 0.0 0.0
-2.2389 37.8417 63.8121 0.0 0.0
-1.5324 37.1039 64.7623 0.0 0.0
-0.8072 36.3891 65.6996 0.0 0.0
-0.0626 35.6972 66.6248 0.0 0.0
0.7019 35.0281 67.538 0.0 0.0
1.4871 34.3817 68.4399 0.0 0.0
2.293 33.7584 69.33 0.0 0.0
3.1204 33.1581 70.2088 0.0 0.0
3.97 32.5809 71.0768 0.0 0.0
4.8419 32.0273 71.9335 0.0 0.0
5.3402 32.0596 71.8828 0.0 0.0
4.4866 32.5928 71.0586 0.0 0.0
3.6538 33.1482 70.2236 0.0 0.0
2.8421 33.7253 69.3779 0.0 0.0
2.0505 34.3242 68.521 0.0 0.0
1.2789 34.9446 67.6534 0.0 0.0
0.5265 35.5866 66.7743 0.0 0.0
-0.2067 36.25 65.884 0.0 0.0
-0.9216 36.935 64.9823 0.0 0.0
-1.6187 37.6416 64.0681 0.0 0.0
-2.2981 38.3697 63.142 0.0 0.0
-2.9607 39.1198 62.2028 0.0 0.0
-3.6065 39.8917 61.2508 0.0 0.0
-4.2364 40.6861 60.2848 0.0 0.0
-4.8504 41.5028 59.3048 0.0 0.0
-4.8153 41.9864 58.7304 0.0 0.0
-4.1932 41.1451 59.7325 0.0 0.0
-3.555 40.3277 60.719 0.0 0.0
-2.9005 39.5334 61.6911 0.0 0.0
-2.2289 38.7619 62.6491 0.0 0.0
-1.5398 38.0132 63.5936 0.0 0.0
-0.8327 37.2872 64.5246 0.0 0.0
-0.1074 36.5833 65.4431 0.0 0.0
0.637 35.9018 66.3493 0.0 0.0
1.4008 35.2427 67.2429 0.0 0.0
2.1845 34.6057 68.1249 0.0 0.0
2.9886 33.991 68.9952 0.0 0.0
3.8133 33.3988 69.8539 0.0 0.0
4.6595 32.8292 70.7006 0.0 0.0
5.5276 32.2821 71.5361 0.0 0.0
5.4801 32.6515 70.9694 0.0 0.0
4.62 33.2077 70.1354 0.0 0.0
3.7813 33.7863 69.2895 0.0 0.0
2.9638 34.3871 68.4321 0.0 0.0
2.1666 35.0104 67.5625 0.0 0.0
1.3895 35.6558 66.6807 0.0 0.0
0.6319 36.3234 65.7866 0.0 0.0
-0.1066 37.0133 64.8802 0.0 0.0
-0.8262 37.7252 63.9611 0.0 0.0
-1.528 38.4596 63.0286 0.0 0.0
-2.212 39.2167 62.0826 0.0 0.0
-2.8788 39.9965 61.1227 0.0 0.0
-3.5287 40.7991 60.1484 0.0 0.0
-4.1626 41.6254 59.1589 0.0 0.0
-4.7806 42.4755 58.1535 0.0 0.0
-4.7464 42.9699 57.5745 0.0 0.0
-4.1324 42.1107 58.5834 0.0 0.0
-3.5029 41.2759 59.5758 0.0 0.0
-2.8574 40.4645 60.5529 0.0 0.0
-2.1953 39.6763 61.5151 0.0 0.0
-1.5163 38.9109 62.4629 0.0 0.0
-0.8199 38.1684 63.3965 0.0 0.0
-0.1058 37.4481 64.3169 0.0 0.0
0.6269 36.75 65.2241 0.0 0.0
1.3783 36.0743 66.1183 0.0 0.0
2.149 35.4205 67.0 0.0 0.0
2.9394 34.7888 67.8694 0.0 0.0
3.7498 34.1793 68.7265 0.0 0.0
4.581 33.5921 69.5712 0.0 0.0
5.4333 33.027 70.4039 0.0 0.0
5.3874 33.4081 69.8401 0.0 0.0
4.5428 33.9819 69.0082 0.0 0.0
3.7189 34.5777 68.1642 0.0 0.0
2.9155 35.1957 67.3074 0.0 0.0
2.1317 35.8357 66.4381 0.0 0.0
1.3674 36.4978 65.556 0.0 0.0
0.622 37.1817 64.6613 0.0 0.0
-0.1049 37.888 63.7531 0.0 0.0
-0.8136 38.6165 62.8314 0.0 0.0
-1.5048 39.3673 61.8961 0.0 0.0
-2.179 40.141 60.9461 0.0 0.0
-2.8364 40.9377 59.9814 0.0 0.0
-3.4774 41.7578 59.0014 0.0 0.0
-4.1027 42.6015 58.0057 0.0 0.0
-4.7127 43.4697 56.9928 0.0 0.0
-4.6795 43.9754 56.4082 0.0 0.0
-4.0735 43.0979 57.4251 0.0 0.0
-3.4522 42.245 58.4249 0.0 0.0
-2.8156 41.4164 59.4079 0.0 0.0
-2.1628 40.6111 60.3753 0.0 0.0
-1.4935 39.829 61.3276 0.0 0.0
-0.8074 39.0697 62.2652 0.0 0.0
-0.1041 38.3331 63.1882 0.0 0.0
0.6171 37.6186 64.0976 0.0 0.0
1.3566 36.9263 64.9935 0.0 0.0
2.1147 36.2561 65.8762 0.0 0.0
2.8919 35.6078 66.7457 0.0 0.0
3.6884 34.9816 67.6022 0.0 0.0
4.5052 34.3772 68.4461 0.0 0.0
5.3423 33.7948 69.2774 0.0 0.0
5.2978 34.1872 68.7154 0.0 0.0
4.4681 34.7781 67.8844 0.0 0.0
3.6585 35.3906 67.0407 0.0 0.0
2.8687 36.0253 66.1839 0.0 0.0
2.0979 36.6817 65.3137 0.0 0.0
1.3459 37.3602 64.4303 0.0 0.0
0.6123 38.0605 63.5335 0.0 0.0
-0.1033 38.7831 62.6226 0.0 0.0
-0.8013 39.5282 61.6975 0.0 0.0
-1.4824 40.2956 60.7579 0.0 0.0
-2.1469 41.0862 59.803 0.0 0.0
-2.7952 41.9002 58.8326 0.0 0.0
-3.4275 42.7379 57.8458 0.0 0.0
-4.0446 43.5996 56.8423 0.0 0.0
-4.6468 44.4866 55.8208 0.0 0.0
-4.6145 45.0036 55.2304 0.0 0.0
-4.0161 44.107 56.2567 0.0 0.0
-3.403 43.236 57.2645 0.0 0.0
-2.775 42.3893 58.255 0.0 0.0
-2.1312 41.5666 59.2289 0.0 0.0
-1.4715 40.7674 60.1866 0.0 0.0
-0.7953 39.9916 61.1287 0.0 0.0
-0.1026 39.2382 62.0558 0.0 0.0
0.6076 38.5074 62.9686 0.0 0.0
1.3355 37.7989 63.8667 0.0 0.0
2.0814 37.1123 64.7512 0.0 0.0
2.8459 36.4477 65.6221 0.0 0.0
3.6291 35.8049 66.4795 0.0 0.0
4.4317 35.1841 67.3234 0.0 0.0
5.2542 34.5848 68.1542 0.0 0.0
5.2112 34.9878 67.5936 0.0 0.0
4.3959 35.5953 66.7626 0.0 0.0
3.6001 36.2245 65.918 0.0 0.0
2.8234 36.8753 65.0602 0.0 0.0
2.0652 37.548 64.1882 0.0 0.0
1.3252 38.2427 63.3024 0.0 0.0
0.603 38.9595 62.4023 0.0 0.0
-0.1018 39.6984 61.4879 0.0 0.0
-0.7894 40.4601 60.5583 0.0 0.0
-1.4607 41.2447 59.6133 0.0 0.0
-2.1158 42.0525 58.6523 0.0 0.0
-2.7551 42.884 57.6747 0.0 0.0
-3.379 43.7396 56.6804 0.0 0.0
-3.9881 44.6204 55.6678 0.0 0.0
-4.5826 45.5268 54.6363 0.0 0.0
-4.5512 46.0558 54.0389 0.0 0.0
-3.9604 45.1394 55.076 0.0 0.0
-3.3552 44.2492 56.0932 0.0 0.0
-2.7355 43.3841 57.0923 0.0 0.0
-2.1005 42.5435 58.0737 0.0 0.0
-1.45 41.7269 59.0381 0.0 0.0
-0.7836 40.934 59.9859 0.0 0.0
-0.101 40.164 60.9182 0.0 0.0
0.5985 39.4166 61.8351 0.0 0.0
1.3151 38.6918 62.7369 0.0 0.0
2.0492 37.989 63.6244 0.0 0.0
2.8013 37.3081 64.4975 0.0 0.0
3.5715 36.6491 65.3567 0.0 0.0
4.3607 36.0119 66.2016 0.0 0.0
5.1689 35.3962 67.0331 0.0 0.0
5.1273 35.8097 66.473 0.0 0.0
4.326 36.4335 65.6408 0.0 0.0
3.5434 37.0787 64.7949 0.0 0.0
2.7795 37.7459 63.9346 0.0 0.0
2.0335 38.4348 63.0599 0.0 0.0
1.3051 39.1458 62.1706 0.0 0.0
0.594 39.8788 61.2667 0.0 0.0
-0.1003 40.6345 60.3472 0.0 0.0
-0.7778 41.413 59.412 0.0 0.0
-1.4395 42.2145 58.4608 0.0 0.0
-2.0855 43.04 57.4927 0.0 0.0
-2.7162 43.8897 56.5071 0.0 0.0
-3.3318 44.7643 55.5033 0.0 0.0
-3.9331 45.6643 54.4807 0.0 0.0
-4.5202 46.5911 53.4379 0.0 0.0
-4.4897 47.133 52.8326 0.0 0.0
-3.9062 46.1956 53.8816 0.0 0.0
-3.3087 45.2853 54.9101 0.0 0.0
-2.6972 44.4013 55.9186 0.0 0.0
-2.0707 43.5423 56.9088 0.0 0.0
-1.4292 42.7078 57.881 0.0 0.0
-0.7722 41.8973 58.8361 0.0 0.0
-0.0995 41.1104 59.7741 0.0 0.0
0.5895 40.3463 60.6964 0.0 0.0
1.2953 39.6048 61.603 0.0 0.0
2.018 38.8857 62.4944 0.0 0.0
2.7581 38.1887 63.3709 0.0 0.0
3.5158 37.5137 64.2325 0.0 0.0
4.2918 36.8602 65.0798 0.0 0.0
5.0864 36.2284 65.9129 0.0 0.0
5.0461 36.6522 65.3527 0.0 0.0
4.2582 37.292 64.5183 0.0 0.0
3.4886 37.9535 63.6695 0.0 0.0
2.737 38.6365 62.8062 0.0 0.0
2.0027 39.3417 61.9278 0.0 0.0
1.2856 40.069 61.034 0.0 0.0
0.5852 40.8188 60.1247 0.0 0.0
-0.0988 41.5911 59.1996 0.0 0.0
-0.7666 42.3869 58.2579 0.0 0.0
-1.419 43.2063 57.299 0.0 0.0
-2.0561 44.0499 56.3224 0.0 0.0
-2.6784 44.9184 55.3274 0.0 0.0
-3.286 45.8123 54.3134 0.0 0.0
-3.8796 46.733 53.2791 0.0 0.0
-4.4595 47.6811 52.2234 0.0 0.0
-4.4298 48.236 51.6098 0.0 0.0
-3.8534 47.2767 52.6725 0.0 0.0
-3.2635 46.3458 53.713 0.0 0.0
-2.6599 45.4415 54.7328 0.0 0.0
-2.0417 44.5633 55.733 0.0 0.0
-1.409 43.7103 56.7142 0.0 0.0
-0.7611 42.8821 57.677 0.0 0.0
-0.0981 42.0776 58.6226 0.0 0.0
0.5809 41.2965 59.5512 0.0 0.0
1.276 40.5385 60.4632 0.0 0.0
1.9877 39.803 61.3596 0.0 0.0
2.7162 39.0897 62.2403 0.0 0.0
3.4618 38.3984 63.1058 0.0 0.0
4.2251 37.7291 63.956 0.0 0.0
5.0065 37.0812 64.7917 0.0 0.0
4.9674 37.5152 64.2306 0.0 0.0
4.1926 38.171 63.3932 0.0 0.0
3.4354 38.8485 62.5408 0.0 0.0
2.6957 39.5477 61.6734 0.0 0.0
1.9729 40.2692 60.7901 0.0 0.0
1.2666 41.0131 59.891 0.0 0.0
0.5767 41.7797 58.9755 0.0 0.0
-0.0974 42.5695 58.0432 0.0 0.0
-0.7557 43.3827 57.0939 0.0 0.0
-1.399 44.2203 56.1264 0.0 0.0
-2.0276 45.0828 55.1402 0.0 0.0
-2.6416 45.9709 54.1345 0.0 0.0
-3.2414 46.8853 53.1089 0.0 0.0
-3.8276 47.8274 52.0614 0.0 0.0
-4.4004 48.7981 50.9913 0.0 0.0
-4.3714 49.367 50.3682 0.0 0.0
-3.8021 48.3845 51.4461 0.0 0.0
-3.2195 47.4312 52.5007 0.0 0.0
-2.6236 46.5063 53.5329 0.0 0.0
-2.0136 45.608 54.5443 0.0 0.0
-1.3893 44.7358 55.5358 0.0 0.0
-0.7504 43.8888 56.508 0.0 0.0
-0.0967 43.0666 57.4617 0.0 0.0
0.5725 42.268 58.3978 0.0 0.0
1.2574 41.4928 59.3168 0.0 0.0
1.9583 40.7406 60.2191 0.0 0.0
2.6756 40.0108 61.105 0.0 0.0
3.4094 39.3036 61.975 0.0 0.0
4.1605 38.618 62.8295 0.0 0.0
4.929 37.9542 63.6687 0.0 0.0
4.8912 38.3985 63.1058 0.0 0.0
4.1289 39.0703 62.2645 0.0 0.0
3.3838 39.7637 61.4078 0.0 0.0
2.6557 40.4793 60.5349 0.0 0.0
1.9439 41.2174 59.6459 0.0 0.0
1.2482 41.9781 58.7402 0.0 0.0
0.5684 42.7617 57.8178 0.0 0.0
-0.096 43.5692 56.8775 0.0 0.0
-0.7451 44.4009 55.919 0.0 0.0
-1.3796 45.2572 54.9419 0.0 0.0
-1.9998 46.1394 53.9449 0.0 0.0
-2.6058 47.048 52.9272 0.0 0.0
-3.198 47.9841 51.8879 0.0 0.0
-3.7769 48.9486 50.8261 0.0 0.0
-4.3428 49.9434 49.74 0.0 0.0
-4.3146 50.5276 49.1059 0.0 0.0
-3.7521 49.5202 50.2009 0.0 0.0
-3.1767 48.5436 51.271 0.0 0.0
-2.5883 47.5965 52.3172 0.0 0.0
-1.9862 46.6772 53.3414 0.0 0.0
-1.3701 45.7849 54.3444 0.0 0.0
-0.7399 44.9186 55.3272 0.0 0.0
-0.0953 44.0775 56.2906 0.0 0.0
0.5643 43.2612 57.235 0.0 0.0
1.2392 42.4685 58.1617 0.0 0.0
1.9297 41.6992 59.071 0.0 0.0
2.6361 40.9528 59.9633 0.0 0.0
3.3586 40.2291 60.8388 0.0 0.0
4.0978 39.5274 61.6984 0.0 0.0
4.8539 38.8476 62.542 0.0 0.0
4.8172 39.3018 61.9772 0.0 0.0
4.0671 39.9896 61.1309 0.0 0.0
3.3337 40.6995 60.2685 0.0 0.0
2.6168 41.4315 59.3899 0.0 0.0
1.9158 42.1864 58.4941 0.0 0.0
1.2304 42.9644 57.5809 0.0 0.0
0.5603 43.766 56.6499 0.0 0.0
-0.0947 44.5918 55.7004 0.0 0.0
-0.7348 45.4422 54.7321 0.0 0.0
-1.3608 46.3185 53.7436 0.0 0.0
-1.9727 47.2213 52.7343 0.0 0.0
-2.571 48.1515 51.7031 0.0 0.0
-3.1557 49.1101 50.6492 0.0 0.0
-3.7276 50.099 49.5708 0.0 0.0
-4.2867 51.1194 48.4665 0.0 0.0
-4.2592 51.7194 47.821 0.0 0.0
-3.7034 50.6855 48.9351 0.0 0.0
-3.135 49.6842 50.0222 0.0 0.0
-2.5539 48.7134 51.0844 0.0 0.0
-1.9595 47.7719 52.1229 0.0 0.0
-1.3515 46.8584 53.1389 0.0 0.0
-0.7298 45.9722 54.1332 0.0 0.0
-0.094 45.1117 55.1073 0.0 0.0
0.5564 44.2765 56.0618 0.0 0.0
1.2216 43.466 56.9971 0.0 0.0
1.902 42.6792 57.9145 0.0 0.0
2.5978 41.9157 58.8141 0.0 0.0
3.3092 41.1751 59.6965 0.0 0.0
4.0369 40.4572 60.5617 0.0 0.0
4.781 39.7613 61.4107 0.0 0.0
4.7454 40.2257 60.8431 0.0 0.0
4.0289 40.9086 60.0166 0.0 0.0
3.3276 41.6124 59.1742 0.0 0.0
2.641 42.3378 58.3155 0.0 0.0
1.9693 43.0847 57.4405 0.0 0.0
1.312 43.8538 56.5485 0.0 0.0
0.6688 44.6455 55.6389 0.0 0.0
0.0392 45.4606 54.7113 0.0 0.0
-0.5767 46.2998 53.7645 0.0 0.0
-1.1793 47.1636 52.7985 0.0 0.0
-1.7691 48.053 51.8119 0.0 0.0
-2.3462 48.969 50.8038 0.0 0.0
-2.9111 49.9132 49.7729 0.0 0.0
-3.4638 50.8862 48.7182 0.0 0.0
-4.0047 51.8899 47.638 0.0 0.0
-3.6381 51.8493 47.6814 0.0 0.0
-3.0777 50.8248 48.7844 0.0 0.0
-2.5045 49.8321 49.8609 0.0 0.0
-1.9188 48.8703 50.912 0.0 0.0
-1.32 47.9377 51.9394 0.0 0.0
-0.7076 47.0326 52.9444 0.0 0.0
-0.0816 46.1547 53.9276 0.0 0.0
0.5583 45.3027 54.8903 0.0 0.0
1.2126 44.4758 55.8332 0.0 0.0
1.8818 43.673 56.7573 0.0 0.0
2.5657 42.8943 57.6628 0.0 0.0
3.2648 42.1387 58.5503 0.0 0.0
3.9798 41.4057 59.4207 0.0 0.0
4.7103 40.6952 60.2737 0.0 0.0
4.6757 41.1702 59.7023 0.0 0.0
3.928 41.9122 58.8183 0.0 0.0
3.1969 42.6782 57.9156 0.0 0.0
2.4821 43.4687 56.994 0.0 0.0
1.7835 44.284 56.0532 0.0 0.0
1.1004 45.1253 55.092 0.0 0.0
0.4326 45.993 54.1098 0.0 0.0
-0.2203 46.888 53.1059 0.0 0.0
-0.8584 47.8113 52.0792 0.0 0.0
-1.4821 48.764 51.0287 0.0 0.0
-2.092 49.7472 49.9534 0.0 0.0
-2.6882 50.763 48.8513 0.0 0.0
-3.2711 51.8127 47.7207 0.0 0.0
-2.904 51.78 47.7558 0.0 0.0
-2.3465 50.7885 48.8236 0.0 0.0
-1.777 49.8276 49.8659 0.0 0.0
-1.1951 48.8958 50.8841 0.0 0.0
-0.6007 47.9918 51.8794 0.0 0.0
0.0066 47.1145 52.8531 0.0 0.0
0.627 46.2629 53.8061 0.0 0.0
1.2611 45.4358 54.7394 0.0 0.0
1.9087 44.633 55.6533 0.0 0.0
2.5703 43.8536 56.5487 0.0 0.0
3.2461 43.097 57.4262 0.0 0.0
3.9365 42.3627 58.2862 0.0 0.0
4.6417 41.6502 59.1292 0.0 0.0
4.6081 42.1356 58.5541 0.0 0.0
3.8852 42.8808 57.6786 0.0 0.0
3.1777 43.6498 56.7842 0.0 0.0
2.4856 44.4427 55.8711 0.0 0.0
1.8086 45.2604 54.9384 0.0 0.0
1.1461 46.1037 53.9851 0.0 0.0
0.4981 46.973 53.0109 0.0 0.0
-0.1359 47.8698 52.0145 0.0 0.0
-0.756 48.7945 50.9954 0.0 0.0
-1.3626 49.7486 49.952 0.0 0.0
-1.9561 50.7338 48.8827 0.0 0.0
-2.5367 51.7512 47.7867 0.0 0.0
-2.1689 51.7263 47.8134 0.0 0.0
-1.6171 50.7709 48.8426 0.0 0.0
-1.0536 49.8441 49.848 0.0 0.0
-0.4786 48.945 50.8301 0.0 0.0
0.1086 48.072 51.7908 0.0 0.0
0.7079 47.2246 52.7305 0.0 0.0
1.3198 46.4013 53.6506 0.0 0.0
1.9443 45.6019 54.5514 0.0 0.0
2.582 44.825 55.4339 0.0 0.0
3.2327 44.0707 56.2984 0.0 0.0
3.8971 43.3379 57.146 0.0 0.0
4.575 42.6265 57.9763 0.0 0.0
4.5424 43.1227 57.3964 0.0 0.0
3.846 43.8683 56.5318 0.0 0.0
3.1641 44.637 55.6488 0.0 0.0
2.4965 45.4293 54.7468 0.0 0.0
1.8428 46.2459 53.8252 0.0 0.0
1.2029 47.0875 52.8833 0.0 0.0
0.5764 47.9547 51.9205 0.0 0.0
-0.0371 48.8491 50.9354 0.0 0.0
-0.6376 49.7714 49.927 0.0 0.0
-1.2256 50.723 48.8944 0.0 0.0
-1.8012 51.7054 47.836 0.0 0.0
-1.4333 51.6883 47.8544 0.0 0.0
-0.8294 50.6724 48.9492 0.0 0.0
-0.212 49.6896 50.0163 0.0 0.0
0.4191 48.7383 51.057 0.0 0.0
1.0642 47.817 52.0728 0.0 0.0
1.7236 46.9247 53.0649 0.0 0.0
2.3976 46.0601 54.0342 0.0 0.0
3.0865 45.2224 54.9816 0.0 0.0
3.7906 44.4107 55.9079 0.0 0.0
4.5102 43.6244 56.8137 0.0 0.0
4.4785 44.1319 56.2279 0.0 0.0
3.8115 44.8737 55.3785 0.0 0.0
3.1578 45.6377 54.5107 0.0 0.0
2.517 46.425 53.6241 0.0 0.0
1.8892 47.2356 52.7182 0.0 0.0
1.2741 48.0707 51.7924 0.0 0.0
0.6714 48.931 50.8454 0.0 0.0
0.0806 49.818 49.8764 0.0 0.0
-0.4981 50.7321 48.8845 0.0 0.0
-1.0652 51.6751 47.8685 0.0 0.0
-0.6971 51.6658 47.8785 0.0 0.0
-0.1005 50.6878 48.9325 0.0 0.0
0.5088 49.741 49.9601 0.0 0.0
1.1311 48.824 50.9629 0.0 0.0
1.7667 47.9354 51.9418 0.0 0.0
2.416 47.0739 52.8984 0.0 0.0
3.0789 46.239 53.8328 0.0 0.0
3.7559 45.4297 54.7464 0.0 0.0
4.4472 44.645 55.6395 0.0 0.0
4.4164 45.164 55.0479 0.0 0.0
3.7824 45.8961 54.219 0.0 0.0
3.1605 46.6496 53.3724 0.0 0.0
2.5505 47.4251 52.5076 0.0 0.0
1.9521 48.2232 51.6239 0.0 0.0
1.3652 49.0449 50.7207 0.0 0.0
0.7895 49.8909 49.797 0.0 0.0
0.2249 50.7624 48.852 0.0 0.0
-0.3289 51.6603 47.8843 0.0 0.0
0.0394 51.6588 47.8859 0.0 0.0
0.6235 50.7249 48.8924 0.0 0.0
1.2195 49.8199 49.8743 0.0 0.0
1.8277 48.9426 50.8329 0.0 0.0
2.448 48.092 51.7688 0.0 0.0
3.0811 47.2667 52.6837 0.0 0.0
3.727 46.466 53.5781 0.0 0.0
4.3859 45.6892 54.4526 0.0 0.0
4.3559 46.2202 53.854 0.0 0.0
3.6627 47.0549 52.9196 0.0 0.0
2.9838 47.9169 51.9623 0.0 0.0
2.319 48.8076 50.981 0.0 0.0
1.6683 49.7275 49.975 0.0 0.0
1.0312 50.6782 48.943 0.0 0.0
0.4076 51.6612 47.8834 0.0 0.0
0.7757 51.6674 47.8767 0.0 0.0
1.3399 50.7869 48.8253 0.0 0.0
1.9147 49.9329 49.7514 0.0 0.0
2.5007 49.1037 50.6564 0.0 0.0
3.0978 48.2985 51.5408 0.0 0.0
3.7062 47.5169 52.4055 0.0 0.0
4.3263 46.7576 53.2516 0.0 0.0
4.2971 47.3016 52.6449 0.0 0.0
3.6409 48.1225 51.7352 0.0 0.0
2.9977 48.9692 50.8036 0.0 0.0
2.3674 49.8434 49.8487 0.0 0.0
1.7494 50.7455 48.87 0.0 0.0
1.1438 51.6776 47.8659 0.0 0.0
1.5119 51.6916 47.8508 0.0 0.0
2.0441 50.8801 48.7247 0.0 0.0
2.5858 50.091 49.5795 0.0 0.0
3.1369 49.324 50.4154 0.0 0.0
3.6978 48.5777 51.2336 0.0 0.0
4.2683 47.8519 52.0342 0.0 0.0
4.2399 48.4091 51.4191 0.0 0.0
3.6334 49.1974 50.5536 0.0 0.0
3.038 50.0097 49.6679 0.0 0.0
2.4535 50.8467 48.7608 0.0 0.0
1.8798 51.7095 47.8315 0.0 0.0
2.2475 51.7313 47.8081 0.0 0.0
2.8889 50.7808 48.832 0.0 0.0
3.5436 49.8619 49.8286 0.0 0.0
4.2119 48.9732 50.7992 0.0 0.0
4.1842 49.5448 50.1741 0.0 0.0
3.6526 50.2625 49.3933 0.0 0.0
3.1298 50.9995 48.5958 0.0 0.0
2.6151 51.7571 47.7805 0.0 0.0
2.9824 51.7867 47.7487 0.0 0.0
3.5643 50.9424 48.6574 0.0 0.0
4.1568 50.1236 49.544 0.0 0.0
4.1299 50.7101 48.9084 0.0 0.0
3.7373 51.2596 48.3154 0.0 0.0
3.3495 51.8202 47.7127 0.0 0.0
3.7164 51.8577 47.6726 0.0 0.0
4.1033 51.3048 48.2667 0.0 0.0
4.1033 51.0199 48.0464 0.0 0.0
3.7356 49.7993 49.3552 0.0 0.0
3.3577 48.6148 50.6362 0.0 0.0
2.9697 47.4638 51.8926 0.0 0.0
2.5707 46.3444 53.1259 0.0 0.0
2.1607 45.2553 54.3379 0.0 0.0
1.7389 44.1947 55.531 0.0 0.0
1.3053 43.1616 56.7064 0.0 0.0
0.8591 42.1552 57.8653 0.0 0.0
0.3996 41.1742 59.0095 0.0 0.0
-0.0731 40.2181 60.1399 0.0 0.0
-0.5602 39.2867 61.2576 0.0 0.0
-1.0617 38.3791 62.364 0.0 0.0
-1.5787 37.4952 63.46 0.0 0.0
-2.1113 36.6351 64.5462 0.0 0.0
-2.6605 35.7982 65.6241 0.0 0.0
-3.227 34.9849 66.6944 0.0 0.0
-3.8112 34.1955 67.7577 0.0 0.0
-4.4143 33.4298 68.8153 0.0 0.0
-5.0365 32.6885 69.8679 0.0 0.0
-5.6792 31.9723 70.9163 0.0 0.0
-6.3426 31.2813 71.9616 0.0 0.0
-5.218 31.1985 72.0895 0.0 0.0
-4.0892 31.1319 72.1925 0.0 0.0
-2.9574 31.0817 72.2706 0.0 0.0
-1.8233 31.0477 72.3237 0.0 0.0
-0.6875 31.0298 72.3515 0.0 0.0
0.4486 31.0281 72.3542 0.0 0.0
1.5845 31.0426 72.3316 0.0 0.0
2.719 31.0732 72.2839 0.0 0.0
3.8513 31.12 72.211 0.0 0.0
4.9809 31.1831 72.1132 0.0 0.0
6.1064 31.2625 71.9906 0.0 0.0
5.9858 32.1161 70.7031 0.0 0.0
5.8698 32.9996 69.4226 0.0 0.0
5.7582 33.9113 68.147 0.0 0.0
5.6508 34.8505 66.8736 0.0 0.0
5.5473 35.8162 65.6008 0.0 0.0
5.4474 36.8081 64.326 0.0 0.0
5.3512 37.8258 63.0479 0.0 0.0
5.2582 38.8694 61.7642 0.0 0.0
5.1684 39.9393 60.4728 0.0 0.0
5.0817 41.0355 59.1724 0.0 0.0
4.9977 42.1592 57.8606 0.0 0.0
4.9165 43.3108 56.5358 0.0 0.0
4.8379 44.4916 55.1957 0.0 0.0
4.7618 45.7033 53.8379 0.0 0.0
4.688 46.947 52.4605 0.0 0.0
4.6165 48.2252 51.0602 0.0 0.0
4.5471 49.5399 49.6349 0.0 0.0
4.4797 50.8943 48.1806 0.0 0.0
4.4144 52.2912 46.6942 0.0 0.0
3.6666 52.2015 46.7893 0.0 0.0
2.9175 52.1285 46.8667 0.0 0.0
2.1675 52.0722 46.9264 0.0 0.0
1.4165 52.0326 46.9685 0.0 0.0
0.6653 52.0096 46.9929 0.0 0.0
-0.0862 52.0032 46.9997 0.0 0.0
-0.8377 52.0134 46.9889 0.0 0.0
-1.5889 52.0402 46.9604 0.0 0.0
-2.3397 52.0837 46.9143 0.0 0.0
-3.0895 52.1438 46.8505 0.0 0.0
-3.8383 52.2206 46.7691 0.0 0.0
-4.5857 52.3142 46.67 0.0 0.0
-4.6536 50.9168 48.1564 0.0 0.0
-4.7236 49.5621 49.6109 0.0 0.0
-4.7956 48.2471 51.0363 0.0 0.0
-4.8699 46.9686 52.4366 0.0 0.0
-4.9465 45.7247 53.8141 0.0 0.0
-5.0256 44.5128 55.1718 0.0 0.0
-5.1072 43.3318 56.5118 0.0 0.0
-5.1915 42.18 57.8364 0.0 0.0
-5.2787 41.0562 59.1481 0.0 0.0
-5.3688 39.9598 60.4483 0.0 0.0
-5.462 38.8897 61.7393 0.0 0.0
-5.5585 37.846 63.0227 0.0 0.0
-5.6585 36.8282 64.3005 0.0 0.0
-5.7621 35.8361 65.575 0.0 0.0
-5.8696 34.8702 66.8472 0.0 0.0
-5.9811 33.9308 68.1201 0.0 0.0
-6.0969 33.0189 69.3951 0.0 0.0
-6.2174 32.1351 70.6749 0.0 0.0
-6.3426 31.2813 71.9616 0.0 0.0
-6.7382 31.0538 72.3141 0.0 0.0
-5.643 30.9687 72.447 0.0 0.0
-4.5436 30.899 72.5567 0.0 0.0
-3.4408 30.8444 72.6426 0.0 0.0
-2.3353 30.805 72.7049 0.0 0.0
-1.2282 30.7807 72.7433 0.0 0.0
-0.1202 30.7715 72.7578 0.0 0.0
0.9878 30.7774 72.7485 0.0 0.0
2.0951 30.7984 72.7152 0.0 0.0
3.2011 30.8346 72.6582 0.0 0.0
4.3045 30.8858 72.5773 0.0 0.0
5.4047 30.9523 72.4729 0.0 0.0
6.5009 31.034 72.3449 0.0 0.0
6.3742 31.8621 71.0804 0.0 0.0
6.2524 32.7193 69.8236 0.0 0.0
6.1351 33.6042 68.572 0.0 0.0
6.0221 34.5156 67.3233 0.0 0.0
5.9132 35.4528 66.0757 0.0 0.0
5.8081 36.4153 64.8271 0.0 0.0
5.7067 37.4028 63.5757 0.0 0.0
5.6088 38.4152 62.3198 0.0 0.0
5.5142 39.4525 61.0573 0.0 0.0
5.4226 40.5152 59.7869 0.0 0.0
5.3341 41.6038 58.5066 0.0 0.0
5.2484 42.7189 57.2144 0.0 0.0
5.1654 43.8615 55.9086 0.0 0.0
5.085 45.0329 54.5871 0.0 0.0
5.0071 46.2344 53.2478 0.0 0.0
4.9314 47.4677 51.8882 0.0 0.0
4.8581 48.7349 50.5059 0.0 0.0
4.7869 50.0383 49.098 0.0 0.0
4.7177 51.3809 47.6614 0.0 0.0
4.6505 52.7659 46.1922 0.0 0.0
3.8638 52.6648 46.2989 0.0 0.0
3.0756 52.5826 46.3858 0.0 0.0
2.2863 52.5192 46.4529 0.0 0.0
1.496 52.4745 46.5002 0.0 0.0
0.7052 52.4485 46.5277 0.0 0.0
-0.0858 52.4412 46.5355 0.0 0.0
-0.8768 52.4526 46.5235 0.0 0.0
-1.6675 52.4826 46.4917 0.0 0.0
-2.4577 52.5314 46.4401 0.0 0.0
-3.2468 52.5989 46.3687 0.0 0.0
-4.0347 52.6852 46.2775 0.0 0.0
-4.821 52.7903 46.1664 0.0 0.0
-4.8906 51.4049 47.6358 0.0 0.0
-4.9623 50.0619 49.0726 0.0 0.0
-5.0361 48.7582 50.4807 0.0 0.0
-5.1121 47.4907 51.863 0.0 0.0
-5.1905 46.2571 53.2225 0.0 0.0
-5.2713 45.0554 54.5618 0.0 0.0
-5.3546 43.8838 55.8832 0.0 0.0
-5.4406 42.741 57.1889 0.0 0.0
-5.5294 41.6257 58.4809 0.0 0.0
-5.6211 40.537 59.7611 0.0 0.0
-5.7159 39.4741 61.0313 0.0 0.0
-5.814 38.4366 62.2933 0.0 0.0
-5.9155 37.4241 63.549 0.0 0.0
-6.0205 36.4365 64.8 0.0 0.0
-6.1294 35.4738 66.0481 0.0 0.0
-6.2422 34.5364 67.2953 0.0 0.0
-6.3593 33.6248 68.5433 0.0 0.0
-6.4808 32.7397 69.7943 0.0 0.0
-6.607 31.8822 71.0504 0.0 0.0
-6.7382 31.0538 72.3141 0.0 0.0
-6.5216 31.1776 72.1216 0.0 0.0
-6.9192 30.9521 72.4731 0.0 0.0
-7.1382 30.8307 72.6644 0.0 0.0
-5.9779 30.7367 72.8132 0.0 0.0
-4.8126 30.6597 72.9359 0.0 0.0
-3.6434 30.5995 73.0321 0.0 0.0
-2.4708 30.556 73.1017 0.0 0.0
-1.2965 30.5293 73.1447 0.0 0.0
-0.121 30.5192 73.1608 0.0 0.0
1.0546 30.5259 73.1503 0.0 0.0
2.2292 30.5491 73.1127 0.0 0.0
3.4023 30.5891 73.0485 0.0 0.0
4.5722 30.6459 72.9578 0.0 0.0
5.7384 30.7195 72.8406 0.0 0.0
6.8998 30.8099 72.6971 0.0 0.0
6.7605 31.6553 71.3913 0.0 0.0
6.6267 32.532 70.0943 0.0 0.0
6.4981 33.4384 68.8033 0.0 0.0
6.3743 34.3733 67.516 0.0 0.0
6.2552 35.3357 66.2299 0.0 0.0
6.1404 36.325 64.943 0.0 0.0
6.0297 37.3409 63.6533 0.0 0.0
5.9229 38.3833 62.3589 0.0 0.0
5.8199 39.4523 61.0577 0.0 0.0
5.7203 40.5482 59.7479 0.0 0.0
5.6241 41.6716 58.4274 0.0 0.0
5.5311 42.8234 57.0943 0.0 0.0
5.441 44.0045 55.7465 0.0 0.0
5.3539 45.2163 54.3816 0.0 0.0
5.2695 46.4604 52.9974 0.0 0.0
5.1877 47.7388 51.5913 0.0 0.0
5.1084 49.0537 50.1604 0.0 0.0
5.0315 50.4078 48.7013 0.0 0.0
4.9568 51.8045 47.2107 0.0 0.0
4.8844 53.2475 45.6841 0.0 0.0
4.0592 53.1344 45.8034 0.0 0.0
3.2323 53.0423 45.9004 0.0 0.0
2.4041 52.9713 45.9754 0.0 0.0
1.5747 52.9212 46.0282 0.0 0.0
0.7448 52.892 46.059 0.0 0.0
-0.0855 52.8837 46.0677 0.0 0.0
-0.9156 52.8963 46.0544 0.0 0.0
-1.7454 52.9298 46.0191 0.0 0.0
-2.5747 52.9842 45.9617 0.0 0.0
-3.4026 53.0596 45.8823 0.0 0.0
-4.2292 53.156 45.7807 0.0 0.0
-5.054 53.2734 45.6568 0.0 0.0
-5.129 51.8299 47.1836 0.0 0.0
-5.2062 50.4328 48.6745 0.0 0.0
-5.2857 49.0783 50.1337 0.0 0.0
-5.3677 47.7631 51.5647 0.0 0.0
-5.4523 46.4844 52.9708 0.0 0.0
-5.5396 45.2401 54.3551 0.0 0.0
-5.6298 44.028 55.7197 0.0 0.0
-5.7229 42.8467 57.0675 0.0 0.0
-5.8191 41.6947 58.4004 0.0 0.0
-5.9186 40.5711 59.7206 0.0 0.0
-6.0215 39.4751 61.0303 0.0 0.0
-6.1281 38.4059 62.331 0.0 0.0
-6.2385 37.3634 63.6252 0.0 0.0
-6.353 36.3473 64.9144 0.0 0.0
-6.4717 35.3578 66.2008 0.0 0.0
-6.5949 34.3952 67.4863 0.0 0.0
-6.7228 33.46 68.7729 0.0 0.0
-6.8558 32.5534 70.0633 0.0 0.0
-6.9942 31.6764 71.3595 0.0 0.0
-7.1382 30.8307 72.6644 0.0 0.0
-6.9594 30.815 72.689 0.0 0.0
-6.5216 31.1776 72.1216 0.0 0.0
-5.9707 31.5014 71.6247 0.0 0.0
-4.8064 31.4203 71.7484 0.0 0.0
-3.638 31.3569 71.8455 0.0 0.0
-2.4668 31.3111 71.9156 0.0 0.0
-1.2933 31.283 71.959 0.0 0.0
-0.1188 31.2724 71.9752 0.0 0.0
1.0559 31.2795 71.9645 0.0 0.0
2.2296 31.304 71.9266 0.0 0.0
3.4013 31.3462 71.8618 0.0 0.0
4.5704 31.406 71.7701 0.0 0.0
5.7356 31.4835 71.6518 0.0 0.0
5.6203 32.366 70.336 0.0 0.0
5.5096 33.2789 69.0271 0.0 0.0
5.4031 34.2214 67.7223 0.0 0.0
5.3006 35.192 66.4195 0.0 0.0
5.2019 36.1905 65.1161 0.0 0.0
5.1069 37.216 63.8104 0.0 0.0
5.0152 38.2688 62.4998 0.0 0.0
4.9268 39.3486 61.1829 0.0 0.0
4.8414 40.4561 59.8571 0.0 0.0
4.7589 41.5917 58.5206 0.0 0.0
4.6792 42.756 57.1716 0.0 0.0
4.602 43.9506 55.8076 0.0 0.0
4.5274 45.1763 54.4265 0.0 0.0
4.4552 46.4352 53.0253 0.0 0.0
4.3852 47.7289 51.6021 0.0 0.0
4.3174 49.0602 50.1532 0.0 0.0
4.2517 50.4315 48.6759 0.0 0.0
4.1879 51.8466 47.1658 0.0 0.0
3.3352 51.7528 47.2655 0.0 0.0
2.481 51.6804 47.3426 0.0 0.0
1.6258 51.6293 47.3968 0.0 0.0
0.7698 51.5996 47.4286 0.0 0.0
-0.0866 51.5911 47.4376 0.0 0.0
-0.9429 51.6039 47.424 0.0 0.0
-1.7989 51.6379 47.3877 0.0 0.0
-2.6538 51.6933 47.3288 0.0 0.0
-3.5077 51.77 47.2472 0.0 0.0
-4.3601 51.8682 47.1429 0.0 0.0
-4.4265 50.4527 48.6532 0.0 0.0
-4.4949 49.0811 50.1306 0.0 0.0
-4.5655 47.7495 51.5795 0.0 0.0
-4.6383 46.4556 53.0028 0.0 0.0
-4.7135 45.1964 54.4038 0.0 0.0
-4.7912 43.9706 55.7849 0.0 0.0
-4.8714 42.7758 57.1489 0.0 0.0
-4.9544 41.6113 58.4977 0.0 0.0
-5.0402 40.4755 59.834 0.0 0.0
-5.1291 39.3679 61.1596 0.0 0.0
-5.2211 38.288 62.4763 0.0 0.0
-5.3165 37.235 63.7864 0.0 0.0
-5.4154 36.2094 65.0918 0.0 0.0
-5.5181 35.2107 66.3948 0.0 0.0
-5.6247 34.2399 67.697 0.0 0.0
-5.7355 33.2972 69.0013 0.0 0.0
-5.8508 32.3841 70.3095 0.0 0.0
-5.9707 31.5014 71.6247 0.0 0.0
-4.818 31.4742 71.6659 0.0 0.0
-3.6645 31.4641 71.6814 0.0 0.0
-2.5107 31.4713 71.6704 0.0 0.0
-1.3577 31.4957 71.6333 0.0 0.0
-0.2066 31.5373 71.57 0.0 0.0
0.9417 31.5959 71.481 0.0 0.0
2.0865 31.6721 71.366 0.0 0.0
3.2268 31.7655 71.2252 0.0 0.0
4.3615 31.8763 71.0593 0.0 0.0
5.4903 32.0048 70.8679 0.0 0.0
5.0046 31.5643 71.5289 0.0 0.0
4.5057 31.5335 71.5758 0.0 0.0
4.9791 31.9541 70.9432 0.0 0.0
5.4433 32.3848 70.3085 0.0 0.0
5.3971 32.7703 69.7503 0.0 0.0
4.7116 32.1271 70.6869 0.0 0.0
4.0061 31.5059 71.6177 0.0 0.0
3.5057 31.4816 71.6547 0.0 0.0
4.1365 32.0244 70.8387 0.0 0.0
4.7517 32.5845 70.0183 0.0 0.0
5.3516 33.1615 69.1928 0.0 0.0
5.307 33.5578 68.6364 0.0 0.0
4.7514 33.0115 69.4057 0.0 0.0
4.1829 32.4795 70.1704 0.0 0.0
3.6007 31.9625 70.9307 0.0 0.0
3.005 31.4606 71.6868 0.0 0.0
2.5039 31.4428 71.714 0.0 0.0
3.2224 32.0403 70.8152 0.0 0.0
3.9215 32.659 69.9105 0.0 0.0
4.6016 33.2988 68.9993 0.0 0.0
5.263 33.9594 68.0807 0.0 0.0
5.2198 34.3664 67.5252 0.0 0.0
4.6087 33.7428 68.3797 0.0 0.0
3.9818 33.1369 69.2276 0.0 0.0
3.3386 32.5489 70.0697 0.0 0.0
2.6789 31.9793 70.9057 0.0 0.0
2.0021 31.4282 71.7362 0.0 0.0
1.5002 31.4169 71.7534 0.0 0.0
2.2787 32.0419 70.8128 0.0 0.0
3.0351 32.691 69.8643 0.0 0.0
3.7698 33.3635 68.9082 0.0 0.0
4.4838 34.0595 67.9435 0.0 0.0
5.1773 34.7783 66.9702 0.0 0.0
5.1355 35.1953 66.4153 0.0 0.0
4.4912 34.5134 67.3264 0.0 0.0
3.8297 33.8517 68.229 0.0 0.0
3.15 33.2101 69.1241 0.0 0.0
2.4519 32.5889 70.0118 0.0 0.0
1.7349 31.9885 70.892 0.0 0.0
0.9982 31.4089 71.7658 0.0 0.0
0.4957 31.4041 71.7732 0.0 0.0
1.2036 31.9503 70.949 0.0 0.0
1.894 32.5156 70.1181 0.0 0.0
2.5668 33.0993 69.2808 0.0 0.0
3.2228 33.7015 68.4367 0.0 0.0
3.8623 34.322 67.5856 0.0 0.0
4.4862 34.9608 66.7265 0.0 0.0
5.0943 35.6174 65.86 0.0 0.0
5.0538 36.0444 65.3048 0.0 0.0
4.3893 35.3154 66.2565 0.0 0.0
3.7062 34.608 67.1987 0.0 0.0
3.0041 33.9226 68.1313 0.0 0.0
2.2825 33.2592 69.055 0.0 0.0
1.5406 32.6178 69.9699 0.0 0.0
0.7776 31.9987 70.8769 0.0 0.0
-0.0066 31.4025 71.7756 0.0 0.0
-0.5089 31.4041 71.773 0.0 0.0
0.2464 31.9676 70.9231 0.0 0.0
0.9821 32.5515 70.066 0.0 0.0
1.6986 33.1558 69.2008 0.0 0.0
2.3967 33.7803 68.3277 0.0 0.0
3.0769 34.4247 67.4463 0.0 0.0
3.7395 35.0887 66.5565 0.0 0.0
4.3849 35.7726 65.6574 0.0 0.0
5.014 36.4763 64.7492 0.0 0.0
4.9747 36.9133 64.1927 0.0 0.0
4.2977 36.144 65.176 0.0 0.0
3.6016 35.3978 66.148 0.0 0.0
2.8857 34.6747 67.1092 0.0 0.0
2.1495 33.9746 68.0599 0.0 0.0
1.3923 33.2978 69.0005 0.0 0.0
0.6135 32.6444 69.9315 0.0 0.0
-0.1875 32.0148 70.8531 0.0 0.0
-1.0114 31.409 71.7655 0.0 0.0
-1.5135 31.4172 71.7531 0.0 0.0
-0.7181 31.9912 70.8882 0.0 0.0
0.0565 32.5872 70.0143 0.0 0.0
0.8104 33.2046 69.1319 0.0 0.0
1.5445 33.8435 68.2405 0.0 0.0
2.2595 34.5037 67.3393 0.0 0.0
2.9554 35.1849 66.4289 0.0 0.0
3.6332 35.8872 65.5085 0.0 0.0
4.2933 36.6107 64.5774 0.0 0.0
4.9361 37.355 63.6357 0.0 0.0
4.8981 37.8016 63.0779 0.0 0.0
4.283 37.0761 63.9868 0.0 0.0
3.6524 36.3703 64.885 0.0 0.0
3.0054 35.6838 65.7734 0.0 0.0
2.342 35.0169 66.6517 0.0 0.0
1.6612 34.3694 67.5211 0.0 0.0
0.9629 33.7415 68.3814 0.0 0.0
0.2467 33.1334 69.2325 0.0 0.0
-0.4882 32.545 70.0754 0.0 0.0
-1.2419 31.9768 70.9096 0.0 0.0
-2.0153 31.4286 71.7357 0.0 0.0
-2.5171 31.4432 71.7133 0.0 0.0
-1.6866 32.0233 70.8403 0.0 0.0
-0.8782 32.6263 69.9577 0.0 0.0
-0.0916 33.2517 69.0654 0.0 0.0
0.6743 33.8998 68.1629 0.0 0.0
1.4198 34.5701 67.25 0.0 0.0
2.1455 35.2625 66.3263 0.0 0.0
2.8519 35.9771 65.3919 0.0 0.0
3.5393 36.7135 64.4463 0.0 0.0
4.2088 37.4723 63.4886 0.0 0.0
4.8606 38.2534 62.5188 0.0 0.0
4.8237 38.7099 61.9588 0.0 0.0
4.1989 37.9474 62.8969 0.0 0.0
3.5581 37.206 63.823 0.0 0.0
2.9004 36.485 64.738 0.0 0.0
2.2258 35.7847 65.6416 0.0 0.0
1.5334 35.1048 66.535 0.0 0.0
0.823 34.4457 67.4178 0.0 0.0
0.0939 33.807 68.2908 0.0 0.0
-0.6541 33.1892 69.1537 0.0 0.0
-1.422 32.592 70.0073 0.0 0.0
-2.2097 32.016 70.8512 0.0 0.0
-3.0183 31.4611 71.686 0.0 0.0
-3.5189 31.4822 71.6538 0.0 0.0
-2.6575 32.065 70.7786 0.0 0.0
-1.8189 32.6716 69.8924 0.0 0.0
-1.0029 33.3014 68.9955 0.0 0.0
-0.2087 33.9544 68.0876 0.0 0.0
0.5644 34.6308 67.1682 0.0 0.0
1.3166 35.3299 66.2375 0.0 0.0
2.0489 36.0522 65.2947 0.0 0.0
2.7614 36.7972 64.3398 0.0 0.0
3.4549 37.5653 63.3724 0.0 0.0
4.1302 38.3567 62.3915 0.0 0.0
4.7874 39.1713 61.3973 0.0 0.0
4.7516 39.6377 60.8344 0.0 0.0
4.1203 38.8411 61.7986 0.0 0.0
3.4728 38.0667 62.7493 0.0 0.0
2.8081 37.3137 63.6875 0.0 0.0
2.1259 36.5826 64.6132 0.0 0.0
1.426 35.8727 65.5273 0.0 0.0
0.7074 35.1842 66.4299 0.0 0.0
-0.0301 34.5174 67.321 0.0 0.0
-0.7869 33.8718 68.2014 0.0 0.0
-1.5638 33.2479 69.0708 0.0 0.0
-2.3613 32.6455 69.9299 0.0 0.0
-3.1795 32.0652 70.7784 0.0 0.0
-4.0193 31.5066 71.6166 0.0 0.0
-4.5189 31.5343 71.5746 0.0 0.0
-3.6971 32.0717 70.7688 0.0 0.0
-2.8953 32.6299 69.9526 0.0 0.0
-2.1136 33.2084 69.1266 0.0 0.0
-1.3509 33.8075 68.2901 0.0 0.0
-0.6073 34.4266 67.4435 0.0 0.0
0.1178 35.066 66.5866 0.0 0.0
0.8252 35.7257 65.7185 0.0 0.0
1.5149 36.4054 64.8399 0.0 0.0
2.1874 37.1052 63.9499 0.0 0.0
2.8436 37.8256 63.0481 0.0 0.0
3.4834 38.5661 62.1346 0.0 0.0
4.1076 39.3274 61.2084 0.0 0.0
4.7163 40.1093 60.2696 0.0 0.0
4.6815 40.5858 59.7032 0.0 0.0
4.0463 39.7569 60.6912 0.0 0.0
3.3945 38.9514 61.6644 0.0 0.0
2.7255 38.1683 62.6236 0.0 0.0
2.039 37.408 63.5692 0.0 0.0
1.3341 36.6698 64.5019 0.0 0.0
0.6108 35.9541 65.4217 0.0 0.0
-0.1318 35.2603 66.3294 0.0 0.0
-0.8939 34.5888 67.2247 0.0 0.0
-1.6764 33.9393 68.1085 0.0 0.0
-2.4793 33.3122 68.9803 0.0 0.0
-3.3037 32.7073 69.8409 0.0 0.0
-4.1495 32.125 70.6899 0.0 0.0
-5.0177 31.5652 71.5277 0.0 0.0
-5.516 31.5994 71.4758 0.0 0.0
-4.6659 32.1386 70.6698 0.0 0.0
-3.8365 32.6992 69.8524 0.0 0.0
-3.0277 33.2809 69.0244 0.0 0.0
-2.2388 33.8836 68.1851 0.0 0.0
-1.4697 34.5074 67.3343 0.0 0.0
-0.7195 35.152 66.4725 0.0 0.0
0.0119 35.8174 65.5991 0.0 0.0
0.725 36.504 64.7137 0.0 0.0
1.4206 37.2112 63.8163 0.0 0.0
2.0986 37.9398 62.9065 0.0 0.0
2.76 38.6892 61.9839 0.0 0.0
3.4049 39.4601 61.0482 0.0 0.0
4.0339 40.2529 60.0986 0.0 0.0
4.6473 41.0674 59.1349 0.0 0.0
4.6136 41.5544 58.5641 0.0 0.0
3.9895 40.7122 59.5538 0.0 0.0
3.3494 39.8931 60.528 0.0 0.0
2.6929 39.097 61.4875 0.0 0.0
2.0195 38.3235 62.4325 0.0 0.0
1.3286 37.5721 63.364 0.0 0.0
0.6197 36.8427 64.2822 0.0 0.0
-0.1075 36.1352 65.1873 0.0 0.0
-0.8537 35.4497 66.0799 0.0 0.0
-1.6191 34.7859 66.96 0.0 0.0
-2.4044 34.1439 67.8279 0.0 0.0
-3.2098 33.524 68.6836 0.0 0.0
-4.0362 32.9259 69.5276 0.0 0.0
-4.8838 32.3498 70.3596 0.0 0.0
-5.753 31.7958 71.1798 0.0 0.0
-5.7035 32.1727 70.6196 0.0 0.0
-4.8423 32.7353 69.8005 0.0 0.0
-4.0023 33.32 68.9694 0.0 0.0
-3.1832 33.9263 68.1263 0.0 0.0
-2.3847 34.5546 67.2707 0.0 0.0
-1.606 35.2047 66.4029 0.0 0.0
-0.8469 35.8765 65.5224 0.0 0.0
-0.1067 36.5701 64.6293 0.0 0.0
0.6149 37.2853 63.7233 0.0 0.0
1.3184 38.0226 62.8038 0.0 0.0
2.0042 38.7821 61.8706 0.0 0.0
2.6727 39.5639 60.9232 0.0 0.0
3.3247 40.3681 59.9615 0.0 0.0
3.9604 41.1955 58.9843 0.0 0.0
4.5803 42.0464 57.9914 0.0 0.0
4.5475 42.5437 57.4161 0.0 0.0
3.9317 41.6841 58.4128 0.0 0.0
3.3003 40.8482 59.3932 0.0 0.0
2.6528 40.0356 60.3576 0.0 0.0
1.9891 39.2456 61.3073 0.0 0.0
1.3083 38.4781 62.2425 0.0 0.0
0.6101 37.7328 63.1636 0.0 0.0
-0.1059 37.0094 64.071 0.0 0.0
-0.8401 36.3081 64.9648 0.0 0.0
-1.5932 35.6283 65.8458 0.0 0.0
-2.3654 34.9702 66.714 0.0 0.0
-3.157 34.3337 67.5695 0.0 0.0
-3.969 33.7192 68.4123 0.0 0.0
-4.8015 33.1262 69.2428 0.0 0.0
-5.6549 32.555 70.0609 0.0 0.0
-5.6071 32.9428 69.5034 0.0 0.0
-4.7614 33.5224 68.6859 0.0 0.0
-3.9362 34.1236 67.8557 0.0 0.0
-3.1313 34.7465 67.0128 0.0 0.0
-2.3463 35.3908 66.1573 0.0 0.0
-1.5805 36.0569 65.2886 0.0 0.0
-0.8335 36.7446 64.4068 0.0 0.0
-0.105 37.4541 63.5116 0.0 0.0
0.6055 38.1854 62.6026 0.0 0.0
1.2984 38.9388 61.6797 0.0 0.0
1.9742 39.7144 60.7423 0.0 0.0
2.6332 40.5124 59.7902 0.0 0.0
3.2762 41.3336 58.8224 0.0 0.0
3.9034 42.1782 57.8386 0.0 0.0
4.5152 43.0467 56.838 0.0 0.0
4.4833 43.5549 56.2573 0.0 0.0
3.8755 42.6774 57.2622 0.0 0.0
3.2525 41.824 58.2498 0.0 0.0
2.6139 40.9946 59.2207 0.0 0.0
1.9596 40.188 60.1758 0.0 0.0
1.2886 39.4042 61.1158 0.0 0.0
0.6008 38.6427 62.0407 0.0 0.0
-0.1042 37.9034 62.9514 0.0 0.0
-0.827 37.1863 63.8479 0.0 0.0
-1.568 36.4906 64.7307 0.0 0.0
-2.3276 35.8166 65.6002 0.0 0.0
-3.1059 35.1642 66.4565 0.0 0.0
-3.904 34.5334 67.2992 0.0 0.0
-4.7219 33.9241 68.1294 0.0 0.0
-5.5601 33.3362 68.9465 0.0 0.0
-5.5139 33.7348 68.3907 0.0 0.0
-4.6831 34.3307 67.5736 0.0 0.0
-3.8723 34.9482 66.7434 0.0 0.0
-3.081 35.5868 65.9 0.0 0.0
-2.3091 36.2472 65.0431 0.0 0.0
-1.5557 36.9291 64.1726 0.0 0.0
-0.8206 37.6326 63.2883 0.0 0.0
-0.1034 38.358 62.3901 0.0 0.0
0.5963 39.1051 61.4777 0.0 0.0
1.279 39.8746 60.5502 0.0 0.0
1.9452 40.6667 59.6076 0.0 0.0
2.5949 41.4816 58.6492 0.0 0.0
3.2291 42.3197 57.6748 0.0 0.0
3.848 43.182 56.6831 0.0 0.0
4.4519 44.0687 55.6737 0.0 0.0
4.4209 44.5885 55.0866 0.0 0.0
3.8209 43.6923 56.1008 0.0 0.0
3.2061 42.821 57.0969 0.0 0.0
2.5762 41.9739 58.0755 0.0 0.0
1.9309 41.1507 59.0371 0.0 0.0
1.2696 40.3503 59.9827 0.0 0.0
0.5918 39.5726 60.9128 0.0 0.0
-0.1027 38.8172 61.8277 0.0 0.0
-0.8143 38.0839 62.7279 0.0 0.0
-1.5436 37.3725 63.6137 0.0 0.0
-2.2909 36.6827 64.4855 0.0 0.0
-3.0565 36.0147 65.3432 0.0 0.0
-3.8411 35.3679 66.1874 0.0 0.0
-4.6449 34.7425 67.0181 0.0 0.0
-5.4684 34.1385 67.8354 0.0 0.0
-5.4236 34.5476 67.2802 0.0 0.0
-4.6073 35.1596 66.4625 0.0 0.0
-3.8104 35.7929 65.6312 0.0 0.0
-3.0323 36.4473 64.7862 0.0 0.0
-2.2731 37.1234 63.927 0.0 0.0
-1.5317 37.821 63.0537 0.0 0.0
-0.8081 38.5404 62.1661 0.0 0.0
-0.1019 39.2817 61.2638 0.0 0.0
0.5874 40.0449 60.3466 0.0 0.0
1.2602 40.8308 59.4136 0.0 0.0
1.9169 41.6397 58.4647 0.0 0.0
2.5577 42.4718 57.4991 0.0 0.0
3.1834 43.3276 56.5167 0.0 0.0
3.7941 44.2081 55.5159 0.0 0.0
4.3904 45.1138 54.4963 0.0 0.0
4.3602 45.6451 53.9026 0.0 0.0
3.7678 44.7296 54.9277 0.0 0.0
3.161 43.8397 55.9335 0.0 0.0
2.5395 42.9748 56.9204 0.0 0.0
1.9031 42.1339 57.8899 0.0 0.0
1.251 41.3165 58.8424 0.0 0.0
0.5831 40.5223 59.7786 0.0 0.0
-0.1011 39.7507 60.6988 0.0 0.0
-0.802 39.0016 61.6033 0.0 0.0
-1.52 38.2743 62.493 0.0 0.0
-2.2555 37.5688 63.3681 0.0 0.0
-3.0086 36.8848 64.2286 0.0 0.0
-3.7802 36.2226 65.0748 0.0 0.0
-4.5704 35.5814 65.9071 0.0 0.0
-5.3796 34.9616 66.7255 0.0 0.0
-5.3363 35.3806 66.1707 0.0 0.0
-4.534 36.0083 65.3515 0.0 0.0
-3.7504 36.6572 64.518 0.0 0.0
-2.9852 37.3275 63.6702 0.0 0.0
-2.2381 38.0191 62.8082 0.0 0.0
-1.5085 38.7325 61.9311 0.0 0.0
-0.796 39.4677 61.039 0.0 0.0
-0.1004 40.2251 60.1316 0.0 0.0
0.5788 41.005 59.2083 0.0 0.0
1.242 41.8077 58.2688 0.0 0.0
1.8895 42.6337 57.3124 0.0 0.0
2.5215 43.4833 56.3389 0.0 0.0
3.1389 44.3577 55.3469 0.0 0.0
3.7418 45.2572 54.3358 0.0 0.0
4.3305 46.1828 53.3048 0.0 0.0
4.3012 46.7265 52.7034 0.0 0.0
3.7161 45.7906 53.7406 0.0 0.0
3.1171 44.8812 54.7573 0.0 0.0
2.5038 43.9974 55.7544 0.0 0.0
1.8761 43.1387 56.7326 0.0 0.0
1.2331 42.3039 57.6931 0.0 0.0
0.5746 41.4927 58.6363 0.0 0.0
-0.0996 40.7045 59.5629 0.0 0.0
-0.7901 39.9389 60.4732 0.0 0.0
-1.4971 39.1956 61.3678 0.0 0.0
-2.2211 38.4743 62.2471 0.0 0.0
-2.9621 37.7749 63.1111 0.0 0.0
-3.7212 37.0968 63.9606 0.0 0.0
-4.4982 36.4401 64.7954 0.0 0.0
-5.2937 35.8046 65.6158 0.0 0.0
-5.2518 36.2338 65.0604 0.0 0.0
-4.463 36.877 64.2386 0.0 0.0
-3.6923 37.5415 63.4021 0.0 0.0
-2.9395 38.2272 62.551 0.0 0.0
-2.2042 38.9347 61.6846 0.0 0.0
-1.4859 39.664 60.8029 0.0 0.0
-0.7842 40.4154 59.9054 0.0 0.0
-0.0989 41.1892 58.9919 0.0 0.0
0.5705 41.9856 58.062 0.0 0.0
1.2243 42.8055 57.1148 0.0 0.0
1.8628 43.6492 56.1498 0.0 0.0
2.4864 44.5175 55.1666 0.0 0.0
3.0957 45.4107 54.1643 0.0 0.0
3.6908 46.3301 53.1416 0.0 0.0
4.2723 47.2767 52.0978 0.0 0.0
4.2437 47.8337 51.4875 0.0 0.0
3.6659 46.8763 52.5384 0.0 0.0
3.0745 45.9464 53.5673 0.0 0.0
2.4692 45.0431 54.5757 0.0 0.0
1.8498 44.1656 55.5639 0.0 0.0
1.2156 43.3128 56.5336 0.0 0.0
0.5664 42.484 57.485 0.0 0.0
-0.0982 41.6788 58.4189 0.0 0.0
-0.7785 40.8967 59.3359 0.0 0.0
-1.4748 40.1372 60.2365 0.0 0.0
-2.1877 39.3998 61.1209 0.0 0.0
-2.9171 38.6847 61.9896 0.0 0.0
-3.6639 37.9909 62.843 0.0 0.0
-4.4283 37.3187 63.6813 0.0 0.0
-5.2105 36.6677 64.5047 0.0 0.0
-5.1699 37.1065 63.9483 0.0 0.0
-4.3941 37.7652 63.1232 0.0 0.0
-3.636 38.4453 62.2828 0.0 0.0
-2.8951 39.1469 61.427 0.0 0.0
-2.1714 39.87 60.5557 0.0 0.0
-1.464 40.6154 59.6683 0.0 0.0
-0.7728 41.3832 58.7644 0.0 0.0
-0.0975 42.1738 57.8437 0.0 0.0
0.5623 42.9877 56.9057 0.0 0.0
1.207 43.8254 55.9497 0.0 0.0
1.8369 44.6876 54.9751 0.0 0.0
2.4522 45.5747 53.9812 0.0 0.0
3.0536 46.4881 52.9668 0.0 0.0
3.6413 47.4286 51.931 0.0 0.0
4.2156 48.3973 50.8728 0.0 0.0
4.1878 48.9679 50.2533 0.0 0.0
3.617 47.9876 51.3193 0.0 0.0
3.033 47.0362 52.3622 0.0 0.0
2.4355 46.1126 53.3828 0.0 0.0
1.8242 45.2153 54.3827 0.0 0.0
1.1986 44.3436 55.3627 0.0 0.0
0.5584 43.4968 56.3236 0.0 0.0
-0.0968 42.6743 57.2657 0.0 0.0
-0.7672 41.8751 58.1903 0.0 0.0
-1.4533 41.099 59.0978 0.0 0.0
-2.1553 40.3454 59.9885 0.0 0.0
-2.8735 39.614 60.8629 0.0 0.0
-3.6085 38.9048 61.7211 0.0 0.0
-4.3605 38.2169 62.5637 0.0 0.0
-5.1299 37.5505 63.391 0.0 0.0
-5.0905 37.9991 62.8329 0.0 0.0
-4.3274 38.6733 62.0034 0.0 0.0
-3.5814 39.369 61.1581 0.0 0.0
-2.8521 40.0865 60.297 0.0 0.0
-2.1395 40.8257 59.4197 0.0 0.0
-1.4427 41.5875 58.5255 0.0 0.0
-0.7617 42.3721 57.6142 0.0 0.0
-0.0961 43.18 56.6853 0.0 0.0
0.5544 44.0117 55.7381 0.0 0.0
1.1903 44.8679 54.7722 0.0 0.0
1.8117 45.7494 53.7866 0.0 0.0
2.4189 46.6566 52.7807 0.0 0.0
3.0127 47.5911 51.753 0.0 0.0
3.593 48.5538 50.7026 0.0 0.0
4.1603 49.546 49.6283 0.0 0.0
4.1332 50.1313 48.9981 0.0 0.0
3.5694 49.1268 50.0812 0.0 0.0
2.9926 48.1525 51.1396 0.0 0.0
2.4027 47.2069 52.1744 0.0 0.0
1.7994 46.2893 53.1869 0.0 0.0
1.1821 45.3979 54.1785 0.0 0.0
0.5506 44.5322 55.15 0.0 0.0
-0.0954 43.6913 56.1021 0.0 0.0
-0.7563 42.8745 57.0355 0.0 0.0
-1.4323 42.0813 57.9509 0.0 0.0
-2.1239 41.3111 58.8488 0.0 0.0
-2.8311 40.5637 59.7294 0.0 0.0
-3.5547 39.8383 60.5938 0.0 0.0
-4.2948 39.1347 61.4418 0.0 0.0
-5.0517 38.4527 62.2737 0.0 0.0
-5.0135 38.9114 61.713 0.0 0.0
-4.2626 39.6012 60.8783 0.0 0.0
-3.5283 40.3128 60.0274 0.0 0.0
-2.8103 41.0461 59.16 0.0 0.0
-2.1085 41.802 58.2755 0.0 0.0
-1.422 42.5807 57.3736 0.0 0.0
-0.7509 43.3826 56.4537 0.0 0.0
-0.0947 44.2082 55.5158 0.0 0.0
0.5468 45.0584 54.5584 0.0 0.0
1.174 45.9339 53.5812 0.0 0.0
1.7872 46.8355 52.5832 0.0 0.0
2.3866 47.7642 51.5636 0.0 0.0
2.9728 48.7208 50.5213 0.0 0.0
3.546 49.7071 49.4545 0.0 0.0
4.1065 50.7244 48.3622 0.0 0.0
4.0801 51.3258 47.7199 0.0 0.0
3.523 50.2953 48.8221 0.0 0.0
2.9533 49.2965 49.8977 0.0 0.0
2.3707 48.3279 50.9483 0.0 0.0
1.7752 47.3885 51.9751 0.0 0.0
1.166 46.4764 52.9797 0.0 0.0
0.543 45.5909 53.9631 0.0 0.0
-0.0941 44.7311 54.9261 0.0 0.0
-0.7456 43.8961 55.8694 0.0 0.0
-1.4119 43.0852 56.7938 0.0 0.0
-2.0933 42.2979 57.7 0.0 0.0
-2.7899 41.5339 58.5882 0.0 0.0
-3.5024 40.7921 59.4593 0.0 0.0
-4.231 40.0726 60.3135 0.0 0.0
-4.9758 39.3748 61.1511 0.0 0.0
-4.9387 39.8433 60.5877 0.0 0.0
-4.2168 40.5322 59.7667 0.0 0.0
-3.5101 41.2424 58.9295 0.0 0.0
-2.8186 41.9736 58.0759 0.0 0.0
-2.1419 42.7267 57.2053 0.0 0.0
-1.4796 43.5018 56.3178 0.0 0.0
-0.8317 44.2998 55.4122 0.0 0.0
-0.1975 45.1208 54.4885 0.0 0.0
0.4229 45.9658 53.5457 0.0 0.0
1.0299 46.8358 52.5829 0.0 0.0
1.624 47.7312 51.5996 0.0 0.0
2.2053 48.6535 50.5942 0.0 0.0
2.774 49.6034 49.5663 0.0 0.0
3.3307 50.5828 48.5139 0.0 0.0
3.8754 51.5925 47.4359 0.0 0.0
3.5088 51.5532 47.4777 0.0 0.0
2.9442 50.522 48.5789 0.0 0.0
2.3671 49.5233 49.6527 0.0 0.0
1.777 48.5549 50.7014 0.0 0.0
1.1738 47.6159 51.7257 0.0 0.0
0.5569 46.7046 52.7276 0.0 0.0
-0.0737 45.8205 53.7074 0.0 0.0
-0.7186 44.962 54.6666 0.0 0.0
-1.3778 44.1289 55.6056 0.0 0.0
-2.052 43.3199 56.5254 0.0 0.0
-2.741 42.5349 57.4263 0.0 0.0
-3.4457 41.7729 58.3093 0.0 0.0
-4.1658 41.0339 59.1744 0.0 0.0
-4.9022 40.317 60.0223 0.0 0.0
-4.866 40.7958 59.455 0.0 0.0
-4.1698 41.4857 58.6444 0.0 0.0
-3.4878 42.1964 57.8176 0.0 0.0
-2.82 42.9276 56.9746 0.0 0.0
-2.166 43.68 56.1149 0.0 0.0
-1.5254 44.4544 55.2376 0.0 0.0
-0.8983 45.2509 54.3429 0.0 0.0
-0.2842 46.0703 53.4296 0.0 0.0
0.3171 46.9134 52.4973 0.0 0.0
0.9061 47.7813 51.5448 0.0 0.0
1.4827 48.6743 50.5716 0.0 0.0
2.0473 49.5939 49.5766 0.0 0.0
2.6004 50.5414 48.5581 0.0 0.0
3.1419 51.5179 47.5154 0.0 0.0
2.7745 51.4864 47.5489 0.0 0.0
2.2127 50.488 48.6153 0.0 0.0
1.6389 49.5206 49.6556 0.0 0.0
1.0525 48.5821 50.6718 0.0 0.0
0.4535 47.6717 51.6647 0.0 0.0
-0.1586 46.7878 52.6359 0.0 0.0
-0.7838 45.9299 53.5858 0.0 0.0
-1.4228 45.0965 54.5157 0.0 0.0
-2.0755 44.2873 55.4264 0.0 0.0
-2.7424 43.5017 56.3179 0.0 0.0
-3.4236 42.7387 57.1916 0.0 0.0
-4.1197 41.9983 58.0472 0.0 0.0
-4.8305 41.2795 58.8859 0.0 0.0
-4.7956 41.7684 58.3146 0.0 0.0
-4.0666 42.5201 57.4434 0.0 0.0
-3.3532 43.2957 56.5531 0.0 0.0
-2.6554 44.0952 55.6437 0.0 0.0
-1.9728 44.9195 54.7143 0.0 0.0
-1.3051 45.7695 53.7641 0.0 0.0
-0.6517 46.6456 52.7928 0.0 0.0
-0.0127 47.5492 51.7989 0.0 0.0
0.6123 48.4808 50.7819 0.0 0.0
1.2238 49.4419 49.7405 0.0 0.0
1.822 50.4343 48.6729 0.0 0.0
2.4071 51.4589 47.5782 0.0 0.0
2.0395 51.4353 47.6034 0.0 0.0
1.4832 50.4728 48.6316 0.0 0.0
0.9151 49.539 49.6357 0.0 0.0
0.3353 48.6331 50.6164 0.0 0.0
-0.2567 47.7534 51.5753 0.0 0.0
-0.861 46.8993 52.5129 0.0 0.0
-1.4781 46.0694 53.4306 0.0 0.0
-2.1078 45.2635 54.3288 0.0 0.0
-2.7509 44.4802 55.2085 0.0 0.0
-3.4072 43.7195 56.0699 0.0 0.0
-4.0773 42.9804 56.914 0.0 0.0
-4.7611 42.2628 57.7407 0.0 0.0
-4.7271 42.7623 57.1644 0.0 0.0
-4.0245 43.5146 56.3032 0.0 0.0
-3.3367 44.2898 55.4235 0.0 0.0
-2.663 45.0889 54.5243 0.0 0.0
-2.0037 45.9124 53.6051 0.0 0.0
-1.3581 46.7608 52.6656 0.0 0.0
-0.726 47.6354 51.7044 0.0 0.0
-0.1075 48.5371 50.7208 0.0 0.0
0.4982 49.4668 49.7137 0.0 0.0
1.091 50.4256 48.6822 0.0 0.0
1.6715 51.4156 47.6243 0.0 0.0
1.3036 51.3998 47.6411 0.0 0.0
0.7558 50.4764 48.6277 0.0 0.0
0.1972 49.5805 49.5911 0.0 0.0
-0.3728 48.7101 50.5329 0.0 0.0
-0.9539 47.8648 51.4536 0.0 0.0
-1.5469 47.0431 52.3546 0.0 0.0
-2.1516 46.2444 53.2366 0.0 0.0
-2.7686 45.4684 54.0999 0.0 0.0
-3.3976 44.7137 54.9457 0.0 0.0
-4.0394 43.9803 55.7738 0.0 0.0
-4.6936 43.2673 56.5856 0.0 0.0
-4.6606 43.778 56.0034 0.0 0.0
-3.9871 44.5266 55.1563 0.0 0.0
-3.3271 45.2976 54.2906 0.0 0.0
-2.6801 46.092 53.4057 0.0 0.0
-2.0464 46.9099 52.5013 0.0 0.0
-1.4254 47.7523 51.5765 0.0 0.0
-0.817 48.6202 50.6304 0.0 0.0
-0.2207 49.5149 49.6618 0.0 0.0
0.3633 50.4369 48.6701 0.0 0.0
0.9355 51.3879 47.6538 0.0 0.0
0.5673 51.38 47.6623 0.0 0.0
-0.0351 50.3931 48.7172 0.0 0.0
-0.6503 49.4376 49.7452 0.0 0.0
-1.2786 48.5121 50.748 0.0 0.0
-1.9205 47.6152 51.7265 0.0 0.0
-2.5762 46.7462 52.6818 0.0 0.0
-3.2459 45.9034 53.6151 0.0 0.0
-3.9296 45.0863 54.5272 0.0 0.0
-4.6281 44.2942 55.4186 0.0 0.0
-4.596 44.8161 54.8305 0.0 0.0
-3.9551 45.5555 54.0026 0.0 0.0
-3.3266 46.3165 53.1568 0.0 0.0
-2.7101 47.0994 52.2927 0.0 0.0
-2.1053 47.9054 51.4091 0.0 0.0
-1.5124 48.7352 50.5057 0.0 0.0
-0.9307 49.5892 49.5816 0.0 0.0
-0.3604 50.4692 48.6356 0.0 0.0
0.1991 51.3759 47.6666 0.0 0.0
-0.1691 51.3757 47.6667 0.0 0.0
-0.7595 50.4322 48.6752 0.0 0.0
-1.362 49.5179 49.6585 0.0 0.0
-1.9768 48.6315 50.6181 0.0 0.0
-2.6044 47.7717 51.5553 0.0 0.0
-3.2446 46.9379 52.4704 0.0 0.0
-3.8978 46.129 53.3647 0.0 0.0
-4.5643 45.3441 54.2386 0.0 0.0
-4.5331 45.8779 53.6434 0.0 0.0
-3.9306 46.5996 52.8435 0.0 0.0
-3.3389 47.3415 52.0265 0.0 0.0
-2.758 48.1043 51.192 0.0 0.0
-2.1873 48.8889 50.3389 0.0 0.0
-1.6272 49.6955 49.4669 0.0 0.0
-1.0772 50.5254 48.5753 0.0 0.0
-0.5372 51.3795 47.6628 0.0 0.0
-0.9055 51.3871 47.6546 0.0 0.0
-1.4767 50.4959 48.607 0.0 0.0
-2.059 49.6314 49.5361 0.0 0.0
-2.6526 48.7922 50.4438 0.0 0.0
-3.2574 47.9774 51.3306 0.0 0.0
-3.874 47.1864 52.197 0.0 0.0
-4.5022 46.4179 53.0444 0.0 0.0
-4.4718 46.9645 52.441 0.0 0.0
-3.8061 47.796 51.5287 0.0 0.0
-3.1537 48.654 50.5937 0.0 0.0
-2.5141 49.5399 49.6348 0.0 0.0
-1.8876 50.4542 48.6515 0.0 0.0
-1.2736 51.3987 47.6423 0.0 0.0
-1.6415 51.4142 47.6259 0.0 0.0
-2.182 50.5902 48.5058 0.0 0.0
-2.7322 49.7894 49.3658 0.0 0.0
-3.2921 49.0109 50.2066 0.0 0.0
-3.8619 48.2538 51.029 0.0 0.0
-4.4419 47.5174 51.8337 0.0 0.0
-4.4123 48.077 51.2219 0.0 0.0
-3.7946 48.8786 50.35 0.0 0.0
-3.1884 49.7044 49.4575 0.0 0.0
-2.5933 50.5558 48.5426 0.0 0.0
-2.0095 51.4335 47.6052 0.0 0.0
-2.3771 51.4568 47.5804 0.0 0.0
-2.8669 50.7263 48.3601 0.0 0.0
-3.3645 50.0144 49.1238 0.0 0.0
-3.8698 49.3204 49.8719 0.0 0.0
-4.3831 48.6437 50.605 0.0 0.0
-4.3543 49.2172 49.9833 0.0 0.0
-3.8087 49.9523 49.1906 0.0 0.0
-3.2723 50.7074 48.3803 0.0 0.0
-2.7445 51.484 47.5514 0.0 0.0
-3.1119 51.5152 47.5184 0.0 0.0
-3.7131 50.6432 48.4491 0.0 0.0
-4.3258 49.7982 49.3565 0.0 0.0
-4.2977 50.3867 48.724 0.0 0.0
-3.8857 50.9624 48.1078 0.0 0.0
-3.4789 51.5502 47.481 0.0 0.0
-3.8455 51.5892 47.4396 0.0 0.0
-4.27 50.9834 48.0854 0.0 0.0
-4.3196 50.914 48.1594 0.0 0.0
-4.3196 50.6296 47.9373 0.0 0.0
-4.3879 49.3072 49.3446 0.0 0.0
-4.4583 48.0216 50.7248 0.0 0.0
-4.5306 46.7706 52.0803 0.0 0.0
-4.6053 45.5516 53.4143 0.0 0.0
-4.6823 44.3631 54.7286 0.0 0.0
