Henry99C/3DPrinting_NonPlanarSurfaces_DobotMagician/data_non_planar/data1/output/angle_values.txt
J1 J2 J3 J5 J6
7.3491 32.128 47.2688 1.7141 11.1954
14.0751 36.2543 53.2735 -0.1951 49.1671
7.3061 26.1887 51.0475 1.3741 9.1521
7.3203 31.9028 47.0095 1.6915 11.0847
14.0876 36.0486 53.0874 -0.2377 49.3856
4.8836 28.3285 42.182 -0.0059 12.7318
1.7197 27.7286 41.2272 0.0085 3.3773
-2.7766 28.0252 41.7817 -0.0009 -10.3893
-7.6299 30.1139 45.1261 -0.0005 -25.6715
-13.2533 36.4806 53.6942 -0.0015 -49.652
-10.7859 34.2025 49.6511 -0.5221 -33.2911
-5.1276 32.9122 46.1885 -1.0315 -7.0732
-13.554 36.8474 54.3731 0.1446 -52.714
-6.3972 29.1052 43.7898 -0.0018 -23.0015
0.0882 27.5673 41.0148 -0.0017 -0.6305
3.2866 27.7859 41.3695 0.0142 7.7065
9.8662 30.6956 46.0573 0.0185 30.0939
13.6528 35.0245 51.8419 0.0285 45.4216
7.29 31.667 46.7364 1.6679 10.9687
7.2324 20.3495 54.2624 1.0315 7.0732
16.9947 26.8821 63.7722 -0.1446 52.7139
8.7128 16.3514 50.4288 0.0018 23.0015
1.2253 14.2798 47.0662 0.0017 0.6305
-2.4679 14.5415 47.5091 -0.0142 -7.7066
-10.0771 18.3748 53.3102 -0.0185 -30.0939
-14.4698 24.1921 60.6876 -0.0285 -45.4216
-7.0964 20.9928 53.5121 -1.6679 -10.9687
-5.1276 32.9122 46.1885 -1.0315 -7.0732
-5.1407 32.6672 45.9373 -1.0076 -7.124
-13.4923 36.4492 53.9544 0.1396 -52.1081
-6.3914 28.9333 43.5684 -0.003 -22.744
-0.0182 27.4376 40.854 -0.0026 -0.761
3.3437 27.65 41.205 0.0243 7.6775
9.8137 30.4641 45.7695 0.0313 29.6759
13.5726 34.659 51.4377 0.0426 44.8254
7.2599 31.4325 46.4628 1.6443 10.8532
7.2478 20.0439 53.9225 1.0076 7.124
16.9223 26.3499 63.2245 -0.1396 52.1081
8.7057 16.1278 50.1482 0.003 22.744
1.3481 14.1146 46.8623 0.0026 0.761
-2.5338 14.3736 47.2976 -0.0243 -7.6775
-10.0163 18.0778 52.9384 -0.0313 -29.6759
-14.3764 23.7101 60.1552 -0.0426 -44.8254
-7.0616 20.6747 53.1825 -1.6443 -10.8532
-5.1407 32.6672 45.9373 -1.0076 -7.124
-5.154 32.419 45.6884 -0.9839 -7.1743
-10.6714 32.0731 48.2344 -0.0052 -37.2047
-6.3851 28.7626 43.347 -0.0042 -22.4852
-0.125 27.3086 40.6932 -0.0035 -0.8929
3.4006 27.5147 41.0403 0.0345 7.6482
9.76 30.2344 45.4816 0.0441 29.2544
13.4894 34.2955 51.0308 0.0567 44.2197
7.23 31.1993 46.1889 1.6209 10.7382
7.2631 19.7399 53.5824 0.9839 7.1743
13.649 20.3564 55.9644 0.0052 37.2047
8.698 15.9057 49.8679 0.0042 22.4852
1.4713 13.9502 46.6583 0.0035 0.8929
-2.5996 14.2067 47.0861 -0.0345 -7.6482
-9.954 17.7836 52.567 -0.0441 -29.2543
-14.2795 23.231 59.6199 -0.0567 -44.2197
-7.0269 20.3582 52.8525 -1.6209 -10.7382
-5.154 32.419 45.6884 -0.9839 -7.1743
-5.1671 32.1718 45.4387 -0.9604 -7.2241
-10.6004 31.7904 47.8866 -0.0065 -36.6941
-6.3784 28.5929 43.1256 -0.0053 -22.2253
-0.2321 27.1802 40.5322 -0.0044 -1.0262
3.4574 27.38 40.8754 0.0447 7.6186
9.705 30.0065 45.1937 0.0568 28.8292
13.4031 33.9341 50.6213 0.0707 43.6043
7.2001 30.9674 45.9146 1.5976 10.6237
7.2782 19.4373 53.2419 0.9604 7.2241
13.5662 19.9812 55.5186 0.0065 36.6941
8.69 15.6854 49.5881 0.0053 22.2253
1.595 13.7868 46.4545 0.0044 1.0262
-2.6653 14.0406 46.8745 -0.0447 -7.6187
-9.8903 17.4922 52.1964 -0.0568 -28.8292
-14.1791 22.7551 59.0822 -0.0707 -43.6043
-6.9924 20.0432 52.5219 -1.5976 -10.6237
-5.1671 32.1718 45.4387 -0.9604 -7.2241
-5.1801 31.9257 45.1882 -0.937 -7.2736
-10.5276 31.5102 47.5385 -0.0078 -36.1788
-6.3714 28.4245 42.9043 -0.0065 -21.9643
-0.3396 27.0526 40.3712 -0.0054 -1.1609
2.1295 27.0698 40.4285 0.0568 3.5677
8.2937 28.8767 43.536 0.0713 23.9168
13.3138 33.5749 50.2092 0.0846 42.9793
7.1703 30.7368 45.6401 1.5744 10.5097
7.2932 19.1363 52.901 0.937 7.2736
13.4815 19.6096 55.073 0.0078 36.1788
8.6815 15.4666 49.3086 0.0065 21.9643
1.719 13.6244 46.2509 0.0054 1.1609
-1.1316 13.6616 46.3127 -0.0568 -3.5677
-8.2564 16.0189 50.1156 -0.0713 -23.9168
-14.0752 22.2826 58.5421 -0.0846 -42.9793
-6.958 19.7297 52.1909 -1.5744 -10.5097
-5.1801 31.9257 45.1882 -0.937 -7.2736
-5.193 31.6806 44.9368 -0.9139 -7.3225
-10.4532 31.2326 47.19 -0.0091 -35.6588
-6.3639 28.2572 42.683 -0.0077 -21.7021
-0.4475 26.9257 40.2102 -0.0063 -1.2971
2.2118 26.9397 40.2681 0.0668 3.607
8.2601 28.6858 43.2888 0.0834 23.5711
13.2213 33.218 49.7948 0.0985 42.3445
7.1407 30.5075 45.3651 1.5513 10.3962
7.308 18.8367 52.5597 0.9139 7.3225
13.3948 19.2416 54.6277 0.0091 35.6588
8.6725 15.2494 49.0294 0.0077 21.7021
1.8435 13.4629 46.0474 0.0063 1.2971
-1.2266 13.5016 46.1076 -0.0668 -3.607
-8.2175 15.7783 49.7995 -0.0834 -23.5711
-13.9676 21.8138 58.0 -0.0985 -42.3445
-6.9238 19.4178 51.8594 -1.5513 -10.3962
-5.193 31.6806 44.9368 -0.9139 -7.3225
-5.2058 31.4366 44.6846 -0.891 -7.3711
-10.377 30.9577 46.8414 -0.0104 -35.1342
-6.356 28.0911 42.4618 -0.0089 -21.4388
-0.5558 26.7995 40.0491 -0.0073 -1.4347
2.2942 26.8102 40.1076 0.0769 3.6467
8.2256 28.4963 43.0419 0.0956 23.2229
13.1255 32.8637 49.3782 0.1123 41.6998
7.1112 30.2795 45.0899 1.5284 10.2832
7.3228 18.5387 52.2182 0.891 7.3711
13.3061 18.8774 54.183 0.0104 35.1342
8.663 15.0339 48.7507 0.0089 21.4388
1.9684 13.3023 45.844 0.0073 1.4347
-1.3218 13.3424 45.9024 -0.0769 -3.6467
-8.1776 15.5398 49.4839 -0.0956 -23.2228
-13.8563 21.3489 57.4561 -0.1123 -41.6998
-6.8897 19.1074 51.5274 -1.5284 -10.2832
-5.2058 31.4366 44.6846 -0.891 -7.3711
-5.2185 31.1937 44.4317 -0.8683 -7.4192
-10.299 30.6854 46.4927 -0.0116 -34.6048
-6.3477 27.9261 42.2407 -0.0101 -21.1743
-0.6645 26.6739 39.888 -0.0082 -1.5738
2.3767 26.6812 39.9468 0.0871 3.6869
8.1902 28.3082 42.795 0.1078 22.8719
13.0266 32.5122 48.9598 0.126 41.0453
7.0818 30.0528 44.8144 1.5056 10.1707
7.3374 18.2422 51.8763 0.8683 7.4192
13.2153 18.5171 53.7389 0.0116 34.6048
8.6531 14.8201 48.4725 0.0101 21.1743
2.0938 13.1428 45.6408 0.0082 1.5738
-1.4171 13.1842 45.6972 -0.0871 -3.6869
-8.1367 15.3035 49.169 -0.1078 -22.8719
-13.7412 20.8881 56.9107 -0.126 -41.0453
-6.8557 18.7987 51.1952 -1.5056 -10.1707
-5.2185 31.1937 44.4317 -0.8683 -7.4192
-5.231 30.9519 44.1781 -0.8457 -7.4669
-10.2194 30.4159 46.144 -0.0129 -34.0709
-6.3391 27.7623 42.0197 -0.0113 -20.9087
-0.7735 26.5491 39.7269 -0.0092 -1.7144
2.4593 26.5528 39.7859 0.0974 3.7275
8.154 28.1215 42.5483 0.12 22.5183
12.9243 32.1634 48.5394 0.1397 40.3808
7.0526 29.8275 44.5387 1.4829 10.0587
7.3519 17.9474 51.5341 0.8457 7.4669
13.1227 18.1606 53.2955 0.0129 34.0709
8.6427 14.6079 48.1948 0.0113 20.9087
2.2196 12.9841 45.4377 0.0092 1.7145
-1.5125 13.0269 45.4919 -0.0974 -3.7275
-8.0948 15.0693 48.8547 -0.12 -22.5183
-13.6223 20.4318 56.3641 -0.1397 -40.3808
-6.8219 18.4916 50.8625 -1.4829 -10.0587
-5.231 30.9519 44.1781 -0.8457 -7.4669
-5.2435 30.7112 43.9236 -0.8234 -7.5143
-10.1379 30.1493 45.7954 -0.0142 -33.5324
-5.2779 27.2203 41.0577 -0.0122 -16.4813
-0.883 26.425 39.5657 -0.0102 -1.8566
2.542 26.4249 39.6247 0.1078 3.7685
8.1169 27.9362 42.3018 0.1323 22.162
12.8186 31.8177 48.1175 0.1533 39.7063
7.0234 29.6034 44.2625 1.4603 9.9472
7.3662 17.6541 51.1918 0.8234 7.5143
13.028 17.8081 52.853 0.0142 33.5324
7.4167 13.8938 47.0253 0.0122 16.4813
2.3459 12.8265 45.2349 0.0102 1.8566
-1.6081 12.8706 45.2867 -0.1078 -3.7686
-8.0519 14.8374 48.5412 -0.1323 -22.162
-13.4996 19.9801 55.8165 -0.1533 -39.7063
-6.7882 18.1861 50.5294 -1.4603 -9.9472
-5.2435 30.7112 43.9236 -0.8234 -7.5143
-5.2559 30.4717 43.6685 -0.8012 -7.5612
-10.0548 29.8855 45.4471 -0.0155 -32.9893
-5.2929 27.0751 40.8628 -0.0134 -16.3152
-0.9929 26.3016 39.4046 -0.0112 -2.0003
2.6248 26.2976 39.4635 0.1184 3.8101
8.079 27.7524 42.0556 0.1445 21.8031
12.7096 31.4751 47.6941 0.1668 39.0217
6.9944 29.3807 43.9861 1.4378 9.8362
7.3805 17.3624 50.849 0.8012 7.5612
12.9313 17.4597 52.4116 0.0155 32.9893
7.4338 13.707 46.7808 0.0134 16.3152
2.4726 12.6698 45.0322 0.0112 2.0003
-1.7038 12.7153 45.0814 -0.1184 -3.8101
-8.008 14.6077 48.2285 -0.1445 -21.8031
-13.3729 19.5333 55.2684 -0.1668 -39.0217
-6.7547 17.8822 50.196 -1.4378 -9.8362
-5.2559 30.4717 43.6685 -0.8012 -7.5612
-5.2681 30.2332 43.4126 -0.7793 -7.6077
-9.9699 29.6246 45.0991 -0.0167 -32.4417
-5.3077 26.9308 40.668 -0.0145 -16.1482
-1.1032 26.1789 39.2434 -0.0122 -2.1456
2.7078 26.1709 39.302 0.129 3.8521
8.0401 27.57 41.8098 0.1569 21.4415
12.5971 31.1359 47.2695 0.1802 38.3271
6.9655 29.1594 43.7095 1.4154 9.7257
7.3946 17.0723 50.5061 0.7793 7.6077
12.8326 17.1155 51.9714 0.0167 32.4417
7.4506 13.5215 46.5365 0.0145 16.1482
2.5998 12.5141 44.8298 0.0122 2.1456
-1.7996 12.5608 44.876 -0.129 -3.8521
-7.963 14.3802 47.9166 -0.1569 -21.4415
-13.2422 19.0916 54.72 -0.1802 -38.3271
-6.7213 17.58 49.8623 -1.4154 -9.7257
-5.2681 30.2332 43.4126 -0.7793 -7.6077
-5.2803 29.9959 43.156 -0.7575 -7.6538
-9.8833 29.3667 44.7516 -0.018 -31.8897
-5.3222 26.7873 40.4729 -0.0156 -15.9803
-1.2139 26.0569 39.0823 -0.0132 -2.2924
2.7908 26.0447 39.1403 0.1398 3.8945
6.321 26.7205 40.3888 0.1605 15.3976
10.9215 29.2856 44.6098 0.1844 31.4334
6.9367 28.9394 43.4326 1.3932 9.6157
7.4085 16.7839 50.1631 0.7575 7.6538
12.7319 16.7755 51.5326 0.018 31.8897
7.4671 13.337 46.2922 0.0156 15.9803
2.7275 12.3594 44.6276 0.0132 2.2924
-1.8956 12.4074 44.6707 -0.1398 -3.8945
-5.9749 13.2843 46.176 -0.1605 -15.3976
-11.2992 16.6447 51.3678 -0.1844 -31.4334
-6.688 17.2795 49.5283 -1.3932 -9.6157
-5.2803 29.9959 43.156 -0.7575 -7.6538
-5.2923 29.7597 42.8987 -0.7358 -7.6995
-9.7949 29.1117 44.4046 -0.0192 -31.3333
-5.3365 26.6446 40.2777 -0.0168 -15.8115
-1.325 25.9357 38.9212 -0.0143 -2.4409
2.874 25.919 38.9784 0.1507 3.9374
6.3204 26.5702 40.1877 0.1725 15.1713
10.8221 29.0203 44.2541 0.1974 30.8311
6.9081 28.7207 43.1554 1.3711 9.5061
7.4224 16.4971 49.8197 0.7358 7.6995
12.6293 16.4398 51.0953 0.0192 31.3333
7.4833 13.1538 46.0482 0.0168 15.8115
2.8556 12.2057 44.4257 0.0143 2.4409
-1.9917 12.2549 44.4654 -0.1507 -3.9375
-5.9742 13.1002 45.9214 -0.1725 -15.1713
-11.1839 16.3056 50.9145 -0.1974 -30.8311
-6.6549 16.9806 49.1939 -1.3711 -9.5061
-5.2923 29.7597 42.8987 -0.7358 -7.6995
-5.3042 29.5247 42.6407 -0.7144 -7.7448
-9.7048 28.8599 44.0583 -0.0205 -30.7725
-5.3505 26.5028 40.0825 -0.018 -15.6419
-1.4366 25.8152 38.7602 -0.0153 -2.5911
2.9573 25.794 38.8165 0.1618 3.9809
6.3193 26.4208 39.9866 0.1845 14.9433
10.7204 28.7581 43.899 0.2104 30.2225
6.8795 28.5033 42.8779 1.3491 9.397
7.4361 16.212 49.4762 0.7144 7.7448
12.5247 16.1083 50.6595 0.0205 30.7725
7.4992 12.9717 45.8043 0.018 15.6419
2.9843 12.053 44.224 0.0153 2.5911
-2.088 12.1034 44.26 -0.1618 -3.9809
-5.973 12.9174 45.6671 -0.1845 -14.9433
-11.066 15.9712 50.4629 -0.2104 -30.2225
-6.6219 16.6835 48.8593 -1.3491 -9.397
-5.3042 29.5247 42.6407 -0.7144 -7.7448
-5.316 29.2908 42.3819 -0.6932 -7.7897
-9.613 28.6111 43.7129 -0.0217 -30.2073
-5.3642 26.3618 39.8872 -0.0191 -15.4713
-1.5486 25.6954 38.5991 -0.0164 -2.7429
3.0407 25.6695 38.6543 0.1729 4.0248
6.3177 26.2723 39.7854 0.1965 14.7136
10.6164 28.4989 43.5446 0.2234 29.6076
6.8511 28.2874 42.6003 1.3271 9.2885
7.4498 15.9285 49.1325 0.6932 7.7897
12.4181 15.7813 50.2256 0.0217 30.2073
7.5147 12.7908 45.5606 0.0191 15.4713
3.1134 11.9013 44.0226 0.0164 2.7429
-2.1844 11.9528 44.0546 -0.1729 -4.0248
-5.9712 12.736 45.4131 -0.1965 -14.7136
-10.9454 15.6415 50.0131 -0.2234 -29.6076
-6.589 16.388 48.5245 -1.3271 -9.2885
-5.316 29.2908 42.3819 -0.6932 -7.7897
-5.3278 29.0581 42.1226 -0.6721 -7.8343
-9.5196 28.3654 43.3683 -0.0229 -29.638
-5.3777 26.2216 39.6917 -0.0203 -15.2999
-1.661 25.5763 38.4382 -0.0174 -2.8964
3.1242 25.5456 38.492 0.1842 4.0692
6.3157 26.1247 39.5844 0.2086 14.4823
10.5101 28.2431 43.1911 0.2363 28.9866
6.8228 28.0728 42.3224 1.3053 9.1804
7.4633 15.6467 48.7886 0.6721 7.8343
12.3096 15.4588 49.7937 0.0229 29.638
7.53 12.6111 45.317 0.0203 15.2999
3.243 11.7506 43.8214 0.0174 2.8964
-2.2809 11.8032 43.8493 -0.1842 -4.0692
-5.9688 12.5561 45.1595 -0.2086 -14.4823
-10.8222 15.3167 49.5655 -0.2363 -28.9866
-6.5563 16.0943 48.1894 -1.3053 -9.1804
-5.3278 29.0581 42.1226 -0.6721 -7.8343
-5.3394 28.8266 41.8626 -0.6512 -7.8785
-9.4244 28.123 43.0249 -0.0242 -29.0645
-5.3909 26.0823 39.4963 -0.0214 -15.1276
-1.774 25.458 38.2773 -0.0185 -3.0517
3.2079 25.4223 38.3295 0.1956 4.1142
6.3131 25.978 39.3834 0.2208 14.2493
10.4016 27.9905 42.8387 0.2492 28.3595
6.7946 27.8595 42.0442 1.2836 9.0727
6.7338 19.7856 46.4859 0.8842 6.6172
7.4767 15.3666 48.4446 0.6512 7.8785
12.1992 15.1407 49.3639 0.0242 29.0645
7.5449 12.4327 45.0737 0.0214 15.1276
3.3732 11.601 43.6207 0.0185 3.0517
-2.3777 11.6547 43.644 -0.1956 -4.1142
-5.9659 12.3776 44.9062 -0.2208 -14.2493
-10.6965 14.9968 49.1201 -0.2492 -28.3595
-6.5237 15.8022 47.854 -1.2836 -9.0727
-5.251 24.3739 44.2321 -0.8842 -6.6172
-5.3394 28.8266 41.8626 -0.6512 -7.8785
-5.3509 28.5962 41.6019 -0.6304 -7.9223
-9.3276 27.8837 42.6826 -0.0254 -28.4869
-5.4038 25.9438 39.3007 -0.0226 -14.9544
-1.8873 25.3405 38.1165 -0.0196 -3.2087
3.2917 25.2995 38.1669 0.2072 4.1596
6.31 25.8321 39.1823 0.2331 14.0145
10.2908 27.7411 42.4875 0.2621 27.7263
6.7665 27.6476 41.7659 1.2621 8.9656
6.7065 19.7918 46.0465 0.876 6.5919
7.49 15.0883 48.1005 0.6304 7.9223
12.0868 14.8272 48.9363 0.0254 28.4869
7.5596 12.2554 44.8306 0.0226 14.9544
3.5038 11.4523 43.4202 0.0196 3.2087
-2.4745 11.5071 43.4387 -0.2072 -4.1596
-5.9624 12.2006 44.6534 -0.2331 -14.0145
-10.5681 14.6819 48.6772 -0.2621 -27.7263
-6.4913 15.512 47.5185 -1.2621 -8.9656
-5.2591 23.862 44.0791 -0.876 -6.5919
-5.3509 28.5962 41.6019 -0.6304 -7.9223
-5.3624 28.367 41.3405 -0.6098 -7.9658
-9.2291 27.6476 42.3415 -0.0266 -27.9052
-5.4164 25.8062 39.1051 -0.0238 -14.7803
-2.0011 25.2236 37.9558 -0.0207 -3.3675
3.3756 25.1773 38.0041 0.2189 4.2056
6.3064 25.6872 38.9815 0.2454 13.7781
10.1778 27.4952 42.1376 0.2749 27.0871
6.7385 27.437 41.4872 1.2406 8.8589
6.6794 19.8021 45.6088 0.8679 6.5667
7.5031 14.8117 47.7563 0.6098 7.9658
11.9726 14.5183 48.5111 0.0266 27.9052
7.5739 12.0793 44.5877 0.0238 14.7803
3.635 11.3047 43.22 0.0207 3.3675
-2.5715 11.3605 43.2334 -0.2189 -4.2056
-5.9583 12.025 44.401 -0.2454 -13.7781
-10.4372 14.3719 48.2368 -0.2749 -27.0871
-6.4589 15.2235 47.1829 -1.2406 -8.8589
-5.2672 23.349 43.9219 -0.8679 -6.5667
-5.3624 28.367 41.3405 -0.6098 -7.9658
-5.3737 28.1391 41.0786 -0.5894 -8.0089
-9.129 27.4148 42.0019 -0.0278 -27.3196
-5.4288 25.6695 38.9095 -0.025 -14.6053
-2.7152 25.1527 37.8989 -0.0223 -5.7917
3.5376 25.0616 37.8537 0.2299 4.5461
6.3023 25.5432 38.7807 0.2578 13.5399
10.0625 27.2527 41.7894 0.2877 26.442
6.7107 27.2279 41.2085 1.2192 8.7527
6.6525 19.8164 45.1727 0.8598 6.5417
7.5162 14.5368 47.412 0.5894 8.0089
11.8565 14.2139 48.0884 0.0278 27.3196
7.5879 11.9044 44.345 0.025 14.6053
4.4586 11.2165 43.1421 0.0223 5.7917
-2.7586 11.2217 43.0434 -0.2299 -4.5461
-5.9536 11.8509 44.1491 -0.2578 -13.5399
-10.3037 14.0671 47.7994 -0.2877 -26.442
-6.4268 14.9368 46.847 -1.2192 -8.7527
-5.2755 22.8348 43.7603 -0.8598 -6.5417
-5.3737 28.1391 41.0786 -0.5894 -8.0089
-5.385 27.9123 40.816 -0.5691 -8.0517
-9.0272 27.1853 41.6639 -0.029 -26.7301
-5.4409 25.5336 38.7138 -0.0262 -14.4294
-2.8133 25.0371 37.7384 -0.0235 -5.8915
3.6196 24.9403 37.6904 0.242 4.5849
6.2977 25.4002 38.5801 0.2702 13.3
9.9451 27.0136 41.4427 0.3005 25.7911
6.6829 27.0201 40.9294 1.1979 8.6469
6.6258 19.8347 44.7382 0.8517 6.5169
7.5292 14.2637 47.0676 0.5691 8.0517
11.7385 13.9142 47.6684 0.029 26.7302
7.6016 11.7307 44.1025 0.0262 14.4294
4.5715 11.0704 42.9424 0.0235 5.8915
-2.8534 11.077 42.8379 -0.242 -4.585
-5.9483 11.6782 43.8976 -0.2702 -13.2999
-10.1676 13.7673 47.3649 -0.3005 -25.7911
-6.3947 14.6518 46.511 -1.1979 -8.6469
-5.2838 22.3194 43.5944 -0.8517 -6.5169
-5.385 27.9123 40.816 -0.5691 -8.0517
-5.3961 27.6868 40.5527 -0.5491 -8.0941
-8.9239 26.959 41.3273 -0.0302 -26.1369
-5.4528 25.3985 38.5181 -0.0273 -14.2525
-2.9115 24.9221 37.5778 -0.0247 -5.9923
3.7017 24.8197 37.527 0.2542 4.6243
6.2926 25.258 38.3794 0.2827 13.0583
9.8254 26.7781 41.0981 0.3132 25.1344
6.6553 26.8136 40.6502 1.1768 8.5416
6.5993 19.857 44.3054 0.8437 6.4922
7.542 13.9923 46.7232 0.5491 8.0941
11.6187 13.6192 47.2511 0.0302 26.1369
7.615 11.5583 43.8602 0.0273 14.2525
4.6847 10.9253 42.743 0.0247 5.9923
-2.9484 10.9333 42.6325 -0.2542 -4.6243
-5.9424 11.507 43.6466 -0.2827 -13.0583
-10.0291 13.4728 46.9338 -0.3132 -25.1344
-6.3628 14.3687 46.1749 -1.1768 -8.5416
-5.2922 21.8028 43.424 -0.8437 -6.4922
-5.3961 27.6868 40.5527 -0.5491 -8.0941
-5.4072 27.4625 40.289 -0.5291 -8.1361
-8.819 26.7361 40.9927 -0.0314 -25.54
-5.4643 25.2643 38.3223 -0.0285 -14.0748
-3.01 24.8079 37.4173 -0.0258 -6.094
5.1399 24.8675 37.7005 0.2818 9.1055
9.7036 26.5461 40.7554 0.3259 24.4721
6.6278 26.6086 40.3708 1.1557 8.4368
6.573 19.8831 43.8739 0.8357 6.4676
7.5547 13.7228 46.3787 0.5291 8.1361
11.4972 13.3289 46.8369 0.0314 25.54
7.628 11.3871 43.6183 0.0285 14.0748
4.7982 10.7811 42.5436 0.0258 6.094
-4.6101 11.0128 42.8257 -0.2818 -9.1054
-9.888 13.1834 46.5059 -0.3259 -24.4721
-6.331 14.0873 45.8386 -1.1557 -8.4368
-5.3007 21.2849 43.2492 -0.8357 -6.4676
-5.4072 27.4625 40.289 -0.5291 -8.1361
-5.4181 27.2394 40.0246 -0.5093 -8.1778
-8.7125 26.5166 40.6599 -0.0327 -24.9395
-5.4756 25.131 38.1266 -0.0297 -13.8961
-3.1088 24.6943 37.2566 -0.027 -6.1967
5.175 24.7405 37.5237 0.2945 8.9939
9.5796 26.3176 40.4149 0.3386 23.8042
6.6004 26.4049 40.0912 1.1348 8.3324
6.5469 19.913 43.4439 0.8278 6.4432
7.5674 13.455 46.0342 0.5093 8.1778
11.3739 13.0432 46.4257 0.0327 24.9395
7.6408 11.2171 43.3766 0.0297 13.8961
4.9119 10.6379 42.3446 0.027 6.1967
-4.6508 10.8618 42.6044 -0.2945 -8.9939
-9.7445 12.8993 46.0818 -0.3386 -23.8042
-6.2993 13.8078 45.5023 -1.1348 -8.3324
-5.3093 20.7659 43.0701 -0.8278 -6.4432
-5.4181 27.2394 40.0246 -0.5093 -8.1778
-5.429 27.0176 39.7596 -0.4897 -8.2192
-8.6046 26.3003 40.329 -0.0338 -24.3354
-5.4866 24.9985 37.9308 -0.0309 -13.7165
-3.2078 24.5814 37.096 -0.0282 -6.3004
5.2099 24.6142 37.3468 0.3072 8.8814
9.4535 26.0927 40.0767 0.3513 23.1309
6.5731 26.2027 39.8115 1.1139 8.2285
6.521 19.9468 43.0154 0.82 6.4189
7.5799 13.189 45.6896 0.4897 8.2192
11.2488 12.7622 46.0175 0.0338 24.3354
7.6532 11.0483 43.1352 0.0309 13.7165
5.0259 10.4956 42.1457 0.0282 6.3004
-4.6912 10.7118 42.3831 -0.3072 -8.8814
-9.5985 12.6204 45.6613 -0.3513 -23.1309
-6.2678 13.5301 45.1659 -1.1139 -8.2285
-5.318 20.2457 42.8865 -0.82 -6.4189
-5.429 27.0176 39.7596 -0.4897 -8.2192
-5.4398 26.797 39.494 -0.4703 -8.2603
-8.4951 26.0874 40.0003 -0.035 -23.728
-5.4974 24.8669 37.735 -0.0321 -13.536
-3.3071 24.4692 36.9353 -0.0294 -6.4051
5.2446 24.4885 37.1698 0.3201 8.7679
9.3254 25.8715 39.7412 0.3639 22.4523
6.546 26.0018 39.5316 1.0932 8.1251
6.4952 19.9843 42.5882 0.8122 6.3947
7.5924 12.9249 45.3452 0.4703 8.2603
11.122 12.486 45.6129 0.035 23.728
7.6653 10.8808 42.8941 0.0321 13.536
5.1402 10.3543 41.947 0.0294 6.4051
-4.7313 10.563 42.1619 -0.3201 -8.7679
-9.4501 12.3468 45.2449 -0.3639 -22.4523
-6.2364 13.2542 44.8293 -1.0932 -8.1251
-5.3267 19.7242 42.6984 -0.8122 -6.3947
-5.4398 26.797 39.494 -0.4703 -8.2603
-5.4505 26.5776 39.2279 -0.4509 -8.301
-8.3577 25.8663 39.6501 -0.0361 -23.0093
-5.5078 24.7362 37.5392 -0.0333 -13.3546
-3.6051 24.3788 36.8255 -0.0307 -7.2626
5.2789 24.3634 36.9926 0.3331 8.6534
9.1729 25.6455 39.3893 0.375 21.6789
6.5189 25.8023 39.2515 1.0726 8.0221
6.4697 20.0255 42.1622 0.8044 6.3708
7.6047 12.6626 45.0007 0.4509 8.301
10.963 12.1993 45.1833 0.0361 23.0093
7.6771 10.7145 42.6533 0.0333 13.3546
5.4836 10.2413 41.8079 0.0307 7.2626
-4.7711 10.4152 41.9408 -0.3331 -8.6534
-9.2737 12.0662 44.8107 -0.375 -21.6788
-6.2052 12.9802 44.4928 -1.0726 -8.0221
-5.3356 19.2015 42.5059 -0.8044 -6.3708
-5.4505 26.5776 39.2279 -0.4509 -8.301
-5.4611 26.3596 38.9612 -0.4318 -8.3414
-8.2459 25.6607 39.327 -0.0372 -22.3983
-5.518 24.6063 37.3434 -0.0345 -13.1722
-3.6969 24.2674 36.6635 -0.032 -7.3395
5.3131 24.239 36.8153 0.3462 8.538
9.0411 25.4321 39.0603 0.3877 20.9919
15.9922 32.3092 49.4468 0.4714 49.2945
6.4444 20.0705 41.7376 0.7966 6.3469
7.6169 12.402 44.6561 0.4318 8.3414
10.8336 11.9335 44.7871 0.0372 22.3983
7.6885 10.5494 42.4127 0.0345 13.1722
5.5894 10.1009 41.6079 0.032 7.3395
-4.8106 10.2686 41.7199 -0.3462 -8.538
-9.1212 11.8039 44.4038 -0.3877 -20.9919
-17.1814 20.8196 57.3545 -0.4714 -49.2946
-5.3446 18.6775 42.3089 -0.7966 -6.3469
-5.4611 26.3596 38.9612 -0.4318 -8.3414
-16.528 35.9502 53.8809 -0.0512 -59.8761
-8.1329 25.4586 39.0065 -0.0384 -21.7845
-3.7889 24.1565 36.5014 -0.0332 -7.417
5.3469 24.1153 36.6379 0.3594 8.4215
8.9074 25.2224 38.7343 0.4003 20.3004
15.7059 31.585 48.5575 0.4818 47.6972
6.4192 20.119 41.3142 0.789 6.3232
20.4092 25.7207 63.091 0.0512 59.8762
10.7028 11.6723 44.3945 0.0384 21.7845
5.6952 9.9615 41.4081 0.0332 7.417
-4.8497 10.1231 41.4992 -0.3594 -8.4215
-8.9664 11.5469 44.0016 -0.4003 -20.3003
-16.8483 19.8673 56.2021 -0.4818 -47.6972
-5.3536 18.1524 42.1074 -0.789 -6.3232
-16.528 35.9502 53.8809 -0.0512 -59.8761
-16.2928 35.0362 52.8925 -0.0519 -58.1996
-8.0186 25.2599 38.6886 -0.0396 -21.168
-3.8811 24.0464 36.3392 -0.0345 -7.4953
5.3804 23.9922 36.4603 0.3726 8.304
8.7718 25.0163 38.4114 0.4129 19.6042
15.3997 30.8712 47.6546 0.492 46.0393
6.3942 20.1712 40.892 0.7813 6.2996
20.1359 24.493 61.7975 0.0519 58.1996
10.5705 11.4157 44.0058 0.0396 21.168
5.8013 9.8229 41.2084 0.0345 7.4953
-4.8885 9.9786 41.2785 -0.3726 -8.304
-8.8096 11.2952 43.604 -0.4129 -19.6042
-16.4922 18.9314 55.0382 -0.492 -46.0393
-5.3627 17.6259 41.9013 -0.7813 -6.2996
-16.2928 35.0362 52.8925 -0.0519 -58.1996
-16.0328 34.1194 51.8667 -0.0526 -56.4316
-7.903 25.0644 38.3733 -0.0408 -20.5488
-3.9734 23.9369 36.1769 -0.0358 -7.5742
5.4136 23.8698 36.2827 0.386 8.1855
8.6344 24.8139 38.092 0.4255 18.9038
15.0726 30.1703 46.7408 0.5019 44.3203
6.3694 20.227 40.4711 0.7738 6.2762
19.8339 23.2606 60.4597 0.0526 56.4316
10.4368 11.1638 43.621 0.0408 20.5488
5.9075 9.6854 41.009 0.0358 7.5742
-4.9269 9.8353 41.058 -0.386 -8.1855
-8.6507 11.0487 43.2113 -0.4255 -18.9038
-16.112 18.0152 53.8664 -0.5019 -44.3203
-5.372 17.0982 41.6907 -0.7738 -6.2762
-16.0328 34.1194 51.8667 -0.0526 -56.4316
-15.7457 33.2032 50.8047 -0.0532 -54.568
-7.7862 24.8722 38.0607 -0.042 -19.9272
-4.0659 23.8282 36.0146 -0.0371 -7.6538
5.4466 23.748 36.1049 0.3996 8.0659
8.4953 24.6151 37.776 0.4381 18.1991
14.7241 29.4847 45.8191 0.5116 42.5401
6.3448 20.2863 40.051 0.7662 6.2528
19.5004 22.0288 59.0804 0.0532 54.568
10.3017 10.9165 43.2402 0.042 19.9272
6.014 9.5487 40.8096 0.0371 7.6538
-4.9651 9.6931 40.8375 -0.3996 -8.0659
-8.4897 10.8073 42.8235 -0.4381 -18.1991
-15.7069 17.1222 52.6911 -0.5116 -42.5401
-5.3813 16.5693 41.4756 -0.7662 -6.2529
-15.7457 33.2032 50.8047 -0.0532 -54.568
-15.4291 32.2917 49.7086 -0.0538 -52.6051
-7.6683 24.6834 37.7511 -0.0431 -19.3033
-4.1586 23.7201 35.8522 -0.0384 -7.734
5.4792 23.6269 35.9271 0.4132 7.9452
8.3545 24.4201 37.4637 0.4506 17.4904
14.3534 28.8167 44.8927 0.521 40.6989
19.1329 20.804 57.6639 0.0538 52.6051
10.1654 10.6738 42.8635 0.0431 19.3033
6.1205 9.4131 40.6105 0.0384 7.734
-5.0028 9.5521 40.6174 -0.4132 -7.9452
-8.3269 10.5712 42.441 -0.4506 -17.4904
-15.2763 16.2558 51.5169 -0.521 -40.6989
-15.4291 32.2917 49.7086 -0.0538 -52.6051
-15.0808 31.3896 48.5817 -0.0544 -50.5399
-7.5492 24.4978 37.4444 -0.0443 -18.6771
-4.2514 23.6126 35.6897 -0.0397 -7.815
5.5116 23.5064 35.7491 0.4269 7.8235
8.2121 24.2287 37.1552 0.4631 16.7779
13.9602 28.1689 43.9656 0.5302 38.7975
18.7287 19.5929 56.2154 0.0544 50.5399
10.0277 10.4356 42.491 0.0443 18.6771
6.2273 9.2783 40.4114 0.0397 7.815
-5.0403 9.4121 40.3973 -0.4269 -7.8235
-8.1622 10.3401 42.0637 -0.4631 -16.7779
-14.8198 15.4191 50.3488 -0.5302 -38.7975
-15.0808 31.3896 48.5817 -0.0544 -50.5399
-14.6984 30.5018 47.428 -0.055 -48.3697
-7.4291 24.3154 37.1407 -0.0454 -18.0489
-4.3444 23.5059 35.5273 -0.041 -7.8967
4.9548 23.3168 35.4277 0.4292 5.8416
8.0681 24.0409 36.8507 0.4756 16.0618
13.5441 27.5434 43.0419 0.5392 36.8372
18.2853 18.4029 54.7413 0.055 48.3698
9.8889 10.2019 42.1227 0.0454 18.0489
6.3343 9.1446 40.2127 0.041 7.8967
-4.3969 9.1779 40.0099 -0.4292 -5.8416
-7.9957 10.1141 41.6918 -0.4756 -16.0618
-14.3369 14.6152 49.1921 -0.5392 -36.8373
-14.6984 30.5018 47.428 -0.055 -48.3697
-14.2801 29.6338 46.2531 -0.0555 -46.0933
-7.308 24.1363 36.8402 -0.0466 -17.4188
-4.4376 23.3999 35.3648 -0.0424 -7.9792
5.027 23.2032 35.2604 0.4437 5.8441
7.9226 23.8567 36.5502 0.488 15.3422
13.1053 26.9425 42.1262 0.548 34.8203
17.8003 17.2419 53.2499 0.0555 46.0933
9.7489 9.9727 41.7589 0.0466 17.4188
6.4415 9.0117 40.014 0.0424 7.9792
-4.4804 9.0476 39.8031 -0.4437 -5.8441
-7.8275 9.8932 41.3255 -0.488 -15.3422
-13.8278 13.8466 48.0523 -0.548 -34.8203
-14.2801 29.6338 46.2531 -0.0555 -46.0933
-11.3018 26.4482 41.0512 -0.0509 -31.8285
-7.1859 23.9603 36.5428 -0.0477 -16.7868
-4.531 23.2945 35.2022 -0.0437 -8.0623
5.0991 23.0903 35.093 0.4583 5.8466
7.7758 23.6762 36.2539 0.5004 14.6194
11.8846 25.8679 40.2684 0.54 29.4354
14.3539 13.0015 46.8286 0.0509 31.8285
9.6078 9.7478 41.3994 0.0477 16.7869
6.5488 8.8798 39.8155 0.0437 8.0623
-4.5638 8.9183 39.5963 -0.4583 -5.8466
-7.6577 9.6772 40.9649 -0.5004 -14.6194
-12.4127 12.4631 45.7865 -0.54 -29.4355
-11.3018 26.4482 41.0512 -0.0509 -31.8285
-10.8826 25.958 40.251 -0.0519 -30.0051
-7.0629 23.7876 36.2489 -0.0488 -16.1533
-4.6245 23.1899 35.0396 -0.0451 -8.1462
5.1713 22.9779 34.9255 0.4731 5.8492
7.6276 23.4991 35.9619 0.5128 13.8936
11.4343 25.3961 39.4927 0.5499 27.5183
13.8696 12.3594 45.8486 0.0519 30.0051
9.4656 9.5274 41.0445 0.0488 16.1533
6.6564 8.7489 39.6174 0.0451 8.1462
-4.6473 8.7902 39.3898 -0.4731 -5.8492
-7.4863 9.4661 40.61 -0.5128 -13.8936
-11.8909 11.8711 44.8365 -0.5499 -27.5183
-10.8826 25.958 40.251 -0.0519 -30.0051
-10.4501 25.4916 39.4702 -0.0528 -28.1563
-6.939 23.618 35.9582 -0.05 -15.5183
-4.7183 23.086 34.877 -0.0465 -8.2309
5.2435 22.8662 34.7579 0.4881 5.8518
7.4781 23.3257 35.6745 0.5251 13.1649
10.9699 24.9489 38.7403 0.5596 25.5736
13.37 11.7505 44.897 0.0528 28.1563
9.3225 9.3111 40.694 0.05 15.5183
6.7641 8.6189 39.4193 0.0465 8.2309
-4.7307 8.663 39.1831 -0.4881 -5.8518
-7.3135 9.2598 40.261 -0.5251 -13.1649
-11.3531 11.313 43.9195 -0.5596 -25.5737
-10.4501 25.4916 39.4702 -0.0528 -28.1563
-10.0053 25.0493 38.7118 -0.0537 -26.2857
-6.8144 23.4514 35.6709 -0.0511 -14.8819
-4.8122 22.9827 34.7143 -0.0479 -8.3163
5.3156 22.7549 34.59 0.5033 5.8544
7.3274 23.1557 35.3916 0.5375 12.4337
10.4926 24.5266 38.0145 0.5691 23.6056
12.8564 11.175 43.9769 0.0537 26.2857
9.1785 9.0992 40.3483 0.0511 14.882
6.872 8.4898 39.2214 0.0479 8.3163
-4.8142 8.537 38.9766 -0.5033 -5.8544
-7.1394 9.0584 39.918 -0.5375 -12.4337
-10.8004 10.7887 43.0389 -0.5691 -23.6056
-10.0053 25.0493 38.7118 -0.0537 -26.2857
-9.5492 24.6311 37.9784 -0.0546 -24.3968
-6.689 23.2879 35.3872 -0.0522 -14.2444
-4.9062 22.8801 34.5516 -0.0493 -8.4024
5.5174 22.6546 34.452 0.5205 6.3481
7.1756 22.9892 35.1132 0.5497 11.7001
10.0037 24.1291 37.3182 0.5784 21.6183
12.33 10.6325 43.091 0.0546 24.3968
9.0337 8.8914 40.0071 0.0522 14.2444
6.9802 8.3618 39.0239 0.0493 8.4024
-5.0474 8.4267 38.804 -0.5205 -6.3481
-6.964 8.8615 39.5811 -0.5497 -11.7001
-10.2347 10.2978 42.1976 -0.5784 -21.6184
-9.5492 24.6311 37.9784 -0.0546 -24.3968
-9.083 24.2366 37.2725 -0.0555 -22.4935
-6.5629 23.1275 35.1071 -0.0534 -13.6059
-5.1355 22.7947 34.4331 -0.0509 -9.0031
5.5736 22.5431 34.2802 0.5359 6.2903
7.0229 22.826 34.8396 0.562 10.9644
9.5049 23.7561 36.654 0.5875 19.6165
11.7921 10.1225 42.2417 0.0555 22.4935
8.8881 8.6878 39.6709 0.0534 13.6059
7.244 8.2555 38.8772 0.0509 9.0031
-5.1123 8.3009 38.5934 -0.5359 -6.2903
-6.7874 8.6693 39.2503 -0.562 -10.9644
-9.6574 9.8394 41.3981 -0.5875 -19.6165
-9.083 24.2366 37.2725 -0.0555 -22.4935
-8.5351 23.8412 36.5391 -0.0561 -20.287
-6.4361 22.97 34.8306 -0.0545 -12.9665
-5.2112 22.6913 34.2645 -0.0524 -9.0196
5.6296 22.4323 34.1082 0.5514 6.2321
8.9348 23.3906 35.9818 0.5939 17.357
11.1601 9.6128 41.3639 0.0561 20.287
8.7417 8.4882 39.3393 0.0545 12.9665
7.331 8.1264 38.6733 0.0524 9.0196
-5.1772 8.1762 38.3829 -0.5514 -6.2321
-8.998 9.3897 40.594 -0.5939 -17.357
-8.5351 23.8412 36.5391 -0.0561 -20.287
-8.0617 23.4985 35.9065 -0.057 -18.4043
-5.2869 22.5885 34.0958 -0.0538 -9.0361
5.6855 22.322 33.9361 0.5671 6.1733
8.4284 23.0688 35.3977 0.6031 15.3716
10.6141 9.1727 40.6081 0.057 18.4043
7.4179 7.9982 38.4693 0.0538 9.0361
-5.2418 8.0526 38.1725 -0.5671 -6.1733
-8.4123 8.9988 39.895 -0.6031 -15.3715
-8.0617 23.4985 35.9065 -0.057 -18.4043
-7.5844 23.1773 35.307 -0.0578 -16.525
-5.3626 22.4864 33.927 -0.0552 -9.0528
5.7412 22.2125 33.7639 0.5829 6.1139
7.9187 22.7689 34.851 0.6122 13.3912
10.0637 8.7613 39.8934 0.0578 16.525
7.5048 7.871 38.2655 0.0552 9.0528
-5.3063 7.9302 37.9624 -0.5829 -6.1139
-7.8231 8.636 39.242 -0.6122 -13.3912
-7.5844 23.1773 35.307 -0.0578 -16.525
-7.1046 22.8765 34.7412 -0.0587 -14.6532
-5.4384 22.3851 33.758 -0.0567 -9.0696
5.7968 22.1035 33.5915 0.5988 6.0539
7.4077 22.4898 34.3424 0.621 11.4207
9.5106 8.3772 39.2206 0.0587 14.6532
7.5918 7.7448 38.0619 0.0567 9.0696
-5.3705 7.8088 37.7522 -0.5988 -6.0539
-7.2324 8.2997 38.6355 -0.621 -11.4206
-7.1046 22.8765 34.7412 -0.0587 -14.6532
-5.6477 22.4663 33.8022 -0.094 -9.0518
-5.5142 22.2843 33.5889 -0.0581 -9.0866
5.8522 21.9952 33.419 0.6149 5.9933
6.8971 22.2303 33.872 0.6297 9.4644
7.8319 7.8137 38.1338 0.094 9.0518
7.6788 7.6195 37.8583 0.0581 9.0866
-5.4346 7.6885 37.5422 -0.6149 -5.9933
-6.6423 7.988 38.0748 -0.6297 -9.4644
-5.6477 22.4663 33.8022 -0.094 -9.0518
-5.6568 22.275 33.5265 -0.0775 -9.0864
-5.5891 22.1898 33.4171 -0.0708 -9.1004
6.3888 21.9891 33.4397 0.6381 7.5269
7.8423 7.5917 37.7925 0.0775 9.0864
7.7648 7.4891 37.6555 0.0708 9.1004
-6.0548 7.6992 37.5596 -0.6381 -7.5269
-5.6568 22.275 33.5265 -0.0775 -9.0864
