;FLAVOR:Marlin
;TIME:2438
;Filament used: 17.3134m
;Layer height: 0.9
;MINX:48.34
;MINY:48.341
;MINZ:0.9
;MAXX:171.657
;MAXY:171.647
;MAXZ:13.5
;Generated with Cura_SteamEngine main
M82 ;absolute extrusion mode
; Ender 3 Custom Start G-code
G92 E0 ; Reset Extruder
G28 ; Home all axes
M104 S175 ; Start heating up the nozzle most of the way
M190 S60 ; Start heating the bed, wait until target temperature reached
M109 S200 ; Finish heating the nozzle
G92 E0 ; Reset Extruder
G92 E0
G92 E0
G1 F1800 E-7
;LAYER_COUNT:15
;LAYER:0
M107
G0 F6000 X66.608 Y66.17 Z0.9
G0 X63.011 Y70.066
;TYPE:SKIRT
G1 F1800 E0
G1 F1200 X63.492 Y69.493 E0.27993
G1 X63.885 Y69.043 E0.50348
G1 X64.152 Y68.752 E0.65126
G1 X66.073 Y66.72 E1.69756
G1 X66.608 Y66.17 E1.98466
G1 X67.031 Y65.753 E2.20692
G1 X67.302 Y65.498 E2.34615
G1 X69.423 Y63.563 E3.42043
G1 X70.268 Y62.824 E3.84047
G1 X70.847 Y62.351 E4.12022
G1 X72.963 Y60.692 E5.12631
G1 X73.512 Y60.273 E5.38472
G1 X74.047 Y59.883 E5.63245
G1 X76.551 Y58.193 E6.76282
G1 X77.296 Y57.706 E7.09586
G1 X77.83 Y57.373 E7.33133
G1 X78.171 Y57.171 E7.47963
G1 X80.477 Y55.858 E8.47255
G1 X81.548 Y55.276 E8.92864
G1 X82.12 Y54.986 E9.16861
G1 X84.526 Y53.841 E10.16562
G1 X85.639 Y53.336 E10.62294
G1 X86.26 Y53.075 E10.87499
G1 X88.884 Y52.058 E11.928
G1 X89.599 Y51.792 E12.21345
G1 X90.203 Y51.582 E12.45272
G1 X90.577 Y51.462 E12.59969
G1 X93.292 Y50.635 E13.66166
G1 X93.92 Y50.453 E13.90632
G1 X94.526 Y50.29 E14.14113
G1 X97.504 Y49.611 E15.28402
G1 X98.672 Y49.369 E15.73034
G1 X99.33 Y49.252 E15.98041
G1 X102.162 Y48.829 E17.05183
G1 X102.914 Y48.728 E17.33574
G1 X103.553 Y48.656 E17.57635
G1 X106.754 Y48.413 E18.77754
G1 X107.43 Y48.372 E19.03095
G1 X108.065 Y48.347 E19.26873
G1 X108.443 Y48.341 E19.41019
G1 X111.288 Y48.341 E20.47472
G1 X112.425 Y48.365 E20.90025
G1 X113.154 Y48.404 E21.17342
G1 X115.657 Y48.59 E22.11257
G1 X116.883 Y48.705 E22.57332
G1 X117.522 Y48.783 E22.81419
G1 X120.393 Y49.209 E23.90022
G1 X121.044 Y49.316 E24.14707
G1 X121.657 Y49.429 E24.38031
G1 X122.063 Y49.513 E24.53544
G1 X124.616 Y50.088 E25.51464
G1 X125.817 Y50.382 E25.9773
G1 X126.461 Y50.56 E26.2273
G1 X129.207 Y51.397 E27.30146
G1 X129.87 Y51.609 E27.56191
G1 X130.335 Y51.768 E27.7458
G1 X131.021 Y52.02 E28.01925
G1 X133.247 Y52.883 E28.91258
G1 X134.124 Y53.235 E29.26617
G1 X134.746 Y53.501 E29.5193
G1 X135.095 Y53.66 E29.6628
G1 X137.44 Y54.774 E30.63422
G1 X138.532 Y55.318 E31.09072
G1 X139.118 Y55.63 E31.33913
G1 X141.441 Y56.95 E32.33887
G1 X142.477 Y57.564 E32.78948
G1 X143.045 Y57.924 E33.04111
G1 X145.455 Y59.542 E34.12725
G1 X146.319 Y60.147 E34.52192
G1 X146.91 Y60.591 E34.79851
G1 X149.076 Y62.291 E35.82879
G1 X149.601 Y62.715 E36.0813
G1 X150.121 Y63.155 E36.33618
G1 X152.354 Y65.181 E37.46436
G1 X153.284 Y66.058 E37.94267
G1 X153.704 Y66.485 E38.16678
G1 X155.528 Y68.411 E39.15933
G1 X156.41 Y69.376 E39.64851
G1 X156.776 Y69.808 E39.86037
G1 X158.584 Y72.024 E40.93051
G1 X159.278 Y72.908 E41.35104
G1 X159.647 Y73.414 E41.58537
G1 X161.278 Y75.749 E42.6511
G1 X161.665 Y76.322 E42.90983
G1 X162.013 Y76.859 E43.14926
G1 X162.236 Y77.22 E43.30803
G1 X163.665 Y79.627 E44.35544
G1 X164.009 Y80.226 E44.6139
G1 X164.298 Y80.752 E44.83847
G1 X164.49 Y81.122 E44.99445
G1 X165.745 Y83.642 E46.04783
G1 X166.053 Y84.282 E46.31359
G1 X166.337 Y84.908 E46.57081
G1 X166.49 Y85.266 E46.71648
G1 X167.531 Y87.813 E47.74604
G1 X167.8 Y88.498 E48.02141
G1 X168.022 Y89.099 E48.26114
G1 X168.153 Y89.48 E48.41189
G1 X169.024 Y92.162 E49.46703
G1 X169.227 Y92.815 E49.7229
G1 X169.367 Y93.302 E49.9125
G1 X169.551 Y94 E50.1826
G1 X170.144 Y96.426 E51.11708
G1 X170.418 Y97.649 E51.58604
G1 X170.561 Y98.405 E51.87393
G1 X171.001 Y101.031 E52.87022
G1 X171.11 Y101.741 E53.13899
G1 X171.19 Y102.342 E53.36586
G1 X171.231 Y102.715 E53.50627
G1 X171.48 Y105.376 E54.5063
G1 X171.551 Y106.274 E54.84336
G1 X171.577 Y106.704 E55.00455
G1 X171.606 Y107.454 E55.28539
G1 X171.652 Y109.959 E56.22286
G1 X171.657 Y110.832 E56.54952
G1 X171.632 Y111.853 E56.93167
G1 X171.489 Y114.48 E57.91609
G1 X171.428 Y115.372 E58.25063
G1 X171.366 Y116.048 E58.50464
G1 X170.979 Y119.076 E59.64686
G1 X170.858 Y119.916 E59.96441
G1 X170.76 Y120.509 E60.18931
G1 X170.688 Y120.892 E60.33513
G1 X170.149 Y123.518 E61.3382
G1 X169.878 Y124.727 E61.80181
G1 X169.715 Y125.35 E62.04276
G1 X168.983 Y127.929 E63.04588
G1 X168.74 Y128.744 E63.3641
G1 X168.537 Y129.375 E63.61213
G1 X167.442 Y132.38 E64.80885
G1 X167.015 Y133.478 E65.24967
G1 X166.745 Y134.105 E65.50511
G1 X165.592 Y136.647 E66.54953
G1 X165.187 Y137.495 E66.90117
G1 X164.886 Y138.085 E67.149
G1 X163.604 Y140.44 E68.15229
G1 X162.982 Y141.537 E68.62415
G1 X162.629 Y142.112 E68.87661
G1 X161.181 Y144.358 E69.87653
G1 X160.513 Y145.356 E70.32589
G1 X160.151 Y145.858 E70.55747
G1 X158.531 Y148.007 E71.56446
G1 X157.744 Y149.012 E72.04208
G1 X157.344 Y149.487 E72.27444
G1 X155.472 Y151.62 E73.33634
G1 X154.992 Y152.152 E73.60445
G1 X154.583 Y152.587 E73.82787
G1 X154.302 Y152.872 E73.97763
G1 X152.296 Y154.841 E75.02939
G1 X151.723 Y155.388 E75.3258
G1 X151.339 Y155.74 E75.52072
G1 X150.864 Y156.154 E75.75648
G1 X148.958 Y157.767 E76.69077
G1 X148.288 Y158.319 E77.0156
G1 X147.824 Y158.686 E77.23696
G1 X147.505 Y158.926 E77.38633
G1 X145.342 Y160.5 E78.38728
G1 X144.615 Y161.013 E78.72021
G1 X144.094 Y161.365 E78.95548
G1 X143.755 Y161.583 E79.10629
G1 X141.371 Y163.059 E80.15546
G1 X140.747 Y163.433 E80.42767
G1 X140.187 Y163.753 E80.66901
G1 X139.849 Y163.936 E80.81283
G1 X137.287 Y165.271 E81.89381
G1 X136.411 Y165.704 E82.25944
G1 X135.829 Y165.973 E82.49935
G1 X133.125 Y167.138 E83.60103
G1 X132.222 Y167.504 E83.96561
G1 X131.615 Y167.731 E84.2081
G1 X128.902 Y168.669 E85.2822
G1 X128.221 Y168.893 E85.55045
G1 X127.65 Y169.069 E85.77402
G1 X127.247 Y169.183 E85.93073
G1 X124.452 Y169.921 E87.0124
G1 X123.504 Y170.15 E87.37732
G1 X122.875 Y170.284 E87.61796
G1 X120.072 Y170.809 E88.68501
G1 X119.372 Y170.93 E88.95082
G1 X118.745 Y171.025 E89.18811
G1 X118.361 Y171.074 E89.33295
G1 X115.562 Y171.386 E90.38676
G1 X114.836 Y171.456 E90.65967
G1 X114.206 Y171.504 E90.89609
G1 X113.815 Y171.525 E91.0426
G1 X110.967 Y171.631 E92.10899
G1 X110.303 Y171.646 E92.35751
G1 X109.614 Y171.647 E92.61532
G1 X109.23 Y171.639 E92.75903
G1 X106.588 Y171.542 E93.74827
G1 X105.744 Y171.5 E94.06447
G1 X105.141 Y171.457 E94.29067
G1 X104.738 Y171.419 E94.44213
G1 X102.111 Y171.128 E95.43111
G1 X100.806 Y170.959 E95.92349
G1 X100.053 Y170.835 E96.20903
G1 X97.569 Y170.37 E97.15463
G1 X96.755 Y170.208 E97.46519
G1 X96.269 Y170.101 E97.65139
G1 X95.565 Y169.928 E97.92265
G1 X93.117 Y169.28 E98.87018
G1 X92.332 Y169.061 E99.17513
G1 X91.672 Y168.861 E99.43317
G1 X91.315 Y168.744 E99.57375
G1 X88.692 Y167.839 E100.61199
G1 X87.98 Y167.582 E100.89522
G1 X87.532 Y167.41 E101.07478
G1 X86.879 Y167.142 E101.3389
G1 X84.337 Y166.044 E102.37499
G1 X83.443 Y165.635 E102.74285
G1 X82.865 Y165.353 E102.9835
G1 X80.534 Y164.138 E103.96707
G1 X79.753 Y163.717 E104.29906
G1 X79.216 Y163.414 E104.52977
G1 X78.846 Y163.193 E104.69103
G1 X76.441 Y161.704 E105.74944
G1 X75.543 Y161.124 E106.14944
G1 X74.929 Y160.698 E106.42907
G1 X72.724 Y159.094 E107.44933
G1 X72.153 Y158.667 E107.71612
G1 X71.675 Y158.294 E107.94299
G1 X71.368 Y158.043 E108.09137
G1 X69.337 Y156.325 E109.08674
G1 X68.374 Y155.478 E109.56661
G1 X67.832 Y154.968 E109.84508
G1 X66.041 Y153.211 E110.78387
G1 X65.15 Y152.301 E111.26041
G1 X64.715 Y151.831 E111.50003
G1 X62.956 Y149.831 E112.49664
G1 X62.157 Y148.885 E112.95997
G1 X61.755 Y148.382 E113.20091
G1 X60.048 Y146.123 E114.26036
G1 X59.606 Y145.52 E114.54011
G1 X59.244 Y145.003 E114.77627
G1 X57.506 Y142.318 E115.97304
G1 X57.136 Y141.728 E116.23362
G1 X56.809 Y141.182 E116.47176
G1 X56.615 Y140.838 E116.61953
G1 X55.243 Y138.321 E117.69217
G1 X54.76 Y137.393 E118.08362
G1 X54.471 Y136.789 E118.33416
G1 X53.29 Y134.174 E119.40779
G1 X52.894 Y133.247 E119.78498
G1 X52.655 Y132.643 E120.02803
G1 X51.675 Y129.971 E121.09295
G1 X51.304 Y128.889 E121.52095
G1 X51.095 Y128.202 E121.78964
G1 X50.36 Y125.615 E122.79595
G1 X50.178 Y124.938 E123.05826
G1 X50.034 Y124.358 E123.28187
G1 X49.947 Y123.972 E123.42992
G1 X49.368 Y121.167 E124.50162
G1 X49.164 Y120.062 E124.92207
G1 X49.056 Y119.35 E125.19153
G1 X48.724 Y116.798 E126.15448
G1 X48.626 Y115.955 E126.47203
G1 X48.579 Y115.466 E126.65585
G1 X48.524 Y114.704 E126.94171
G1 X48.393 Y112.316 E127.83659
G1 X48.354 Y111.401 E128.17927
G1 X48.34 Y110.785 E128.40982
G1 X48.341 Y110.378 E128.56211
G1 X48.389 Y107.732 E129.55235
G1 X48.417 Y106.849 E129.88291
G1 X48.439 Y106.403 E130.05
G1 X48.493 Y105.669 E130.32538
G1 X48.722 Y103.198 E131.25394
G1 X48.816 Y102.311 E131.58769
G1 X48.871 Y101.868 E131.75472
G1 X48.979 Y101.139 E132.03047
G1 X49.386 Y98.721 E132.94796
G1 X49.554 Y97.797 E133.29937
G1 X49.68 Y97.176 E133.53647
G1 X49.766 Y96.799 E133.68115
G1 X50.437 Y94.057 E134.73742
G1 X50.614 Y93.377 E135.00034
G1 X50.894 Y92.419 E135.3738
G1 X51.775 Y89.705 E136.44147
G1 X52.155 Y88.613 E136.87411
G1 X52.414 Y87.945 E137.14219
G1 X53.354 Y85.646 E138.07155
G1 X53.853 Y84.49 E138.54267
G1 X54.127 Y83.901 E138.78574
G1 X55.395 Y81.353 E139.85068
G1 X55.894 Y80.397 E140.25419
G1 X56.225 Y79.812 E140.50569
G1 X57.67 Y77.38 E141.5642
G1 X58.036 Y76.784 E141.8259
G1 X58.419 Y76.19 E142.09036
G1 X60.131 Y73.73 E143.2118
G1 X60.606 Y73.069 E143.51637
G1 X60.986 Y72.563 E143.75314
G1 X63.011 Y70.066 E144.95609
G0 F6000 X61.05 Y74.163
G1 F1200 X61.417 Y73.654 E145.19089
G1 X62.003 Y72.888 E145.55176
G1 X63.777 Y70.709 E146.60313
G1 X64.258 Y70.136 E146.88306
G1 X64.633 Y69.707 E147.09626
G1 X66.79 Y67.417 E148.27339
G1 X67.325 Y66.867 E148.56049
G1 X67.727 Y66.471 E148.77163
G1 X70.086 Y64.312 E149.96819
G1 X70.905 Y63.595 E150.37548
G1 X71.465 Y63.137 E150.64618
G1 X73.57 Y61.487 E151.64695
G1 X74.119 Y61.068 E151.90537
G1 X74.629 Y60.696 E152.14157
G1 X77.244 Y58.933 E153.32164
G1 X77.842 Y58.543 E153.58878
G1 X78.352 Y58.225 E153.81367
G1 X80.972 Y56.727 E154.94294
G1 X82.024 Y56.156 E155.39082
G1 X82.549 Y55.889 E155.6112
G1 X85.166 Y54.646 E156.69527
G1 X86.05 Y54.247 E157.05817
G1 X86.622 Y54.007 E157.29028
G1 X89.084 Y53.052 E158.27838
G1 X89.948 Y52.73 E158.62339
G1 X90.525 Y52.529 E158.85201
G1 X90.869 Y52.418 E158.98726
G1 X93.417 Y51.641 E159.98401
G1 X94.198 Y51.414 E160.28833
G1 X94.777 Y51.258 E160.51271
G1 X95.136 Y51.171 E160.65093
G1 X97.724 Y50.586 E161.64373
G1 X98.873 Y50.348 E162.08278
G1 X99.479 Y50.241 E162.31304
G1 X102.295 Y49.82 E163.37843
G1 X103.047 Y49.719 E163.66234
G1 X104 Y49.62 E164.02085
G1 X106.815 Y49.411 E165.07705
G1 X107.491 Y49.37 E165.33046
G1 X108.096 Y49.346 E165.55702
G1 X111.274 Y49.341 E166.74615
G1 X112.376 Y49.364 E167.15858
G1 X113.08 Y49.402 E167.42239
G1 X115.828 Y49.608 E168.45351
G1 X116.788 Y49.7 E168.81436
G1 X117.375 Y49.772 E169.03565
G1 X120.231 Y50.196 E170.11601
G1 X120.882 Y50.303 E170.36287
G1 X121.47 Y50.411 E170.58657
G1 X121.843 Y50.489 E170.72915
G1 X124.396 Y51.064 E171.70835
G1 X125.577 Y51.353 E172.1633
G1 X126.17 Y51.516 E172.39341
G1 X128.749 Y52.301 E173.40213
G1 X129.566 Y52.561 E173.72293
G1 X130.433 Y52.867 E174.06696
G1 X133.023 Y53.87 E175.10621
G1 X133.751 Y54.163 E175.39984
G1 X134.344 Y54.417 E175.64123
G1 X134.666 Y54.564 E175.77367
G1 X137.219 Y55.779 E176.83161
G1 X138.085 Y56.212 E177.19389
G1 X138.623 Y56.499 E177.42205
G1 X140.946 Y57.819 E178.42179
G1 X141.966 Y58.424 E178.86554
G1 X142.488 Y58.754 E179.09662
G1 X144.752 Y60.273 E180.11676
G1 X145.724 Y60.951 E180.5602
G1 X146.293 Y61.378 E180.82638
G1 X148.319 Y62.967 E181.78981
G1 X149.247 Y63.722 E182.23745
G1 X149.71 Y64.126 E182.46738
G1 X151.793 Y66.023 E183.52157
G1 X152.577 Y66.765 E183.92547
G1 X152.978 Y67.172 E184.13926
G1 X154.802 Y69.098 E185.13181
G1 X155.653 Y70.029 E185.60377
G1 X156.002 Y70.44 E185.80553
G1 X157.801 Y72.646 E186.87064
G1 X158.249 Y73.21 E187.14015
G1 X158.634 Y73.718 E187.37865
G1 X160.449 Y76.308 E188.56204
G1 X160.836 Y76.881 E188.82076
G1 X161.171 Y77.398 E189.05127
G1 X161.377 Y77.731 E189.19779
G1 X162.712 Y79.978 E190.17576
G1 X163.141 Y80.724 E190.49776
G1 X163.418 Y81.228 E190.71295
G1 X163.595 Y81.568 E190.85638
G1 X164.774 Y83.934 E191.84551
G1 X165.151 Y84.716 E192.17034
G1 X165.424 Y85.315 E192.41665
G1 X165.565 Y85.644 E192.55059
G1 X166.54 Y88.027 E193.51399
G1 X166.869 Y88.863 E193.85016
G1 X167.082 Y89.439 E194.07995
G1 X167.202 Y89.789 E194.21839
G1 X168.069 Y92.459 E195.2688
G1 X168.272 Y93.112 E195.52467
G1 X168.401 Y93.56 E195.69911
G1 X168.579 Y94.237 E195.96104
G1 X169.212 Y96.832 E196.96049
G1 X169.437 Y97.841 E197.34731
G1 X169.575 Y98.57 E197.62493
G1 X170.013 Y101.183 E198.61629
G1 X170.122 Y101.893 E198.88507
G1 X170.198 Y102.465 E199.10098
G1 X170.484 Y105.47 E200.23046
G1 X170.554 Y106.352 E200.56153
G1 X170.578 Y106.748 E200.70997
G1 X170.606 Y107.473 E200.98145
G1 X170.654 Y110.14 E201.97954
G1 X170.657 Y110.837 E202.24035
G1 X170.647 Y111.453 E202.47087
G1 X170.49 Y114.426 E203.58485
G1 X170.43 Y115.303 E203.91377
G1 X170.371 Y115.949 E204.15649
G1 X169.963 Y119.126 E205.35501
G1 X169.869 Y119.771 E205.5989
G1 X169.775 Y120.339 E205.81433
G1 X169.169 Y123.317 E206.95146
G1 X168.908 Y124.482 E207.39818
G1 X168.753 Y125.077 E207.62825
G1 X168.021 Y127.656 E208.63137
G1 X167.782 Y128.458 E208.9445
G1 X167.588 Y129.06 E209.18116
G1 X166.565 Y131.871 E210.30046
G1 X166.094 Y133.088 E210.78874
G1 X165.834 Y133.693 E211.03514
G1 X164.789 Y136.002 E211.98348
G1 X164.284 Y137.064 E212.42349
G1 X164.007 Y137.606 E212.65125
G1 X162.651 Y140.096 E213.71214
G1 X162.297 Y140.726 E213.98254
G1 X161.977 Y141.267 E214.21773
G1 X160.257 Y143.943 E215.40802
G1 X159.697 Y144.778 E215.78422
G1 X159.352 Y145.256 E216.00479
G1 X157.732 Y147.405 E217.01178
G1 X156.974 Y148.374 E217.47211
G1 X156.592 Y148.828 E217.69412
G1 X154.837 Y150.829 E218.69003
G1 X154.249 Y151.482 E219.01882
G1 X153.86 Y151.897 E219.23166
G1 X151.724 Y154.003 E220.35405
G1 X151.033 Y154.664 E220.71185
G1 X150.679 Y154.988 E220.89141
G1 X150.218 Y155.39 E221.12028
G1 X148.188 Y157.107 E222.11513
G1 X147.653 Y157.547 E222.37432
G1 X146.917 Y158.118 E222.72287
G1 X144.754 Y159.692 E223.72382
G1 X144.04 Y160.195 E224.05062
G1 X143.228 Y160.733 E224.41509
G1 X140.857 Y162.201 E225.45855
G1 X140.233 Y162.575 E225.73076
G1 X139.387 Y163.05 E226.09379
G1 X137.072 Y164.259 E227.07103
G1 X135.968 Y164.807 E227.53221
G1 X135.433 Y165.055 E227.75286
G1 X132.991 Y166.11 E228.74822
G1 X131.847 Y166.577 E229.21057
G1 X131.288 Y166.786 E229.43388
G1 X128.589 Y167.719 E230.50242
G1 X127.631 Y168.031 E230.87941
G1 X126.991 Y168.217 E231.12879
G1 X124.462 Y168.887 E232.10773
G1 X123.269 Y169.177 E232.56712
G1 X122.691 Y169.302 E232.78839
G1 X120.065 Y169.795 E233.78815
G1 X119.202 Y169.945 E234.1159
G1 X118.603 Y170.036 E234.34261
G1 X115.641 Y170.373 E235.45807
G1 X114.74 Y170.461 E235.7968
G1 X114.137 Y170.507 E236.02309
G1 X111.117 Y170.626 E237.15398
G1 X110.281 Y170.646 E237.46688
G1 X109.62 Y170.647 E237.71421
G1 X106.459 Y170.535 E238.89773
G1 X105.795 Y170.501 E239.1465
G1 X105.219 Y170.46 E239.36257
G1 X104.848 Y170.425 E239.50201
G1 X102.221 Y170.134 E240.49098
G1 X100.962 Y169.971 E240.966
G1 X100.237 Y169.852 E241.24091
G1 X97.753 Y169.387 E242.18651
G1 X96.951 Y169.227 E242.49252
G1 X96.504 Y169.129 E242.66375
G1 X95.821 Y168.961 E242.92693
G1 X93.373 Y168.313 E243.87446
G1 X92.602 Y168.098 E244.17395
G1 X91.97 Y167.906 E244.42111
G1 X89.032 Y166.898 E245.58334
G1 X88.32 Y166.641 E245.86658
G1 X87.907 Y166.483 E246.03203
