;FLAVOR:Marlin
;TIME:6711
;Filament used: 43.3572m
;Layer height: 0.9
;MINX:57.5
;MINY:47.917
;MINZ:0.9
;MAXX:162.5
;MAXY:172.082
;MAXZ:46.8
;Generated with Cura_SteamEngine main
M82 ;absolute extrusion mode
; Ender 3 Custom Start G-code
G92 E0 ; Reset Extruder
G28 ; Home all axes
M104 S175 ; Start heating up the nozzle most of the way
M190 S60 ; Start heating the bed, wait until target temperature reached
M109 S200 ; Finish heating the nozzle
G92 E0 ; Reset Extruder
G1 Z2.0 F3000 ; Move Z Axis up little to prevent scratching of Heat Bed
G92 E0
G92 E0
G1 F1500 E-6.5
;LAYER_COUNT:52
;LAYER:0
M107
G0 F6000 X60.722 Y52.06 Z0.9
G0 X57.501 Y60.942
;TYPE:SKIRT
G1 F1500 E0
G1 F1200 X57.51 Y60.261 E0.25484
G1 X57.563 Y59.262 E0.62916
G1 X57.696 Y58.271 E1.0033
G1 X57.908 Y57.294 E1.37738
G1 X58.197 Y56.337 E1.75143
G1 X58.561 Y55.406 E2.12547
G1 X58.999 Y54.507 E2.49966
G1 X59.507 Y53.646 E2.87372
G1 X60.083 Y52.829 E3.24776
G1 X60.722 Y52.06 E3.62187
G1 X61.42 Y51.344 E3.99602
G1 X62.173 Y50.687 E4.36995
G1 X62.977 Y50.092 E4.74421
G1 X63.825 Y49.563 E5.11819
G1 X64.713 Y49.103 E5.49239
G1 X65.635 Y48.716 E5.86654
G1 X66.585 Y48.404 E6.24069
G1 X67.556 Y48.169 E6.6145
G1 X68.544 Y48.012 E6.98883
G1 X69.659 Y47.931 E7.40713
G1 X70.33 Y47.917 E7.65826
G1 X149.472 Y47.919 E37.27134
G1 X150.17 Y47.929 E37.53254
G1 X151.168 Y47.984 E37.90654
G1 X152.159 Y48.117 E38.28067
G1 X153.136 Y48.33 E38.65483
G1 X154.093 Y48.62 E39.02899
G1 X155.023 Y48.986 E39.40296
G1 X155.922 Y49.425 E39.7773
G1 X156.782 Y49.934 E40.15123
G1 X157.599 Y50.51 E40.52527
G1 X158.368 Y51.15 E40.89963
G1 X159.082 Y51.849 E41.27351
G1 X159.739 Y52.603 E41.64771
G1 X160.333 Y53.407 E42.02175
G1 X160.861 Y54.256 E42.39585
G1 X161.32 Y55.145 E42.77021
G1 X161.706 Y56.067 E43.14422
G1 X162.017 Y57.017 E43.51825
G1 X162.251 Y57.989 E43.89234
G1 X162.406 Y58.977 E44.26655
G1 X162.486 Y60.077 E44.67923
G1 X162.5 Y60.748 E44.93036
G1 X162.499 Y159.001 E81.69432
G1 X162.49 Y159.728 E81.96637
G1 X162.438 Y160.726 E82.3403
G1 X162.306 Y161.717 E82.71439
G1 X162.095 Y162.695 E83.08875
G1 X161.807 Y163.652 E83.4627
G1 X161.443 Y164.583 E83.83674
G1 X161.006 Y165.482 E84.21076
G1 X160.498 Y166.344 E84.58514
G1 X159.924 Y167.162 E84.95906
G1 X159.285 Y167.931 E85.33318
G1 X158.588 Y168.648 E85.70733
G1 X157.835 Y169.306 E86.0815
G1 X157.032 Y169.901 E86.45546
G1 X156.184 Y170.431 E86.82964
G1 X155.296 Y170.891 E87.20384
G1 X154.375 Y171.279 E87.57779
G1 X153.425 Y171.592 E87.95206
G1 X152.454 Y171.828 E88.32596
G1 X151.467 Y171.986 E88.69997
G1 X150.341 Y172.068 E89.12241
G1 X149.67 Y172.082 E89.37354
G1 X70.546 Y172.081 E118.97988
G1 X69.848 Y172.072 E119.24108
G1 X68.849 Y172.019 E119.61541
G1 X67.858 Y171.887 E119.98949
G1 X66.881 Y171.675 E120.36357
G1 X65.924 Y171.387 E120.73752
G1 X64.993 Y171.022 E121.11169
G1 X64.094 Y170.585 E121.48571
G1 X63.233 Y170.077 E121.85978
G1 X62.415 Y169.502 E122.23391
G1 X61.646 Y168.863 E122.60802
G1 X60.93 Y168.165 E122.98217
G1 X60.272 Y167.412 E123.35634
G1 X59.677 Y166.609 E123.7303
G1 X59.148 Y165.76 E124.1046
G1 X58.688 Y164.873 E124.47847
G1 X58.301 Y163.951 E124.85262
G1 X57.988 Y163.001 E125.22688
G1 X57.753 Y162.03 E125.6007
G1 X57.596 Y161.042 E125.97502
G1 X57.514 Y159.911 E126.39933
G1 X57.5 Y159.24 E126.65046
G1 X57.501 Y60.942 E163.43126
G0 F6000 X58.501 Y60.955
G1 F1200 X58.51 Y60.274 E163.6861
G1 X58.563 Y59.317 E164.04473
G1 X58.695 Y58.367 E164.40361
G1 X58.906 Y57.431 E164.76263
G1 X59.194 Y56.517 E165.1212
G1 X59.557 Y55.629 E165.48016
G1 X59.993 Y54.775 E165.83895
G1 X60.499 Y53.96 E166.19789
G1 X61.071 Y53.19 E166.55681
G1 X61.705 Y52.471 E166.91549
G1 X62.396 Y51.807 E167.27408
G1 X63.141 Y51.202 E167.63318
G1 X63.933 Y50.662 E167.99185
G1 X64.768 Y50.19 E168.35075
G1 X65.639 Y49.789 E168.70954
G1 X66.54 Y49.462 E169.06819
G1 X67.466 Y49.211 E169.42718
G1 X68.409 Y49.038 E169.78592
G1 X69.687 Y48.931 E170.26579
G1 X70.33 Y48.917 E170.50644
G1 X149.458 Y48.919 E200.11428
G1 X150.156 Y48.929 E200.37548
G1 X151.113 Y48.983 E200.73414
G1 X152.063 Y49.116 E201.09307
G1 X152.998 Y49.328 E201.45181
G1 X153.912 Y49.617 E201.8105
G1 X154.799 Y49.982 E202.16939
G1 X155.653 Y50.418 E202.52818
G1 X156.467 Y50.925 E202.887
G1 X157.237 Y51.498 E203.24614
G1 X157.955 Y52.132 E203.60455
G1 X158.619 Y52.825 E203.96367
G1 X159.222 Y53.57 E204.3223
G1 X159.762 Y54.363 E204.68128
G1 X160.233 Y55.198 E205.04
G1 X160.633 Y56.07 E205.39897
G1 X160.959 Y56.971 E205.75749
G1 X161.209 Y57.897 E206.11639
G1 X161.381 Y58.841 E206.47542
G1 X161.486 Y60.105 E206.95001
G1 X161.5 Y60.748 E207.19066
G1 X161.499 Y158.988 E243.94977
G1 X161.49 Y159.715 E244.22181
G1 X161.438 Y160.673 E244.5808
G1 X161.307 Y161.623 E244.93963
G1 X161.097 Y162.558 E245.2982
G1 X160.809 Y163.473 E245.65713
G1 X160.447 Y164.361 E246.01595
G1 X160.012 Y165.216 E246.3749
G1 X159.507 Y166.031 E246.73365
G1 X158.935 Y166.801 E247.09256
G1 X158.302 Y167.521 E247.45128
G1 X157.611 Y168.186 E247.81012
G1 X156.867 Y168.791 E248.16893
G1 X156.075 Y169.332 E248.52782
G1 X155.241 Y169.805 E248.88658
G1 X154.37 Y170.207 E249.24552
G1 X153.469 Y170.534 E249.60417
G1 X152.544 Y170.786 E249.9629
G1 X151.6 Y170.96 E250.32207
G1 X150.313 Y171.068 E250.80533
G1 X149.67 Y171.082 E251.04599
G1 X70.559 Y171.081 E280.64746
G1 X69.861 Y171.072 E280.90866
G1 X68.903 Y171.02 E281.26765
G1 X67.953 Y170.888 E281.62653
G1 X67.018 Y170.677 E281.98518
G1 X66.103 Y170.389 E282.34412
G1 X65.215 Y170.026 E282.70307
G1 X64.361 Y169.591 E283.06169
G1 X63.546 Y169.085 E283.42064
G1 X62.776 Y168.514 E283.77933
G1 X62.056 Y167.88 E284.13829
G1 X61.392 Y167.189 E284.49687
G1 X60.787 Y166.444 E284.85598
G1 X60.247 Y165.652 E285.21465
G1 X59.775 Y164.818 E285.57323
G1 X59.373 Y163.947 E285.93217
G1 X59.046 Y163.045 E286.29117
G1 X58.795 Y162.12 E286.6498
G1 X58.621 Y161.177 E287.00861
G1 X58.513 Y159.884 E287.4941
G1 X58.5 Y159.24 E287.73512
G1 X58.501 Y60.955 E324.51106
G0 F6000 X59.501 Y60.968
G1 F1200 X59.51 Y60.287 E324.7659
G1 X59.562 Y59.372 E325.10882
G1 X59.694 Y58.466 E325.4514
G1 X59.904 Y57.574 E325.79429
G1 X60.191 Y56.704 E326.13708
G1 X60.553 Y55.862 E326.48002
G1 X60.987 Y55.055 E326.82288
G1 X61.489 Y54.289 E327.16557
G1 X62.057 Y53.569 E327.50871
G1 X62.685 Y52.902 E327.8515
G1 X63.369 Y52.292 E328.19443
G1 X64.103 Y51.744 E328.53718
G1 X64.883 Y51.262 E328.88027
G1 X65.701 Y50.85 E329.22297
G1 X66.552 Y50.511 E329.56573
G1 X67.43 Y50.248 E329.90868
G1 X68.327 Y50.062 E330.25146
G1 X69.237 Y49.954 E330.59435
G1 X69.715 Y49.93 E330.77343
G1 X70.33 Y49.917 E331.0036
G1 X149.443 Y49.919 E360.60583
G1 X150.141 Y49.929 E360.86703
G1 X151.056 Y49.982 E361.20997
G1 X151.963 Y50.115 E361.55298
G1 X152.854 Y50.326 E361.89559
G1 X153.724 Y50.614 E362.2385
G1 X154.566 Y50.977 E362.58159
G1 X155.372 Y51.412 E362.92429
G1 X156.138 Y51.915 E363.26718
G1 X156.857 Y52.484 E363.61027
G1 X157.523 Y53.112 E363.95279
G1 X158.132 Y53.797 E364.29575
G1 X158.679 Y54.532 E364.63857
G1 X159.16 Y55.312 E364.98146
G1 X159.571 Y56.131 E365.32433
G1 X159.91 Y56.982 E365.66709
G1 X160.172 Y57.86 E366.00993
G1 X160.357 Y58.758 E366.353
G1 X160.463 Y59.668 E366.6958
G1 X160.487 Y60.133 E366.87003
G1 X160.5 Y60.748 E367.1002
G1 X160.499 Y158.976 E403.85481
G1 X160.49 Y159.703 E404.12686
G1 X160.439 Y160.618 E404.46976
G1 X160.308 Y161.525 E404.81266
G1 X160.099 Y162.417 E405.15546
G1 X159.812 Y163.287 E405.49825
G1 X159.451 Y164.129 E405.84105
G1 X159.018 Y164.937 E406.18406
G1 X158.516 Y165.703 E406.52674
G1 X157.949 Y166.423 E406.86966
G1 X157.321 Y167.091 E407.21272
G1 X156.638 Y167.701 E407.55537
G1 X155.904 Y168.25 E407.89834
G1 X155.125 Y168.732 E408.24111
G1 X154.307 Y169.145 E408.58398
G1 X153.456 Y169.485 E408.92688
G1 X152.579 Y169.749 E409.26958
G1 X151.682 Y169.936 E409.61243
G1 X150.772 Y170.044 E409.95532
G1 X150.285 Y170.069 E410.13779
G1 X149.67 Y170.082 E410.36796
G1 X70.572 Y170.081 E439.96457
G1 X69.874 Y170.072 E440.22577
G1 X68.959 Y170.02 E440.56869
G1 X68.052 Y169.889 E440.91159
G1 X67.16 Y169.679 E441.25448
G1 X66.29 Y169.392 E441.59727
G1 X65.448 Y169.031 E441.94006
G1 X64.641 Y168.597 E442.28292
G1 X63.874 Y168.095 E442.62592
G1 X63.155 Y167.527 E442.96877
G1 X62.487 Y166.899 E443.31184
G1 X61.877 Y166.216 E443.65449
G1 X61.329 Y165.482 E443.99723
G1 X60.847 Y164.702 E444.34032
G1 X60.435 Y163.884 E444.68303
G1 X60.095 Y163.033 E445.02592
G1 X59.832 Y162.155 E445.36887
G1 X59.645 Y161.258 E445.71173
G1 X59.538 Y160.348 E446.05457
G1 X59.513 Y159.857 E446.23853
G1 X59.5 Y159.24 E446.46945
G1 X59.501 Y60.968 E483.24052
G1 F1500 E476.74052
;MESH:custom_base_solid.STL
G0 F6000 X69.335 Y61.431
G0 X71.5 Y158.082
;TYPE:WALL-INNER
G1 F1500 E483.24052
G1 F1200 X148.5 Y158.082 E512.05212
G1 X148.5 Y100.418 E533.62863
G1 X148.5 Y61.918 E548.03443
G1 X71.5 Y61.918 E576.84602
G1 X71.5 Y158.082 E612.82833
G0 F6000 X71.07 Y158.512
G0 X70.5 Y159.082
;TYPE:WALL-OUTER
G1 F1200 X149.5 Y159.082 E642.38827
G1 X149.5 Y100.418 E664.33897
G1 X149.5 Y60.918 E679.11894
G1 X70.5 Y60.918 E708.67888
G1 X70.5 Y159.082 E745.40955
G0 F6000 X71.07 Y158.512
G0 X71.9 Y157.182
G0 X72.4 Y157.182
;TYPE:SKIN
G1 F1200 X147.6 Y157.182 E773.54762
G1 X147.6 Y100.418 E794.78738
G1 X147.6 Y62.818 E808.85641
G1 X72.4 Y62.818 E836.99449
G1 X72.4 Y157.182 E872.30328
G0 F6000 X73.242 Y156.68
G1 F1200 X72.899 Y156.337 E872.48479
G0 F6000 X71.9 Y156.337
G0 X71.9 Y154.923
G0 X72.899 Y154.923
G1 F1200 X74.656 Y156.68 E873.41453
G0 F6000 X74.656 Y157.682
G0 X76.07 Y157.682
G0 X76.07 Y156.68
G1 F1200 X72.899 Y153.509 E875.09251
G0 F6000 X71.9 Y153.509
G0 X71.9 Y152.095
G0 X72.899 Y152.095
G1 F1200 X77.484 Y156.68 E877.51874
G0 F6000 X77.484 Y157.682
G0 X78.898 Y157.682
G0 X78.898 Y156.68
G1 F1200 X72.899 Y150.68 E880.69346
G0 F6000 X71.9 Y150.68
G0 X71.9 Y149.266
G0 X72.899 Y149.266
G1 F1200 X80.313 Y156.68 E884.6167
G0 F6000 X80.313 Y157.682
G0 X81.727 Y157.682
G0 X81.727 Y156.68
G1 F1200 X72.899 Y147.852 E889.28817
G0 F6000 X71.9 Y147.852
G0 X71.9 Y146.438
G0 X72.899 Y146.438
G1 F1200 X83.141 Y156.68 E894.70788
G0 F6000 X83.141 Y157.682
G0 X84.555 Y157.682
G0 X84.555 Y156.68
G1 F1200 X72.899 Y145.024 E900.87584
G0 F6000 X71.9 Y145.024
G0 X71.9 Y143.609
G0 X72.899 Y143.609
G1 F1200 X85.97 Y156.68 E907.79256
G0 F6000 X85.97 Y157.682
G0 X87.384 Y157.682
G0 X87.384 Y156.68
G1 F1200 X72.899 Y142.195 E915.45752
G0 F6000 X71.9 Y142.195
G0 X71.9 Y140.781
G0 X72.899 Y140.781
G1 F1200 X88.798 Y156.68 E923.87072
G0 F6000 X88.798 Y157.682
G0 X90.212 Y157.682
G0 X90.212 Y156.68
G1 F1200 X72.899 Y139.367 E933.03217
G0 F6000 X71.9 Y139.367
G0 X71.9 Y137.952
G0 X72.899 Y137.952
G1 F1200 X91.626 Y156.68 E942.94211
G0 F6000 X91.626 Y157.682
G0 X93.041 Y157.682
G0 X93.041 Y156.68
G1 F1200 X72.899 Y136.538 E953.60057
G0 F6000 X71.9 Y136.538
G0 X71.9 Y135.124
G0 X72.899 Y135.124
G1 F1200 X94.455 Y156.68 E965.00726
G0 F6000 X94.455 Y157.682
G0 X95.869 Y157.682
G0 X95.869 Y156.68
G1 F1200 X72.899 Y133.71 E977.16219
G0 F6000 X71.9 Y133.71
G0 X71.9 Y132.296
G0 X72.899 Y132.296
G1 F1200 X97.283 Y156.68 E990.06536
G0 F6000 X97.283 Y157.682
G0 X98.697 Y157.682
G0 X98.697 Y156.68
G1 F1200 X72.899 Y130.881 E1003.71704
G0 F6000 X71.9 Y130.881
G0 X71.9 Y129.467
G0 X72.899 Y129.467
G1 F1200 X100.112 Y156.68 E1018.11722
G0 F6000 X100.112 Y157.682
G0 X101.526 Y157.682
G0 X101.526 Y156.68
G1 F1200 X72.899 Y128.053 E1033.26564
G0 F6000 X71.9 Y128.053
G0 X71.9 Y126.639
G0 X72.899 Y126.639
G1 F1200 X102.94 Y156.68 E1049.1623
G0 F6000 X102.94 Y157.682
G0 X104.354 Y157.682
G0 X104.354 Y156.68
G1 F1200 X72.899 Y125.225 E1065.8072
G0 F6000 X71.9 Y125.225
G0 X71.9 Y123.81
G0 X72.899 Y123.81
G1 F1200 X105.769 Y156.68 E1083.20087
G0 F6000 X105.769 Y157.682
G0 X107.183 Y157.682
G0 X107.183 Y156.68
G1 F1200 X72.899 Y122.396 E1101.34278
G0 F6000 X71.9 Y122.396
G0 X71.9 Y120.982
G0 X72.899 Y120.982
G1 F1200 X108.597 Y156.68 E1120.23293
G0 F6000 X108.597 Y157.682
G0 X110.011 Y157.682
G0 X110.011 Y156.68
G1 F1200 X72.899 Y119.568 E1139.87132
G0 F6000 X71.9 Y119.568
G0 X71.9 Y118.154
G0 X72.899 Y118.154
G1 F1200 X111.425 Y156.68 E1160.25795
G0 F6000 X111.425 Y157.682
G0 X112.84 Y157.682
G0 X112.84 Y156.68
G1 F1200 X72.899 Y116.739 E1181.39335
G0 F6000 X71.9 Y116.739
G0 X71.9 Y115.325
G0 X72.899 Y115.325
G1 F1200 X114.254 Y156.68 E1203.27699
G0 F6000 X114.254 Y157.682
G0 X115.668 Y157.682
G0 X115.668 Y156.68
G1 F1200 X72.899 Y113.911 E1225.90887
G0 F6000 X71.9 Y113.911
G0 X71.9 Y112.497
G0 X72.899 Y112.497
G1 F1200 X117.082 Y156.68 E1249.28899
G0 F6000 X117.082 Y157.682
G0 X118.496 Y157.682
G0 X118.496 Y156.68
G1 F1200 X72.899 Y111.082 E1273.41762
G0 F6000 X71.9 Y111.082
G0 X71.9 Y109.668
G0 X72.899 Y109.668
G1 F1200 X119.911 Y156.68 E1298.29474
G0 F6000 X119.911 Y157.682
G0 X121.325 Y157.682
G0 X121.325 Y156.68
G1 F1200 X72.899 Y108.254 E1323.92011
G0 F6000 X71.9 Y108.254
G0 X71.9 Y106.84
G0 X72.899 Y106.84
G1 F1200 X122.739 Y156.68 E1350.29372
G0 F6000 X122.739 Y157.682
G0 X124.153 Y157.682
G0 X124.153 Y156.68
G1 F1200 X72.899 Y105.426 E1377.41557
G0 F6000 X71.9 Y105.426
G0 X71.9 Y104.011
G0 X72.899 Y104.011
G1 F1200 X125.568 Y156.68 E1405.28619
G0 F6000 X125.568 Y157.682
G0 X126.982 Y157.682
G0 X126.982 Y156.68
G1 F1200 X72.899 Y102.597 E1433.90505
G0 F6000 X71.9 Y102.597
G0 X71.9 Y101.183
G0 X72.899 Y101.183
G1 F1200 X128.396 Y156.68 E1463.27215
G0 F6000 X128.396 Y157.682
G0 X129.81 Y157.682
G0 X129.81 Y156.68
G1 F1200 X72.899 Y99.769 E1493.38748
G0 F6000 X71.9 Y99.769
G0 X71.9 Y98.355
G0 X72.899 Y98.355
G1 F1200 X131.224 Y156.68 E1524.25106
G0 F6000 X131.224 Y157.682
G0 X132.639 Y157.682
G0 X132.639 Y156.68
G1 F1200 X72.899 Y96.94 E1555.86341
G0 F6000 X71.9 Y96.94
G0 X71.9 Y95.526
G0 X72.899 Y95.526
G1 F1200 X134.053 Y156.68 E1588.224
G0 F6000 X134.053 Y157.682
G0 X135.467 Y157.682
G0 X135.467 Y156.68
G1 F1200 X72.899 Y94.112 E1621.33282
G0 F6000 X71.9 Y94.112
G0 X71.9 Y92.698
G0 X72.899 Y92.698
G1 F1200 X136.881 Y156.68 E1655.18989
G0 F6000 X136.881 Y157.682
G0 X138.295 Y157.682
G0 X138.295 Y156.68
G1 F1200 X72.899 Y91.283 E1689.79546
G0 F6000 X71.9 Y91.283
G0 X71.9 Y89.869
G0 X72.899 Y89.869
G1 F1200 X139.71 Y156.68 E1725.14954
G0 F6000 X139.71 Y157.682
G0 X141.124 Y157.682
G0 X141.124 Y156.68
G1 F1200 X72.899 Y88.455 E1761.25186
G0 F6000 X71.9 Y88.455
G0 X71.9 Y87.041
G0 X72.899 Y87.041
G1 F1200 X142.538 Y156.68 E1798.10242
G0 F6000 X142.538 Y157.682
G0 X143.952 Y157.682
G0 X143.952 Y156.68
G1 F1200 X72.899 Y85.627 E1835.70121
G0 F6000 X71.9 Y85.627
G0 X71.9 Y84.212
G0 X72.899 Y84.212
G1 F1200 X145.367 Y156.68 E1874.04878
G0 F6000 X145.367 Y157.682
G0 X146.781 Y157.682
G0 X146.781 Y156.68
G1 F1200 X72.899 Y82.798 E1913.14458
G0 F6000 X71.9 Y82.798
G0 X71.9 Y81.384
G0 X72.899 Y81.384
G1 F1200 X147.1 Y155.585 E1952.40919
G0 F6000 X148.1 Y155.585
G0 X148.1 Y154.171
G0 X147.1 Y154.171
G1 F1200 X72.899 Y79.97 E1991.6738
G0 F6000 X71.9 Y79.97
G0 X71.9 Y78.556
G0 X72.899 Y78.556
G1 F1200 X147.1 Y152.756 E2030.93815
G0 F6000 X148.1 Y152.756
G0 X148.1 Y151.342
G0 X147.1 Y151.342
G1 F1200 X72.899 Y77.141 E2070.20276
G0 F6000 X71.9 Y77.141
G0 X71.9 Y75.727
G0 X72.899 Y75.727
G1 F1200 X147.1 Y149.928 E2109.46737
G0 F6000 X148.1 Y149.928
G0 X148.1 Y148.514
G0 X147.1 Y148.514
G1 F1200 X72.899 Y74.313 E2148.73198
G0 F6000 X71.9 Y74.313
G0 X71.9 Y72.899
G0 X72.899 Y72.899
G1 F1200 X147.1 Y147.1 E2187.99659
G0 F6000 X148.1 Y147.1
G0 X148.1 Y145.685
G0 X147.1 Y145.685
G1 F1200 X72.899 Y71.484 E2227.2612
G0 F6000 X71.9 Y71.484
G0 X71.9 Y70.07
G0 X72.899 Y70.07
G1 F1200 X147.1 Y144.271 E2266.52581
G0 F6000 X148.1 Y144.271
