Henry99C/3DPrinting_NonPlanarSurfaces_DobotMagician/data_planar/data3/output/angle_values.txt
J1 J2 J3 J5 J6
-9.552 33.2796 70.3744 0.0 0.0
-9.1756 32.9087 70.9357 0.0 0.0
-8.7928 32.5454 71.4961 0.0 0.0
-8.9078 32.6432 71.3442 0.0 0.0
-8.9972 32.723 71.2207 0.0 0.0
-9.0544 32.7771 71.1375 0.0 0.0
-9.4474 33.1693 70.5403 0.0 0.0
-9.552 33.2796 70.3744 0.0 0.0
-9.6303 33.3667 70.244 0.0 0.0
-9.6776 33.4223 70.1609 0.0 0.0
-10.0298 33.8612 69.5132 0.0 0.0
-10.1612 34.0375 69.2563 0.0 0.0
-10.2432 34.1581 69.0818 0.0 0.0
-10.5241 34.6015 68.447 0.0 0.0
-10.5936 34.7174 68.2827 0.0 0.0
-10.657 34.8303 68.1235 0.0 0.0
-10.9207 35.3601 67.3846 0.0 0.0
-10.9946 35.5191 67.1654 0.0 0.0
-11.0439 35.633 67.009 0.0 0.0
-11.073 35.7056 66.9097 0.0 0.0
-11.2561 36.1991 66.2405 0.0 0.0
-11.3341 36.4298 65.9309 0.0 0.0
-11.3711 36.5529 65.7665 0.0 0.0
-11.5092 37.0728 65.0788 0.0 0.0
-11.567 37.3149 64.7616 0.0 0.0
-11.5948 37.4499 64.5857 0.0 0.0
-11.693 38.0223 63.846 0.0 0.0
-11.7171 38.1793 63.6448 0.0 0.0
-11.7344 38.3119 63.4756 0.0 0.0
-11.7431 38.3938 63.3713 0.0 0.0
-11.796 38.9915 62.6156 0.0 0.0
-11.8062 39.1306 62.441 0.0 0.0
-11.8135 39.2648 62.2732 0.0 0.0
-11.8247 39.9253 61.4534 0.0 0.0
-11.8242 40.1862 61.1324 0.0 0.0
-11.8201 40.333 60.9524 0.0 0.0
-11.787 40.9672 60.1804 0.0 0.0
-11.7761 41.1366 59.9755 0.0 0.0
-11.7642 41.2805 59.8019 0.0 0.0
-11.6827 42.0033 58.9364 0.0 0.0
-11.6638 42.157 58.7535 0.0 0.0
-11.6435 42.3013 58.5823 0.0 0.0
-11.6297 42.3869 58.4806 0.0 0.0
-11.5188 43.0353 57.7164 0.0 0.0
-11.4705 43.296 57.411 0.0 0.0
-11.4353 43.4629 57.216 0.0 0.0
-11.3059 44.0385 56.5471 0.0 0.0
-11.2389 44.3222 56.2192 0.0 0.0
-11.2008 44.4699 56.0488 0.0 0.0
-11.0175 45.1366 55.2839 0.0 0.0
-10.9745 45.2887 55.1101 0.0 0.0
-10.9319 45.4319 54.9468 0.0 0.0
-10.9021 45.5266 54.839 0.0 0.0
-10.7079 46.125 54.1604 0.0 0.0
-10.6133 46.4084 53.8403 0.0 0.0
-10.5591 46.5603 53.6693 0.0 0.0
-10.3166 47.2108 52.9395 0.0 0.0
-10.2569 47.3691 52.7627 0.0 0.0
-10.2132 47.4799 52.6389 0.0 0.0
-10.146 47.6433 52.4568 0.0 0.0
-9.9216 48.1763 51.8646 0.0 0.0
-9.8318 48.3879 51.6304 0.0 0.0
-9.7655 48.5379 51.4646 0.0 0.0
-9.7267 48.6219 51.3718 0.0 0.0
-9.4599 49.1896 50.7467 0.0 0.0
-9.3324 49.456 50.4544 0.0 0.0
-9.2607 49.5989 50.2979 0.0 0.0
-8.9646 50.1677 49.6765 0.0 0.0
-8.8294 50.4235 49.398 0.0 0.0
-8.7515 50.5636 49.2457 0.0 0.0
-8.4081 51.1612 48.5979 0.0 0.0
-8.2817 51.3772 48.3644 0.0 0.0
-8.1905 51.5247 48.2052 0.0 0.0
-7.846 52.0686 47.6195 0.0 0.0
-7.761 52.2016 47.4768 0.0 0.0
-7.6737 52.3331 47.3357 0.0 0.0
-7.2782 52.9 46.7287 0.0 0.0
-7.1091 53.1385 46.474 0.0 0.0
-7.0278 53.2458 46.3595 0.0 0.0
-6.6647 53.715 45.86 0.0 0.0
-6.4846 53.9441 45.6167 0.0 0.0
-6.4048 54.0388 45.5163 0.0 0.0
-5.9991 54.51 45.0171 0.0 0.0
-5.8387 54.6926 44.824 0.0 0.0
-5.7477 54.7893 44.7218 0.0 0.0
-5.3308 55.2198 44.2679 0.0 0.0
-5.2292 55.3229 44.1593 0.0 0.0
-5.1344 55.4155 44.0618 0.0 0.0
-5.0709 55.4746 43.9996 0.0 0.0
-4.6503 55.8565 43.5984 0.0 0.0
-4.5462 55.9494 43.501 0.0 0.0
-4.4552 56.0273 43.4193 0.0 0.0
-4.3914 56.0787 43.3652 0.0 0.0
-3.9588 56.4181 43.01 0.0 0.0
-3.8495 56.5023 42.9218 0.0 0.0
-3.743 56.5797 42.8408 0.0 0.0
-3.6822 56.6212 42.7974 0.0 0.0
-3.2516 56.9061 42.4999 0.0 0.0
-3.1362 56.9806 42.4222 0.0 0.0
-3.0353 57.042 42.3583 0.0 0.0
-2.9714 57.0779 42.3207 0.0 0.0
-2.5235 57.3193 42.0693 0.0 0.0
-2.4148 57.3764 42.0098 0.0 0.0
-2.3338 57.4155 41.969 0.0 0.0
-2.2181 57.4667 41.9158 0.0 0.0
-1.8167 57.6333 41.7425 0.0 0.0
-1.6149 57.7115 41.6612 0.0 0.0
-1.4904 57.752 41.6193 0.0 0.0
-1.0589 57.8782 41.4882 0.0 0.0
-0.9424 57.9102 41.4549 0.0 0.0
-0.8439 57.9336 41.4305 0.0 0.0
-0.7827 57.9455 41.4183 0.0 0.0
-0.3472 58.0195 41.3415 0.0 0.0
-0.2004 58.0417 41.3184 0.0 0.0
-0.1301 58.0499 41.3098 0.0 0.0
-0.0075 58.0593 41.3002 0.0 0.0
0.4018 58.0775 41.2813 0.0 0.0
0.5444 58.0816 41.2771 0.0 0.0
0.7113 58.077 41.2819 0.0 0.0
1.1409 58.0435 41.3166 0.0 0.0
1.2869 58.0295 41.3311 0.0 0.0
1.3976 58.0141 41.347 0.0 0.0
1.8944 57.9145 41.4504 0.0 0.0
2.0325 57.884 41.4822 0.0 0.0
2.1301 57.8587 41.5085 0.0 0.0
2.1932 57.8396 41.5282 0.0 0.0
2.6267 57.6981 41.6751 0.0 0.0
2.8269 57.6279 41.7482 0.0 0.0
2.9303 57.5846 41.7931 0.0 0.0
3.3598 57.3913 41.9943 0.0 0.0
3.4959 57.3279 42.0602 0.0 0.0
3.6016 57.2746 42.1159 0.0 0.0
4.1077 56.9852 42.4175 0.0 0.0
4.2936 56.8735 42.5339 0.0 0.0
4.4002 56.802 42.6086 0.0 0.0
4.8348 56.4989 42.9255 0.0 0.0
4.9806 56.3932 43.036 0.0 0.0
5.0825 56.3142 43.1187 0.0 0.0
5.4919 55.9785 43.4705 0.0 0.0
5.6839 55.8172 43.6397 0.0 0.0
5.7852 55.725 43.7365 0.0 0.0
6.1838 55.3487 44.1321 0.0 0.0
6.3623 55.1767 44.3132 0.0 0.0
6.4527 55.0829 44.4121 0.0 0.0
6.8433 54.6654 44.8528 0.0 0.0
7.0277 54.4644 45.0653 0.0 0.0
7.1156 54.3617 45.174 0.0 0.0
7.5145 53.8841 45.6805 0.0 0.0
7.6148 53.7627 45.8095 0.0 0.0
7.6974 53.659 45.9196 0.0 0.0
7.752 53.5875 45.9956 0.0 0.0
8.1323 53.0806 46.5359 0.0 0.0
8.239 52.937 46.6891 0.0 0.0
8.3083 52.8407 46.7921 0.0 0.0
8.3905 52.7211 46.92 0.0 0.0
8.7141 52.2445 47.4307 0.0 0.0
8.826 52.0783 47.6092 0.0 0.0
8.9012 51.9631 47.733 0.0 0.0
8.9508 51.8836 47.8185 0.0 0.0
9.2806 51.348 48.3959 0.0 0.0
9.3895 51.1695 48.589 0.0 0.0
9.4651 51.0414 48.7275 0.0 0.0
9.5125 50.9579 48.818 0.0 0.0
9.8384 50.374 49.4519 0.0 0.0
9.9223 50.2223 49.617 0.0 0.0
9.9951 50.0861 49.7655 0.0 0.0
10.0373 50.0036 49.8555 0.0 0.0
10.3512 49.3827 50.5348 0.0 0.0
10.4554 49.1718 50.7662 0.0 0.0
10.5216 49.0315 50.9205 0.0 0.0
10.8172 48.3826 51.6362 0.0 0.0
10.9128 48.1674 51.8746 0.0 0.0
10.974 48.0225 52.0353 0.0 0.0
11.2363 47.3776 52.7531 0.0 0.0
11.3008 47.2169 52.9327 0.0 0.0
11.3529 47.082 53.0836 0.0 0.0
11.3879 46.9866 53.1905 0.0 0.0
11.6238 46.3285 53.9305 0.0 0.0
11.7008 46.1066 54.181 0.0 0.0
11.7489 45.9592 54.3479 0.0 0.0
11.9522 45.305 55.0916 0.0 0.0
12.0017 45.1427 55.2769 0.0 0.0
12.0437 44.9972 55.4433 0.0 0.0
12.0678 44.9078 55.5456 0.0 0.0
12.2371 44.2601 56.2909 0.0 0.0
12.2794 44.0931 56.4839 0.0 0.0
12.3139 43.9481 56.6519 0.0 0.0
12.3338 43.8579 56.7565 0.0 0.0
12.4712 43.2042 57.5184 0.0 0.0
12.5017 43.0527 57.696 0.0 0.0
12.5308 42.8954 57.8808 0.0 0.0
12.5455 42.8075 57.9841 0.0 0.0
12.6393 42.2056 58.6958 0.0 0.0
12.6675 42.0145 58.923 0.0 0.0
12.6852 41.8778 59.0859 0.0 0.0
12.6954 41.7863 59.1952 0.0 0.0
12.7537 41.1921 59.9086 0.0 0.0
12.7783 40.8987 60.2633 0.0 0.0
12.7874 40.7291 60.4693 0.0 0.0
12.8069 40.1715 61.1504 0.0 0.0
12.8115 39.99 61.3737 0.0 0.0
12.8122 39.8815 61.5075 0.0 0.0
12.8096 39.7239 61.7023 0.0 0.0
12.7913 39.1785 62.3812 0.0 0.0
12.7831 39.0046 62.5992 0.0 0.0
12.773 38.8583 62.7833 0.0 0.0
12.7657 38.7789 62.8833 0.0 0.0
12.7024 38.1987 63.62 0.0 0.0
12.6827 38.0422 63.8204 0.0 0.0
12.6682 37.9437 63.9471 0.0 0.0
12.6433 37.7996 64.1326 0.0 0.0
12.5339 37.2418 64.8572 0.0 0.0
12.4902 37.0467 65.113 0.0 0.0
12.4581 36.9204 65.2794 0.0 0.0
12.3106 36.4123 65.9544 0.0 0.0
12.2577 36.2432 66.181 0.0 0.0
12.2182 36.1269 66.3377 0.0 0.0
12.1883 36.0465 66.4463 0.0 0.0
11.9803 35.5269 67.1546 0.0 0.0
11.8964 35.3343 67.4203 0.0 0.0
11.8323 35.2021 67.6034 0.0 0.0
11.5831 34.73 68.265 0.0 0.0
11.5152 34.6086 68.4368 0.0 0.0
11.4547 34.5069 68.5815 0.0 0.0
11.4132 34.4414 68.675 0.0 0.0
11.1229 34.0102 69.2961 0.0 0.0
10.9762 33.8073 69.5919 0.0 0.0
10.8856 33.6929 69.7602 0.0 0.0
10.5667 33.3166 70.3189 0.0 0.0
10.398 33.1309 70.5984 0.0 0.0
10.3092 33.04 70.7359 0.0 0.0
9.9236 32.6743 71.2961 0.0 0.0
9.7377 32.5096 71.5518 0.0 0.0
9.6373 32.4266 71.6816 0.0 0.0
9.178 32.0758 72.2367 0.0 0.0
9.0535 31.9859 72.3809 0.0 0.0
8.9458 31.912 72.4997 0.0 0.0
8.3748 31.5586 73.0768 0.0 0.0
8.2476 31.4842 73.1998 0.0 0.0
8.1289 31.4184 73.3093 0.0 0.0
8.0535 31.379 73.3749 0.0 0.0
7.4958 31.1035 73.8401 0.0 0.0
7.2874 31.0075 74.0042 0.0 0.0
7.1504 30.9496 74.1038 0.0 0.0
6.5506 30.7148 74.5125 0.0 0.0
6.3356 30.6369 74.6498 0.0 0.0
6.1944 30.5896 74.7337 0.0 0.0
5.5639 30.3964 75.0794 0.0 0.0
5.306 30.3241 75.2104 0.0 0.0
5.1411 30.2827 75.2855 0.0 0.0
4.5159 30.1386 75.55 0.0 0.0
4.3512 30.1034 75.6152 0.0 0.0
4.2097 30.0753 75.6674 0.0 0.0
4.1152 30.0581 75.6994 0.0 0.0
3.4249 29.9443 75.9125 0.0 0.0
3.1513 29.9047 75.9873 0.0 0.0
2.9745 29.8831 76.0282 0.0 0.0
2.3381 29.8167 76.1544 0.0 0.0
2.1272 29.7975 76.1911 0.0 0.0
2.0047 29.788 76.2092 0.0 0.0
1.8135 29.7762 76.2318 0.0 0.0
1.2133 29.7478 76.2863 0.0 0.0
0.983 29.7395 76.3022 0.0 0.0
0.8279 29.7361 76.3089 0.0 0.0
0.7253 29.7354 76.3102 0.0 0.0
0.0585 29.7398 76.3018 0.0 0.0
-0.164 29.744 76.2937 0.0 0.0
-0.2764 29.7475 76.287 0.0 0.0
-0.4611 29.756 76.2704 0.0 0.0
-1.0823 29.7945 76.1968 0.0 0.0
-1.3048 29.811 76.1652 0.0 0.0
-1.4158 29.8207 76.1469 0.0 0.0
-1.5982 29.8394 76.1112 0.0 0.0
-2.2013 29.9114 75.9747 0.0 0.0
-2.431 29.9418 75.9172 0.0 0.0
-2.5849 29.9646 75.8744 0.0 0.0
-2.6782 29.98 75.8455 0.0 0.0
-3.3532 30.1019 75.618 0.0 0.0
-3.5197 30.1346 75.5573 0.0 0.0
-3.7532 30.1861 75.4626 0.0 0.0
-4.4093 30.3493 75.1645 0.0 0.0
-4.6711 30.4208 75.0355 0.0 0.0
-4.8301 30.4691 74.9486 0.0 0.0
-5.3731 30.6463 74.633 0.0 0.0
-5.6435 30.7416 74.4654 0.0 0.0
-5.7803 30.7938 74.3741 0.0 0.0
-6.3651 31.0372 73.9534 0.0 0.0
-6.5819 31.1341 73.7878 0.0 0.0
-6.7133 31.1981 73.6792 0.0 0.0
-7.2528 31.4802 73.2066 0.0 0.0
-7.3835 31.5524 73.0869 0.0 0.0
-7.5126 31.6279 72.9625 0.0 0.0
-8.0381 31.9669 72.4113 0.0 0.0
-8.1773 32.0621 72.2586 0.0 0.0
-8.2829 32.1382 72.1372 0.0 0.0
-8.7928 32.5454 71.4961 0.0 0.0
-7.9064 32.1107 72.181 0.0 0.0
-8.0135 32.1845 72.0636 0.0 0.0
-8.1727 32.302 71.8776 0.0 0.0
-8.6172 32.66 71.3182 0.0 0.0
-8.7323 32.758 71.1669 0.0 0.0
-8.8176 32.8344 71.0496 0.0 0.0
-9.2622 33.2753 70.3809 0.0 0.0
-9.367 33.3857 70.2155 0.0 0.0
-9.4415 33.4687 70.092 0.0 0.0
-9.8365 33.9571 69.3732 0.0 0.0
-9.9644 34.1283 69.1248 0.0 0.0
-10.0442 34.245 68.9564 0.0 0.0
-10.3249 34.6866 68.3262 0.0 0.0
-10.3947 34.8027 68.1623 0.0 0.0
-10.4556 34.9105 68.0108 0.0 0.0
-10.7322 35.4645 67.2404 0.0 0.0
-10.7918 35.5923 67.0648 0.0 0.0
-10.8392 35.7012 66.9157 0.0 0.0
-11.0509 36.2618 66.156 0.0 0.0
-11.1281 36.4886 65.8523 0.0 0.0
-11.1627 36.6017 65.7015 0.0 0.0
-11.3143 37.1677 64.9542 0.0 0.0
-11.3604 37.3602 64.7026 0.0 0.0
-11.3864 37.4845 64.5406 0.0 0.0
-11.4806 38.0215 63.847 0.0 0.0
-11.5106 38.2113 63.604 0.0 0.0
-11.5277 38.338 63.4424 0.0 0.0
-11.536 38.4133 63.3464 0.0 0.0
-11.5879 38.9742 62.6375 0.0 0.0
-11.6013 39.1472 62.4204 0.0 0.0
-11.6088 39.2754 62.26 0.0 0.0
-11.6114 39.3547 62.161 0.0 0.0
-11.622 39.9291 61.4488 0.0 0.0
-11.6223 40.1857 61.133 0.0 0.0
-11.6188 40.3209 60.9673 0.0 0.0
-11.588 40.9514 60.1995 0.0 0.0
-11.5776 41.1209 59.9946 0.0 0.0
-11.5589 41.3353 59.7361 0.0 0.0
-11.4883 41.9711 58.9747 0.0 0.0
-11.4698 42.1248 58.7918 0.0 0.0
-11.4509 42.2622 58.6286 0.0 0.0
-11.3297 42.9857 57.7746 0.0 0.0
-11.2836 43.2383 57.4785 0.0 0.0
-11.2499 43.3994 57.2903 0.0 0.0
-11.1092 44.0313 56.5554 0.0 0.0
-11.0569 44.2534 56.2986 0.0 0.0
-11.0221 44.389 56.1421 0.0 0.0
-10.8411 45.0516 55.381 0.0 0.0
-10.7984 45.2037 55.2072 0.0 0.0
-10.7579 45.341 55.0506 0.0 0.0
-10.7305 45.4278 54.9514 0.0 0.0
-10.5374 46.0257 54.2727 0.0 0.0
-10.4449 46.3041 53.9579 0.0 0.0
-10.3954 46.4439 53.8004 0.0 0.0
-10.1687 47.0539 53.1151 0.0 0.0
-10.0955 47.2486 52.8972 0.0 0.0
-10.0129 47.455 52.6667 0.0 0.0
-9.7526 48.0742 51.9779 0.0 0.0
-9.6782 48.2496 51.7835 0.0 0.0
-9.6151 48.3924 51.6254 0.0 0.0
-9.5793 48.4698 51.5398 0.0 0.0
-9.2891 49.0872 50.8593 0.0 0.0
-9.1879 49.2981 50.6275 0.0 0.0
-9.1222 49.4291 50.4839 0.0 0.0
-8.8264 49.9968 49.8628 0.0 0.0
-8.6932 50.2481 49.5889 0.0 0.0
-8.6219 50.3767 49.449 0.0 0.0
-8.2994 50.9365 48.8411 0.0 0.0
-8.1577 51.1789 48.5786 0.0 0.0
-8.0699 51.3206 48.4256 0.0 0.0
-7.7477 51.8278 47.8787 0.0 0.0
-7.5967 52.0621 47.6266 0.0 0.0
-7.5169 52.1787 47.5014 0.0 0.0
-7.1468 52.7066 46.9354 0.0 0.0
-7.0038 52.9071 46.7211 0.0 0.0
-6.9262 53.0093 46.612 0.0 0.0
-6.5627 53.4769 46.1133 0.0 0.0
-6.3888 53.6972 45.879 0.0 0.0
-6.3127 53.7872 45.7834 0.0 0.0
-5.9082 54.2543 45.2878 0.0 0.0
-5.8056 54.3718 45.1634 0.0 0.0
-5.7137 54.4726 45.0567 0.0 0.0
-5.2502 54.9492 44.5531 0.0 0.0
-5.1484 55.0519 44.4448 0.0 0.0
-5.057 55.1407 44.3513 0.0 0.0
-4.9983 55.1951 44.2939 0.0 0.0
-4.6047 55.55 43.9204 0.0 0.0
-4.4749 55.6652 43.7992 0.0 0.0
-4.3874 55.7396 43.7212 0.0 0.0
-4.3286 55.7868 43.6715 0.0 0.0
-3.9215 56.1039 43.339 0.0 0.0
-3.7877 56.2064 43.2315 0.0 0.0
-3.6854 56.2805 43.1538 0.0 0.0
-3.6294 56.3186 43.114 0.0 0.0
-3.2255 56.5839 42.8365 0.0 0.0
-3.0844 56.6745 42.7417 0.0 0.0
-2.9874 56.7331 42.6806 0.0 0.0
-2.9286 56.7658 42.6464 0.0 0.0
-2.4815 57.0048 42.397 0.0 0.0
-2.3725 57.0616 42.3378 0.0 0.0
-2.2978 57.0975 42.3004 0.0 0.0
-2.1852 57.1467 42.2492 0.0 0.0
-1.7548 57.3237 42.0646 0.0 0.0
-1.5879 57.3876 41.9981 0.0 0.0
-1.4675 57.4264 41.9577 0.0 0.0
-1.0369 57.5513 41.8278 0.0 0.0
-0.9201 57.5831 41.7947 0.0 0.0
-0.8261 57.6053 41.7717 0.0 0.0
-0.3328 57.6895 41.6842 0.0 0.0
-0.1882 57.7112 41.6615 0.0 0.0
-0.1233 57.7188 41.6537 0.0 0.0
-0.0044 57.7278 41.6444 0.0 0.0
0.4326 57.7469 41.6245 0.0 0.0
0.5468 57.7499 41.6214 0.0 0.0
0.6477 57.7487 41.6227 0.0 0.0
1.1353 57.7121 41.6606 0.0 0.0
1.2792 57.6984 41.6748 0.0 0.0
1.3853 57.6839 41.6899 0.0 0.0
1.9082 57.5797 41.7982 0.0 0.0
2.0145 57.5561 41.8228 0.0 0.0
2.1082 57.532 41.848 0.0 0.0
2.6011 57.3736 42.0127 0.0 0.0
2.7945 57.3064 42.0828 0.0 0.0
2.8935 57.2655 42.1253 0.0 0.0
3.3242 57.0732 42.3256 0.0 0.0
3.4585 57.0113 42.3903 0.0 0.0
3.5596 56.9605 42.4432 0.0 0.0
4.0341 56.6914 42.7241 0.0 0.0
4.2406 56.5689 42.8522 0.0 0.0
4.3437 56.5004 42.9238 0.0 0.0
4.7393 56.2268 43.2102 0.0 0.0
4.9222 56.0956 43.3476 0.0 0.0
5.016 56.0232 43.4235 0.0 0.0
5.4499 55.67 43.7942 0.0 0.0
5.5603 55.5787 43.8902 0.0 0.0
5.6556 55.4959 43.9773 0.0 0.0
6.1312 55.0507 44.4461 0.0 0.0
6.2809 54.9072 44.5975 0.0 0.0
6.3672 54.8181 44.6915 0.0 0.0
6.7584 54.4023 45.1312 0.0 0.0
6.9364 54.2094 45.3353 0.0 0.0
7.0206 54.1117 45.4389 0.0 0.0
7.3951 53.6653 45.913 0.0 0.0
7.5184 53.517 46.0706 0.0 0.0
7.5973 53.4188 46.1751 0.0 0.0
8.0039 52.8801 46.75 0.0 0.0
8.1329 52.7075 46.9346 0.0 0.0
8.1967 52.6189 47.0294 0.0 0.0
8.2765 52.5032 47.1534 0.0 0.0
8.6213 51.9972 47.6963 0.0 0.0
8.7106 51.8649 47.8386 0.0 0.0
8.828 51.6824 48.0351 0.0 0.0
9.1578 51.1482 48.612 0.0 0.0
9.2646 50.9732 48.8014 0.0 0.0
9.3807 50.7739 49.0174 0.0 0.0
9.7047 50.1944 49.6474 0.0 0.0
9.7885 50.043 49.8124 0.0 0.0
9.897 49.8375 50.0369 0.0 0.0
10.1805 49.2771 50.6506 0.0 0.0
10.3119 49.0117 50.9423 0.0 0.0
10.3728 48.8829 51.084 0.0 0.0
10.6395 48.2975 51.7304 0.0 0.0
10.7608 48.0251 52.0323 0.0 0.0
10.817 47.8918 52.1803 0.0 0.0
11.0771 47.2511 52.8944 0.0 0.0
11.167 47.0253 53.1471 0.0 0.0
11.2233 46.8741 53.3167 0.0 0.0
11.436 46.2789 53.9865 0.0 0.0
11.5327 45.9999 54.3019 0.0 0.0
11.577 45.8646 54.4551 0.0 0.0
11.7664 45.252 55.1521 0.0 0.0
11.8271 45.052 55.3806 0.0 0.0
11.867 44.9131 55.5396 0.0 0.0
12.0456 44.2274 56.3287 0.0 0.0
12.0979 44.0202 56.5682 0.0 0.0
12.1306 43.8815 56.729 0.0 0.0
12.2755 43.188 57.5374 0.0 0.0
12.3137 42.9973 57.7609 0.0 0.0
12.3412 42.8465 57.9384 0.0 0.0
12.4522 42.1264 58.7899 0.0 0.0
12.4738 41.9761 58.9687 0.0 0.0
12.4904 41.8456 59.1244 0.0 0.0
12.4995 41.7613 59.225 0.0 0.0
12.5561 41.1673 59.9386 0.0 0.0
12.579 40.8843 60.2808 0.0 0.0
12.5873 40.721 60.4791 0.0 0.0
12.605 40.1635 61.1603 0.0 0.0
12.6088 39.9846 61.3803 0.0 0.0
12.6092 39.8848 61.5034 0.0 0.0
12.6062 39.7319 61.6923 0.0 0.0
12.5861 39.1865 62.3712 0.0 0.0
12.5774 39.0157 62.5853 0.0 0.0
12.5672 38.8755 62.7615 0.0 0.0
12.4953 38.2252 63.5863 0.0 0.0
12.475 38.0687 63.7866 0.0 0.0
12.4614 37.9778 63.9033 0.0 0.0
12.4369 37.8383 64.0827 0.0 0.0
12.3264 37.2847 64.8011 0.0 0.0
12.282 37.0895 65.0568 0.0 0.0
12.2519 36.9733 65.2095 0.0 0.0
12.1026 36.465 65.8839 0.0 0.0
12.0499 36.2986 66.1066 0.0 0.0
12.0116 36.1868 66.2569 0.0 0.0
11.9839 36.1127 66.3568 0.0 0.0
11.7752 35.5951 67.061 0.0 0.0
11.6933 35.4083 67.318 0.0 0.0
11.6311 35.281 67.494 0.0 0.0
11.3816 34.8107 68.1511 0.0 0.0
11.3133 34.6892 68.3226 0.0 0.0
11.2553 34.5921 68.4604 0.0 0.0
11.2169 34.5318 68.5461 0.0 0.0
10.9056 34.0717 69.2066 0.0 0.0
10.7835 33.9041 69.4505 0.0 0.0
10.696 33.7939 69.6118 0.0 0.0
10.3427 33.3789 70.2257 0.0 0.0
10.2101 33.234 70.4428 0.0 0.0
10.1284 33.1503 70.5689 0.0 0.0
9.7041 32.7491 71.1807 0.0 0.0
9.5595 32.6217 71.3776 0.0 0.0
9.467 32.5453 71.4963 0.0 0.0
9.01 32.1953 72.0463 0.0 0.0
8.8855 32.1051 72.1898 0.0 0.0
8.7828 32.0344 72.3029 0.0 0.0
8.2198 31.6846 72.8694 0.0 0.0
8.0927 31.61 72.9919 0.0 0.0
7.9794 31.547 73.096 0.0 0.0
7.356 31.2353 73.6166 0.0 0.0
7.2244 31.1734 73.7211 0.0 0.0
7.0933 31.1154 73.8199 0.0 0.0
6.4815 30.8716 74.2389 0.0 0.0
6.2152 30.7737 74.4094 0.0 0.0
6.0859 30.7297 74.4863 0.0 0.0
5.4976 30.5476 74.8083 0.0 0.0
5.2112 30.466 74.9541 0.0 0.0
5.0525 30.4257 75.0266 0.0 0.0
4.433 30.2815 75.2879 0.0 0.0
4.2689 30.246 75.3526 0.0 0.0
4.1339 30.2191 75.4019 0.0 0.0
3.3634 30.0891 75.6416 0.0 0.0
3.0994 30.0504 75.7137 0.0 0.0
2.9294 30.0295 75.7528 0.0 0.0
2.2957 29.9626 75.878 0.0 0.0
2.0892 29.9435 75.9141 0.0 0.0
1.977 29.9347 75.9305 0.0 0.0
1.7918 29.9231 75.9525 0.0 0.0
1.1942 29.8945 76.0066 0.0 0.0
0.9682 29.8863 76.022 0.0 0.0
0.8205 29.883 76.0282 0.0 0.0
0.7266 29.8824 76.0293 0.0 0.0
0.0203 29.8874 76.0199 0.0 0.0
-0.2581 29.8943 76.007 0.0 0.0
-0.4361 29.9026 75.9912 0.0 0.0
-1.0545 29.9413 75.918 0.0 0.0
-1.2724 29.9577 75.8874 0.0 0.0
-1.3742 29.9666 75.8704 0.0 0.0
-1.5498 29.985 75.8361 0.0 0.0
-2.1884 30.0622 75.6917 0.0 0.0
-2.3757 30.0875 75.6448 0.0 0.0
-2.5224 30.1095 75.604 0.0 0.0
-3.2356 30.2379 75.3675 0.0 0.0
-3.5231 30.2957 75.2618 0.0 0.0
-3.6617 30.3274 75.2041 0.0 0.0
-4.2729 30.4805 74.9281 0.0 0.0
-4.565 30.5605 74.7853 0.0 0.0
-4.7182 30.6072 74.7022 0.0 0.0
-5.2597 30.7855 74.3888 0.0 0.0
-5.5249 30.8797 74.2248 0.0 0.0
-5.6504 30.9279 74.1413 0.0 0.0
-6.1987 31.1572 73.7488 0.0 0.0
-6.4414 31.2657 73.5652 0.0 0.0
-6.567 31.3272 73.4617 0.0 0.0
-7.1029 31.6088 72.9941 0.0 0.0
-7.2334 31.6813 72.875 0.0 0.0
-7.3567 31.7538 72.7563 0.0 0.0
-7.9064 32.1107 72.181 0.0 0.0
-6.9539 31.7385 72.7814 0.0 0.0
-7.0843 31.8113 72.6629 0.0 0.0
-7.2021 31.8809 72.55 0.0 0.0
-7.7435 32.2339 71.9852 0.0 0.0
-7.8506 32.3079 71.8682 0.0 0.0
-7.9471 32.3779 71.7579 0.0 0.0
-8.4425 32.7755 71.1399 0.0 0.0
-8.5577 32.8738 70.9892 0.0 0.0
-8.6875 32.9923 70.8085 0.0 0.0
-9.0565 33.36 70.2539 0.0 0.0
-9.1826 33.4926 70.0564 0.0 0.0
-9.2536 33.5714 69.9396 0.0 0.0
-9.6442 34.054 69.2325 0.0 0.0
-9.7269 34.1626 69.0752 0.0 0.0
-9.8458 34.3326 68.8305 0.0 0.0
-10.1264 34.7727 68.2047 0.0 0.0
-10.1966 34.8889 68.0411 0.0 0.0
-10.2548 34.9914 67.8972 0.0 0.0
-10.5293 35.5384 67.1388 0.0 0.0
-10.5893 35.6663 66.9634 0.0 0.0
-10.6348 35.7704 66.8214 0.0 0.0
-10.8461 36.3254 66.0707 0.0 0.0
-10.9227 36.548 65.773 0.0 0.0
-10.9546 36.6515 65.6354 0.0 0.0
-11.1071 37.2136 64.8941 0.0 0.0
-11.1539 37.4061 64.6426 0.0 0.0
-11.178 37.5199 64.4947 0.0 0.0
-11.2793 38.0869 63.7631 0.0 0.0
-11.3045 38.244 63.5621 0.0 0.0
-11.3211 38.3646 63.4085 0.0 0.0
-11.3855 39.0253 62.5731 0.0 0.0
-11.3967 39.1645 62.3986 0.0 0.0
-11.4068 39.3594 62.1551 0.0 0.0
-11.4193 39.9338 61.4428 0.0 0.0
-11.4203 40.1858 61.1329 0.0 0.0
-11.4176 40.3094 60.9814 0.0 0.0
-11.3889 40.9364 60.2176 0.0 0.0
-11.379 41.1058 60.0126 0.0 0.0
-11.3689 41.2369 59.8546 0.0 0.0
-11.2937 41.9395 59.0124 0.0 0.0
-11.2757 42.0931 58.8294 0.0 0.0
-11.2579 42.2236 58.6743 0.0 0.0
-11.1463 42.9019 57.8731 0.0 0.0
-11.0966 43.1814 57.5451 0.0 0.0
-11.0644 43.3367 57.3635 0.0 0.0
-10.9378 43.9117 56.6941 0.0 0.0
-10.8743 44.1853 56.3772 0.0 0.0
-10.843 44.3091 56.2342 0.0 0.0
-10.6749 44.9291 55.5213 0.0 0.0
-10.622 45.1195 55.3033 0.0 0.0
-10.5586 45.33 55.0631 0.0 0.0
-10.3506 45.9765 54.3284 0.0 0.0
-10.276 46.2008 54.0747 0.0 0.0
-10.2311 46.3284 53.9307 0.0 0.0
-10.0052 46.9377 53.2453 0.0 0.0
-9.9335 47.1289 53.0312 0.0 0.0
-9.8973 47.2217 52.9273 0.0 0.0
-9.8342 47.3754 52.7556 0.0 0.0
-9.5985 47.937 52.1302 0.0 0.0
-9.5243 48.1121 51.9358 0.0 0.0
-9.4641 48.2482 51.7849 0.0 0.0
-9.1657 48.8846 51.0821 0.0 0.0
-9.0428 49.1414 50.7997 0.0 0.0
-8.9829 49.2607 50.6687 0.0 0.0
-8.6635 49.873 49.998 0.0 0.0
-8.5568 50.0738 49.779 0.0 0.0
-8.4915 50.1909 49.6512 0.0 0.0
-8.1518 50.7802 49.0106 0.0 0.0
-8.0332 50.982 48.7918 0.0 0.0
-7.9489 51.1178 48.6448 0.0 0.0
-7.6079 51.6532 48.0667 0.0 0.0
-7.4813 51.8486 47.8561 0.0 0.0
-7.4051 51.9596 47.7367 0.0 0.0
-7.0365 52.4835 47.1744 0.0 0.0
-6.898 52.6773 46.9668 0.0 0.0
-6.824 52.7743 46.863 0.0 0.0
-6.4601 53.2405 46.3653 0.0 0.0
-6.2925 53.452 46.1398 0.0 0.0
-6.2202 53.5371 46.0494 0.0 0.0
-5.817 54.0004 45.557 0.0 0.0
-5.6654 54.1712 45.3758 0.0 0.0
-5.5825 54.2586 45.2832 0.0 0.0
-5.1939 54.6553 44.8635 0.0 0.0
-5.067 54.7829 44.7287 0.0 0.0
-4.9253 54.9173 44.5868 0.0 0.0
-4.531 55.2707 44.2142 0.0 0.0
-4.4031 55.3836 44.0954 0.0 0.0
-4.2656 55.4972 43.9759 0.0 0.0
-3.8576 55.8128 43.6443 0.0 0.0
-3.7254 55.9132 43.5389 0.0 0.0
-3.6274 55.9837 43.4649 0.0 0.0
-3.1713 56.2821 43.1523 0.0 0.0
-3.0321 56.3709 43.0593 0.0 0.0
-2.8855 56.4563 42.9699 0.0 0.0
-2.4392 56.6929 42.7226 0.0 0.0
-2.33 56.7494 42.6636 0.0 0.0
-2.2616 56.782 42.6294 0.0 0.0
-2.1521 56.8296 42.5798 0.0 0.0
-1.7485 56.9944 42.4078 0.0 0.0
-1.5607 57.0661 42.3331 0.0 0.0
-1.4443 57.1036 42.294 0.0 0.0
-1.0391 57.2203 42.1724 0.0 0.0
-0.8977 57.2586 42.1325 0.0 0.0
-0.8082 57.2794 42.1108 0.0 0.0
-0.292 57.3666 42.02 0.0 0.0
-0.1165 57.3905 41.9951 0.0 0.0
-0.0015 57.3991 41.9861 0.0 0.0
0.4345 57.4181 41.9664 0.0 0.0
0.549 57.4211 41.9634 0.0 0.0
0.6457 57.4198 41.9647 0.0 0.0
1.1554 57.3817 42.0042 0.0 0.0
1.2716 57.3706 42.0158 0.0 0.0
1.424 57.3476 42.0397 0.0 0.0
1.863 57.26 42.1311 0.0 0.0
1.9965 57.2307 42.1615 0.0 0.0
2.1394 57.1921 42.2018 0.0 0.0
2.5753 57.0522 42.3476 0.0 0.0
2.7619 56.9879 42.4147 0.0 0.0
2.8565 56.949 42.4552 0.0 0.0
3.2883 56.7578 42.6548 0.0 0.0
3.4207 56.6972 42.7182 0.0 0.0
3.5171 56.649 42.7685 0.0 0.0
3.9882 56.384 43.0457 0.0 0.0
4.1873 56.2667 43.1684 0.0 0.0
4.2868 56.2012 43.237 0.0 0.0
4.7171 55.9054 43.5472 0.0 0.0
4.8635 55.8007 43.657 0.0 0.0
4.9494 55.7349 43.7261 0.0 0.0
5.3823 55.3848 44.0941 0.0 0.0
5.493 55.2939 44.1897 0.0 0.0
5.5838 55.2153 44.2726 0.0 0.0
6.0538 54.7782 44.7336 0.0 0.0
6.1989 54.6396 44.8801 0.0 0.0
6.2812 54.5555 44.9689 0.0 0.0
6.6731 54.1413 45.4075 0.0 0.0
6.8447 53.956 45.6042 0.0 0.0
6.9251 53.8635 45.7023 0.0 0.0
7.3001 53.4186 46.1755 0.0 0.0
7.4215 53.2734 46.3301 0.0 0.0
7.4965 53.18 46.4297 0.0 0.0
7.9195 52.6219 47.0263 0.0 0.0
8.0264 52.4792 47.179 0.0 0.0
8.0848 52.3986 47.2653 0.0 0.0
8.1623 52.2868 47.3854 0.0 0.0
8.5054 51.785 47.9248 0.0 0.0
8.5947 51.653 48.0669 0.0 0.0
8.7046 51.4823 48.251 0.0 0.0
9.0551 50.9159 48.8635 0.0 0.0
9.1392 50.7782 49.0126 0.0 0.0
9.2086 50.6611 49.1399 0.0 0.0
9.5523 50.0482 49.8068 0.0 0.0
9.6541 49.865 50.0069 0.0 0.0
9.7559 49.6721 50.2176 0.0 0.0
10.0642 49.0628 50.886 0.0 0.0
10.1681 48.8527 51.1173 0.0 0.0
10.2235 48.7352 51.2469 0.0 0.0
10.4896 48.1506 51.8931 0.0 0.0
10.6084 47.8837 52.1894 0.0 0.0
10.6595 47.7622 52.3244 0.0 0.0
10.9174 47.1259 53.0346 0.0 0.0
10.9814 46.9655 53.2141 0.0 0.0
11.058 46.7625 53.442 0.0 0.0
11.2697 46.1679 54.1119 0.0 0.0
11.3643 45.8941 54.4218 0.0 0.0
11.4045 45.7706 54.5617 0.0 0.0
11.6034 45.124 55.2983 0.0 0.0
11.6522 44.9619 55.4837 0.0 0.0
11.6898 44.8298 55.6351 0.0 0.0
11.8744 44.115 56.4586 0.0 0.0
11.916 43.9482 56.6517 0.0 0.0
11.9631 43.7402 56.8933 0.0 0.0
12.0886 43.1298 57.6057 0.0 0.0
12.1255 42.9426 57.8253 0.0 0.0
12.1514 42.7984 57.995 0.0 0.0
12.2538 42.1232 58.7937 0.0 0.0
12.2799 41.9385 59.0135 0.0 0.0
12.3035 41.7372 59.2539 0.0 0.0
12.3613 41.1088 60.009 0.0 0.0
12.3795 40.8709 60.2971 0.0 0.0
12.3872 40.7137 60.488 0.0 0.0
12.4037 40.1285 61.2032 0.0 0.0
12.4064 39.98 61.3859 0.0 0.0
12.4044 39.7907 61.6197 0.0 0.0
12.3793 39.1627 62.401 0.0 0.0
12.3719 39.0276 62.5704 0.0 0.0
12.355 38.8267 62.8231 0.0 0.0
12.2923 38.2839 63.5114 0.0 0.0
12.2675 38.0956 63.752 0.0 0.0
12.2548 38.0126 63.8584 0.0 0.0
12.2307 37.8778 64.0319 0.0 0.0
12.1294 37.3753 64.6828 0.0 0.0
12.0739 37.133 64.9997 0.0 0.0
12.0461 37.0269 65.1391 0.0 0.0
11.8856 36.4875 65.8537 0.0 0.0
11.8429 36.3549 66.0311 0.0 0.0
11.8056 36.2474 66.1755 0.0 0.0
11.5706 35.6643 66.9662 0.0 0.0
11.4907 35.4832 67.2149 0.0 0.0
11.4306 35.3607 67.3838 0.0 0.0
11.1808 34.8922 68.0364 0.0 0.0
11.1122 34.7706 68.2075 0.0 0.0
11.0216 34.6231 68.4163 0.0 0.0
10.7288 34.1907 69.0346 0.0 0.0
10.5919 34.002 69.308 0.0 0.0
10.5073 33.8956 69.463 0.0 0.0
10.156 33.4833 70.0702 0.0 0.0
10.0231 33.3381 70.2867 0.0 0.0
9.9482 33.2616 70.4015 0.0 0.0
9.5268 32.8624 71.0067 0.0 0.0
9.3819 32.7347 71.2029 0.0 0.0
9.2976 32.6647 71.3108 0.0 0.0
8.8688 32.335 71.8255 0.0 0.0
8.7183 32.2253 71.9989 0.0 0.0
8.6208 32.158 72.1056 0.0 0.0
8.0658 31.8118 72.662 0.0 0.0
7.9388 31.737 72.7839 0.0 0.0
7.7679 31.6434 72.937 0.0 0.0
7.2466 31.3825 73.3692 0.0 0.0
7.0221 31.2773 73.5457 0.0 0.0
6.8977 31.224 73.6357 0.0 0.0
6.3097 30.9903 74.0338 0.0 0.0
6.0957 30.9116 74.1695 0.0 0.0
5.9779 30.8714 74.2391 0.0 0.0
5.3574 30.6781 74.5771 0.0 0.0
5.1172 30.6095 74.6984 0.0 0.0
4.9647 30.5703 74.7678 0.0 0.0
4.3865 30.434 75.0115 0.0 0.0
4.187 30.3903 75.0903 0.0 0.0
4.0591 30.3644 75.137 0.0 0.0
3.3397 30.2417 75.3605 0.0 0.0
3.0476 30.1978 75.4409 0.0 0.0
2.8848 30.1775 75.4782 0.0 0.0
2.2167 30.1065 75.6095 0.0 0.0
2.0515 30.0912 75.6379 0.0 0.0
1.9497 30.0832 75.6528 0.0 0.0
1.7703 30.0719 75.6738 0.0 0.0
1.1404 30.0415 75.7302 0.0 0.0
0.9537 30.0349 75.7428 0.0 0.0
0.8134 30.0318 75.7485 0.0 0.0
0.0672 30.0357 75.7412 0.0 0.0
-0.2397 30.0428 75.7278 0.0 0.0
-0.4112 30.0509 75.7128 0.0 0.0
-1.0636 30.0924 75.6355 0.0 0.0
-1.3329 30.1143 75.5949 0.0 0.0
-1.5019 30.1321 75.5621 0.0 0.0
-2.1346 30.2095 75.4194 0.0 0.0
-2.3212 30.2349 75.3729 0.0 0.0
-2.5379 30.2692 75.3103 0.0 0.0
-3.1633 30.3841 75.1015 0.0 0.0
-3.4396 30.4401 75.0006 0.0 0.0
-3.5708 30.4705 74.946 0.0 0.0
-4.2157 30.6338 74.6552 0.0 0.0
-4.4598 30.7015 74.5359 0.0 0.0
-4.6073 30.747 74.456 0.0 0.0
-5.1956 30.9429 74.1155 0.0 0.0
-5.4071 31.0191 73.9844 0.0 0.0
-5.5213 31.0633 73.9086 0.0 0.0
-6.0982 31.3065 73.4965 0.0 0.0
-6.2362 31.3681 73.3933 0.0 0.0
-6.3626 31.4281 73.2932 0.0 0.0
-6.9539 31.7385 72.7814 0.0 0.0
-6.2884 32.0724 72.2422 0.0 0.0
-5.6341 32.4171 71.6963 0.0 0.0
-4.9903 32.7731 71.1436 0.0 0.0
-3.9714 33.1677 70.5428 0.0 0.0
-2.9709 33.5825 69.923 0.0 0.0
-1.9888 34.0181 69.2845 0.0 0.0
-1.0256 34.4745 68.6277 0.0 0.0
-0.081 34.9514 67.9533 0.0 0.0
0.845 35.4496 67.2611 0.0 0.0
1.7525 35.9688 66.5516 0.0 0.0
2.6415 36.509 65.8252 0.0 0.0
3.5125 37.0707 65.0816 0.0 0.0
4.3652 37.6536 64.3212 0.0 0.0
5.2 38.2584 63.5439 0.0 0.0
6.017 38.8849 62.7496 0.0 0.0
6.8166 39.5333 61.9387 0.0 0.0
7.599 40.2041 61.1105 0.0 0.0
8.3647 40.8974 60.2649 0.0 0.0
9.1135 41.6133 59.4021 0.0 0.0
9.8459 42.3527 58.5213 0.0 0.0
9.705 43.1558 57.5752 0.0 0.0
9.5191 43.958 56.6403 0.0 0.0
9.2901 44.7575 55.7182 0.0 0.0
9.0221 45.5454 54.8177 0.0 0.0
8.7149 46.327 53.9321 0.0 0.0
8.3725 47.0878 53.077 0.0 0.0
7.9976 47.8266 52.2527 0.0 0.0
7.5918 48.5405 51.4617 0.0 0.0
7.1582 49.2237 50.7093 0.0 0.0
6.6984 49.8727 49.9983 0.0 0.0
6.2158 50.4825 49.3338 0.0 0.0
5.7112 51.05 48.7181 0.0 0.0
5.1881 51.5706 48.1557 0.0 0.0
4.6473 52.0412 47.6492 0.0 0.0
4.093 52.4574 47.2023 0.0 0.0
3.5255 52.8164 46.818 0.0 0.0
2.9479 53.1164 46.4977 0.0 0.0
2.361 53.3543 46.2439 0.0 0.0
1.769 53.5281 46.0588 0.0 0.0
1.1716 53.637 45.943 0.0 0.0
0.5725 53.6789 45.8985 0.0 0.0
0.2722 53.6655 45.9128 0.0 0.0
-0.0271 53.6545 45.9244 0.0 0.0
-0.6246 53.5637 46.021 0.0 0.0
-1.2166 53.4076 46.1873 0.0 0.0
-1.8071 53.1869 46.4224 0.0 0.0
-2.3884 52.9031 46.7253 0.0 0.0
-2.9574 52.5593 47.0933 0.0 0.0
-3.5163 52.1573 47.5243 0.0 0.0
-4.0604 51.7014 48.0147 0.0 0.0
-4.5879 51.1947 48.5617 0.0 0.0
-5.098 50.6392 49.1637 0.0 0.0
-5.5871 50.0394 49.8163 0.0 0.0
-6.053 49.4008 50.5149 0.0 0.0
-6.4939 48.7261 51.2569 0.0 0.0
-6.9072 48.021 52.0369 0.0 0.0
-7.2907 47.2876 52.8536 0.0 0.0
-7.6418 46.5324 53.7007 0.0 0.0
-7.958 45.7588 54.5751 0.0 0.0
-8.2374 44.9707 55.4737 0.0 0.0
-8.4773 44.1732 56.3913 0.0 0.0
-8.675 43.3707 57.3238 0.0 0.0
-8.8282 42.5677 58.2668 0.0 0.0
-8.9347 41.7682 59.2168 0.0 0.0
-8.9923 40.9759 60.1698 0.0 0.0
-8.9988 40.1956 61.121 0.0 0.0
-8.952 39.4309 62.0661 0.0 0.0
-8.8506 38.686 63.0007 0.0 0.0
-8.6931 37.9655 63.919 0.0 0.0
-8.4779 37.272 64.8177 0.0 0.0
-8.2049 36.6097 65.6911 0.0 0.0
-7.8725 35.9813 66.5346 0.0 0.0
-7.4824 35.3908 67.3422 0.0 0.0
-7.0344 34.8408 68.1088 0.0 0.0
-6.5299 34.3324 68.8308 0.0 0.0
-5.9706 33.8693 69.5014 0.0 0.0
-5.3607 33.4534 70.1146 0.0 0.0
-4.7025 33.0855 70.667 0.0 0.0
-4.001 32.7678 71.1518 0.0 0.0
-3.2579 32.4992 71.5679 0.0 0.0
-2.4878 32.2848 71.9047 0.0 0.0
-1.6876 32.1207 72.1649 0.0 0.0
-0.8694 32.0088 72.3441 0.0 0.0
-0.0373 31.9493 72.4397 0.0 0.0
0.7981 31.9423 72.451 0.0 0.0
1.6314 31.9875 72.3781 0.0 0.0
2.4553 32.0857 72.2209 0.0 0.0
3.261 32.2358 71.9822 0.0 0.0
4.0414 32.4376 71.6642 0.0 0.0
4.7904 32.6914 71.2696 0.0 0.0
5.5034 32.9958 70.8032 0.0 0.0
6.1728 33.3499 70.2689 0.0 0.0
6.7968 33.7534 69.671 0.0 0.0
7.3692 34.2038 69.0157 0.0 0.0
7.8888 34.7 68.3072 0.0 0.0
8.3522 35.2395 67.5515 0.0 0.0
8.7583 35.8193 66.7547 0.0 0.0
9.1056 36.4375 65.9205 0.0 0.0
9.3949 37.0914 65.0543 0.0 0.0
9.6258 37.7772 64.1615 0.0 0.0
9.7991 38.4908 63.2479 0.0 0.0
9.9148 39.2288 62.3182 0.0 0.0
9.9759 39.9888 61.3753 0.0 0.0
9.9837 40.7657 60.4248 0.0 0.0
9.9398 41.5543 59.473 0.0 0.0
9.8459 42.3527 58.5213 0.0 0.0
9.8167 41.918 59.038 0.0 0.0
9.9232 42.3688 58.5021 0.0 0.0
10.0384 42.3926 58.474 0.0 0.0
9.8924 43.2128 57.5083 0.0 0.0
9.7006 44.0325 56.554 0.0 0.0
9.465 44.8491 55.6129 0.0 0.0
9.1901 45.6543 54.6939 0.0 0.0
8.875 46.4531 53.79 0.0 0.0
8.5246 47.2312 52.9167 0.0 0.0
8.1412 47.9865 52.0753 0.0 0.0
7.7265 48.7166 51.2674 0.0 0.0
7.2838 49.4156 50.4987 0.0 0.0
6.8145 50.0796 49.7726 0.0 0.0
6.3221 50.7038 49.0935 0.0 0.0
5.8074 51.2848 48.4642 0.0 0.0
5.2742 51.8178 47.8894 0.0 0.0
4.7232 52.2997 47.3715 0.0 0.0
4.1584 52.7263 46.9143 0.0 0.0
3.5804 53.0941 46.5214 0.0 0.0
2.9922 53.4017 46.1936 0.0 0.0
2.3947 53.6455 45.9339 0.0 0.0
1.7921 53.8237 45.7445 0.0 0.0
1.1837 53.9352 45.6262 0.0 0.0
0.5738 53.9781 45.5806 0.0 0.0
0.2683 53.9645 45.595 0.0 0.0
-0.0365 53.9532 45.607 0.0 0.0
-0.6447 53.8601 45.7059 0.0 0.0
-1.2474 53.7001 45.876 0.0 0.0
-1.8485 53.4737 46.1168 0.0 0.0
-2.4404 53.1831 46.4264 0.0 0.0
-3.0201 52.8307 46.8027 0.0 0.0
-3.5895 52.4189 47.2436 0.0 0.0
-4.1437 51.9518 47.7451 0.0 0.0
-4.6815 51.4327 48.3046 0.0 0.0
-5.2015 50.8641 48.9196 0.0 0.0
-5.7004 50.2502 49.5866 0.0 0.0
-6.176 49.5966 50.3004 0.0 0.0
-6.6262 48.9063 51.0582 0.0 0.0
-7.0484 48.1853 51.8548 0.0 0.0
-7.4406 47.4352 52.6889 0.0 0.0
-7.7998 46.6632 53.5535 0.0 0.0
-8.1239 45.8725 54.4461 0.0 0.0
-8.4106 45.067 55.3634 0.0 0.0
-8.6572 44.2522 56.2999 0.0 0.0
-8.8607 43.4324 57.2518 0.0 0.0
-9.0194 42.6122 58.2143 0.0 0.0
-9.1304 41.7956 59.184 0.0 0.0
-9.1916 40.9866 60.157 0.0 0.0
-9.2009 40.1898 61.1279 0.0 0.0
-9.1558 39.4092 62.093 0.0 0.0
-9.0547 38.6488 63.0476 0.0 0.0
-8.8963 37.9135 63.9859 0.0 0.0
-8.6791 37.206 64.904 0.0 0.0
-8.4023 36.5301 65.7971 0.0 0.0
-8.0649 35.8892 66.6596 0.0 0.0
-7.668 35.287 67.4858 0.0 0.0
-7.2115 34.7261 68.2705 0.0 0.0
-6.697 34.2079 69.0098 0.0 0.0
-6.126 33.7361 69.6965 0.0 0.0
-5.5028 33.3124 70.3252 0.0 0.0
-4.8298 32.9379 70.8914 0.0 0.0
-4.1121 32.6143 71.3889 0.0 0.0
-3.3512 32.341 71.8159 0.0 0.0
-2.5623 32.123 72.1613 0.0 0.0
-1.7424 31.9561 72.4287 0.0 0.0
-0.9036 31.8423 72.6126 0.0 0.0
-0.0508 31.7818 72.7109 0.0 0.0
0.8057 31.7747 72.7223 0.0 0.0
1.6601 31.8207 72.6476 0.0 0.0
2.5047 31.9204 72.4862 0.0 0.0
3.3303 32.0731 72.2411 0.0 0.0
4.1297 32.2783 71.9147 0.0 0.0
4.8969 32.5367 71.5097 0.0 0.0
5.6265 32.8464 71.0313 0.0 0.0
6.3111 33.2071 70.4833 0.0 0.0
6.9489 33.618 69.8705 0.0 0.0
7.5334 34.0769 69.1993 0.0 0.0
8.0636 34.5827 68.4737 0.0 0.0
8.5357 35.1327 67.7001 0.0 0.0
8.9488 35.7238 66.8849 0.0 0.0
9.3018 36.3545 66.0317 0.0 0.0
9.5951 37.0216 65.146 0.0 0.0
9.8286 37.7213 64.2338 0.0 0.0
10.0031 38.4496 63.3003 0.0 0.0
10.1188 39.2031 62.3503 0.0 0.0
10.1785 39.9788 61.3875 0.0 0.0
10.184 40.7718 60.4173 0.0 0.0
10.1366 41.5772 59.4455 0.0 0.0
10.0384 42.3926 58.474 0.0 0.0
9.9232 42.3688 58.5021 0.0 0.0
9.8167 41.918 59.038 0.0 0.0
9.6724 42.3175 58.5631 0.0 0.0
9.5362 43.105 57.6347 0.0 0.0
9.3555 43.8913 56.7178 0.0 0.0
9.1331 44.6724 55.8158 0.0 0.0
8.8717 45.4446 54.9324 0.0 0.0
8.5702 46.2141 54.0596 0.0 0.0
8.2351 46.9595 53.2209 0.0 0.0
7.8677 47.6838 52.4117 0.0 0.0
7.47 48.383 51.6358 0.0 0.0
7.0452 49.0516 50.8983 0.0 0.0
6.5936 49.6871 50.2013 0.0 0.0
6.1196 50.2847 49.5491 0.0 0.0
5.6239 50.8398 48.9459 0.0 0.0
5.1098 51.3493 48.3947 0.0 0.0
4.5787 51.8097 47.8982 0.0 0.0
4.0338 52.2171 47.4602 0.0 0.0
3.4756 52.568 47.0839 0.0 0.0
2.9078 52.8609 46.7704 0.0 0.0
2.3306 53.0937 46.5219 0.0 0.0
1.7484 53.264 46.3402 0.0 0.0
1.1604 53.3703 46.2269 0.0 0.0
0.5711 53.4108 46.1837 0.0 0.0
0.2758 53.3978 46.1975 0.0 0.0
-0.0189 53.3872 46.2089 0.0 0.0
-0.6061 53.2984 46.3034 0.0 0.0
-1.1885 53.1458 46.4663 0.0 0.0
-1.7695 52.9301 46.6965 0.0 0.0
-2.342 52.6528 46.993 0.0 0.0
-2.9004 52.3167 47.3532 0.0 0.0
-3.4504 51.9232 47.776 0.0 0.0
-3.9848 51.4777 48.256 0.0 0.0
-4.503 50.9812 48.7926 0.0 0.0
-5.0033 50.4389 49.3814 0.0 0.0
-5.4844 49.8511 50.022 0.0 0.0
-5.9418 49.2255 50.7072 0.0 0.0
-6.3746 48.5644 51.4353 0.0 0.0
-6.7793 47.8747 52.1994 0.0 0.0
-7.1555 47.1555 53.0014 0.0 0.0
-7.4989 46.4158 53.832 0.0 0.0
-7.8082 45.6576 54.6901 0.0 0.0
-8.0812 44.8846 55.5724 0.0 0.0
-8.315 44.1026 56.4728 0.0 0.0
-8.5071 43.3157 57.388 0.0 0.0
-8.6557 42.5284 58.3132 0.0 0.0
-8.7582 41.7441 59.2457 0.0 0.0
-8.8124 40.9674 60.18 0.0 0.0
-8.8169 40.2014 61.1136 0.0 0.0
-8.7689 39.4505 62.0417 0.0 0.0
-8.6675 38.7203 62.9573 0.0 0.0
-8.5103 38.0129 63.8582 0.0 0.0
-8.2973 37.3323 64.7389 0.0 0.0
-8.0278 36.6823 65.5944 0.0 0.0
-7.6999 36.0653 66.421 0.0 0.0
-7.3158 35.485 67.2122 0.0 0.0
-6.8753 34.9449 67.9624 0.0 0.0
-6.3802 34.4455 68.669 0.0 0.0
-5.8308 33.9903 69.325 0.0 0.0
-5.233 33.5811 69.9252 0.0 0.0
-4.5884 33.2194 70.4647 0.0 0.0
-3.9018 32.907 70.9384 0.0 0.0
-3.1713 32.6413 71.347 0.0 0.0
-2.4213 32.4321 71.673 0.0 0.0
-1.6379 32.2702 71.9276 0.0 0.0
-0.8388 32.16 72.1024 0.0 0.0
-0.0253 32.1014 72.1958 0.0 0.0
0.7907 32.0946 72.2066 0.0 0.0
1.6051 32.1389 72.1359 0.0 0.0
2.4112 32.2355 71.9825 0.0 0.0
3.1991 32.3835 71.7491 0.0 0.0
3.962 32.5819 71.4392 0.0 0.0
4.6948 32.8318 71.0536 0.0 0.0
5.3934 33.1311 70.5979 0.0 0.0
6.0485 33.4794 70.076 0.0 0.0
6.6602 33.8759 69.4916 0.0 0.0
7.222 34.3187 68.8506 0.0 0.0
7.7322 34.806 68.1576 0.0 0.0
8.1878 35.3365 67.4171 0.0 0.0
8.5871 35.9054 66.6375 0.0 0.0
8.9295 36.5129 65.8199 0.0 0.0
9.2149 37.1548 64.9712 0.0 0.0
9.4435 37.8284 64.0955 0.0 0.0
9.6158 38.5285 63.2002 0.0 0.0
9.7315 39.2524 62.2886 0.0 0.0
9.7934 39.9984 61.3634 0.0 0.0
9.8035 40.761 60.4305 0.0 0.0
9.7627 41.534 59.4973 0.0 0.0
9.6724 42.3175 58.5631 0.0 0.0
9.8167 41.918 59.038 0.0 0.0
9.8701 41.1517 59.9573 0.0 0.0
9.8915 40.7633 60.4277 0.0 0.0
9.8828 39.9938 61.369 0.0 0.0
9.8211 39.2412 62.3028 0.0 0.0
9.7053 38.51 63.2237 0.0 0.0
9.5326 37.8032 64.1279 0.0 0.0
9.3027 37.124 65.0115 0.0 0.0
9.0155 36.4761 65.8691 0.0 0.0
8.6706 35.8636 66.6944 0.0 0.0
8.268 35.2892 67.4828 0.0 0.0
7.8968 34.8552 68.0884 0.0 0.0
7.2727 34.2301 68.978 0.0 0.0
7.1158 34.3629 68.7871 0.0 0.0
7.7631 35.0741 67.7818 0.0 0.0
8.3918 35.8087 66.769 0.0 0.0
8.5563 35.6758 66.9506 0.0 0.0
8.9292 36.3221 66.0751 0.0 0.0
9.1704 36.7911 65.4502 0.0 0.0
8.9741 36.8712 65.3442 0.0 0.0
8.4336 36.1892 66.2537 0.0 0.0
7.8792 35.5257 67.1564 0.0 0.0
7.3101 34.8802 68.0532 0.0 0.0
6.7261 34.2535 68.9443 0.0 0.0
6.1264 33.6452 69.8305 0.0 0.0
6.2703 33.5044 70.0388 0.0 0.0
5.5538 33.1076 70.6334 0.0 0.0
5.425 33.2551 70.4112 0.0 0.0
6.1097 33.9189 69.429 0.0 0.0
6.7744 34.6059 68.4408 0.0 0.0
7.4203 35.3161 67.4454 0.0 0.0
8.0479 36.0493 66.4426 0.0 0.0
8.6575 36.8049 65.432 0.0 0.0
9.2501 37.5834 64.4123 0.0 0.0
9.4509 37.519 64.4959 0.0 0.0
9.6246 38.1244 63.7153 0.0 0.0
9.4217 38.1741 63.6515 0.0 0.0
8.8234 37.3625 64.6994 0.0 0.0
8.2075 36.5745 65.7379 0.0 0.0
7.5734 35.8103 66.7668 0.0 0.0
6.9202 35.07 67.7876 0.0 0.0
6.2476 34.3536 68.8004 0.0 0.0
5.5548 33.6614 69.8065 0.0 0.0
4.841 32.994 70.8058 0.0 0.0
4.9541 32.8402 71.0406 0.0 0.0
4.4102 32.6373 71.3533 0.0 0.0
4.3139 32.7963 71.1079 0.0 0.0
5.0359 33.4505 70.119 0.0 0.0
5.7369 34.1293 69.1234 0.0 0.0
6.4174 34.8322 68.1207 0.0 0.0
7.0785 35.5589 67.1108 0.0 0.0
7.7206 36.3091 66.0925 0.0 0.0
8.344 37.083 65.0652 0.0 0.0
8.9498 37.8803 64.0287 0.0 0.0
9.5386 38.7012 62.9815 0.0 0.0
9.6773 38.3409 63.4388 0.0 0.0
9.8186 39.1457 62.4221 0.0 0.0
9.6158 39.1803 62.3788 0.0 0.0
9.0424 38.3617 63.4121 0.0 0.0
8.4529 37.5661 64.4347 0.0 0.0
7.8464 36.793 65.4477 0.0 0.0
7.2227 36.0428 66.4514 0.0 0.0
6.5807 35.3151 67.4469 0.0 0.0
5.9202 34.6105 68.4342 0.0 0.0
5.2403 33.9288 69.4144 0.0 0.0
4.5406 33.2707 70.3877 0.0 0.0
3.82 32.6362 71.355 0.0 0.0
3.8989 32.4731 71.6089 0.0 0.0
3.4445 32.3547 71.7944 0.0 0.0
3.3674 32.5176 71.5393 0.0 0.0
4.0786 33.1286 70.6018 0.0 0.0
4.7699 33.7622 69.6583 0.0 0.0
5.4419 34.4178 68.7085 0.0 0.0
6.0955 35.0957 67.7517 0.0 0.0
6.7312 35.7953 66.7874 0.0 0.0
7.3494 36.5165 65.8151 0.0 0.0
7.9509 37.2593 64.8343 0.0 0.0
8.5359 38.0234 63.8447 0.0 0.0
9.1053 38.8093 62.845 0.0 0.0
9.6595 39.6169 61.8349 0.0 0.0
9.8629 39.5976 61.8588 0.0 0.0
9.8954 40.0403 61.3117 0.0 0.0
9.6926 40.0433 61.308 0.0 0.0
9.1026 39.169 62.3931 0.0 0.0
8.4954 38.3199 63.4655 0.0 0.0
7.8702 37.4953 64.5265 0.0 0.0
7.2265 36.6956 65.5769 0.0 0.0
6.5635 35.9205 66.6172 0.0 0.0
5.8808 35.1703 67.6476 0.0 0.0
5.1772 34.445 68.6698 0.0 0.0
4.4524 33.7448 69.6838 0.0 0.0
3.7056 33.0703 70.6899 0.0 0.0
2.9359 32.4216 71.6893 0.0 0.0
2.9952 32.2557 71.9506 0.0 0.0
2.5797 32.1784 72.0732 0.0 0.0
2.5221 32.344 71.8112 0.0 0.0
3.2717 32.9625 70.8539 0.0 0.0
3.9998 33.6048 69.8901 0.0 0.0
4.7071 34.271 68.9191 0.0 0.0
5.3945 34.9606 67.9405 0.0 0.0
6.0626 35.6734 66.9538 0.0 0.0
6.712 36.409 65.9588 0.0 0.0
7.3432 37.1677 64.9542 0.0 0.0
7.9569 37.9493 63.9399 0.0 0.0
8.5535 38.7538 62.915 0.0 0.0
9.1339 39.5812 61.8792 0.0 0.0
9.6985 40.4322 60.8312 0.0 0.0
9.8996 40.4293 60.8347 0.0 0.0
9.8997 40.8315 60.3448 0.0 0.0
9.7 40.8184 60.3607 0.0 0.0
9.1587 39.9891 61.3747 0.0 0.0
8.6028 39.1814 62.3775 0.0 0.0
8.0319 38.3955 63.3691 0.0 0.0
7.4454 37.6308 64.3508 0.0 0.0
6.843 36.8876 65.3225 0.0 0.0
6.2241 36.1656 66.2856 0.0 0.0
5.5878 35.465 67.2398 0.0 0.0
4.934 34.7859 68.1861 0.0 0.0
4.2619 34.1281 69.125 0.0 0.0
3.5711 33.4924 70.0567 0.0 0.0
2.8607 32.8786 70.9819 0.0 0.0
2.1305 32.2873 71.9006 0.0 0.0
2.1692 32.1193 72.1672 0.0 0.0
1.7868 32.0739 72.2398 0.0 0.0
1.7494 32.2417 71.9728 0.0 0.0
2.5192 32.8557 71.0169 0.0 0.0
3.2668 33.4942 70.0541 0.0 0.0
3.9934 34.1565 69.0839 0.0 0.0
4.6994 34.8429 68.1057 0.0 0.0
5.3855 35.5528 67.1191 0.0 0.0
6.0522 36.2861 66.1235 0.0 0.0
6.7002 37.0424 65.1186 0.0 0.0
7.3302 37.8222 64.1034 0.0 0.0
7.9429 38.6254 63.0774 0.0 0.0
8.5386 39.4519 62.0399 0.0 0.0
9.1179 40.3019 60.9905 0.0 0.0
9.6816 41.1761 59.9278 0.0 0.0
9.8801 41.1892 59.912 0.0 0.0
9.8584 41.5658 59.4591 0.0 0.0
9.6625 41.5355 59.4955 0.0 0.0
9.1235 40.6875 60.5199 0.0 0.0
8.57 39.8617 61.5318 0.0 0.0
8.0015 39.058 62.5322 0.0 0.0
7.4179 38.2758 63.5217 0.0 0.0
6.8183 37.5154 64.5006 0.0 0.0
6.2024 36.7765 65.4696 0.0 0.0
5.5693 36.059 66.4294 0.0 0.0
4.9189 35.3631 67.3805 0.0 0.0
4.2506 34.6887 68.3232 0.0 0.0
3.5636 34.036 69.2585 0.0 0.0
2.8572 33.4054 70.1861 0.0 0.0
2.1313 32.7971 71.1067 0.0 0.0
1.385 32.2114 72.0207 0.0 0.0
1.4035 32.042 72.2907 0.0 0.0
1.0491 32.0227 72.3216 0.0 0.0
1.0323 32.1919 72.0517 0.0 0.0
1.8107 32.7951 71.1098 0.0 0.0
2.5673 33.4227 70.1603 0.0 0.0
3.3025 34.074 69.2035 0.0 0.0
4.0173 34.7489 68.2381 0.0 0.0
4.712 35.447 67.2646 0.0 0.0
5.3875 36.1684 66.2817 0.0 0.0
6.0442 36.9127 65.2895 0.0 0.0
6.6829 37.6802 64.2869 0.0 0.0
7.3039 38.4705 63.2737 0.0 0.0
7.9081 39.2842 62.2489 0.0 0.0
8.4958 40.1211 61.2123 0.0 0.0
9.0678 40.9819 60.1625 0.0 0.0
9.6243 41.8665 59.0994 0.0 0.0
9.8192 41.8969 59.0631 0.0 0.0
9.5865 42.1999 58.7025 0.0 0.0
9.013 41.2788 59.8041 0.0 0.0
8.4233 40.3835 60.8906 0.0 0.0
7.8167 39.5137 61.9631 0.0 0.0
7.1925 38.6686 63.0226 0.0 0.0
6.5505 37.8486 64.0694 0.0 0.0
5.8898 37.0532 65.1044 0.0 0.0
5.2099 36.2825 66.1284 0.0 0.0
4.51 35.5362 67.1418 0.0 0.0
3.7895 34.8147 68.1454 0.0 0.0
3.0474 34.1178 69.1399 0.0 0.0
2.2836 33.4462 70.1253 0.0 0.0
1.497 32.8001 71.1023 0.0 0.0
0.6871 32.1796 72.0712 0.0 0.0
0.6856 32.0104 72.3415 0.0 0.0
0.3567 32.0125 72.3382 0.0 0.0
0.3594 32.1821 72.0673 0.0 0.0
1.1391 32.7716 71.146 0.0 0.0
1.8972 33.3847 70.2172 0.0 0.0
2.6345 34.0209 69.2805 0.0 0.0
3.3518 34.6801 68.3356 0.0 0.0
4.0493 35.3619 67.382 0.0 0.0
4.7277 36.0663 66.4195 0.0 0.0
5.3876 36.7932 65.4474 0.0 0.0
6.0297 37.5427 64.4651 0.0 0.0
6.6545 38.3145 63.4724 0.0 0.0
7.2625 39.1088 62.4685 0.0 0.0
7.8545 39.9259 61.4528 0.0 0.0
8.4306 40.7659 60.4244 0.0 0.0
8.9914 41.6294 59.383 0.0 0.0
9.5376 42.5166 58.3273 0.0 0.0
9.694 42.7619 58.0378 0.0 0.0
9.6744 42.8745 57.9053 0.0 0.0
9.4842 42.8274 57.9608 0.0 0.0
8.9241 41.9094 59.0483 0.0 0.0
8.3488 41.017 60.1201 0.0 0.0
7.7573 40.1491 61.1779 0.0 0.0
7.1493 39.3057 62.2223 0.0 0.0
6.5242 38.4863 63.2538 0.0 0.0
5.8817 37.691 64.273 0.0 0.0
5.2208 36.9191 65.281 0.0 0.0
4.541 36.171 66.2782 0.0 0.0
3.842 35.4468 67.265 0.0 0.0
3.1226 34.7461 68.2422 0.0 0.0
2.3826 34.0694 69.2101 0.0 0.0
1.6212 33.4168 70.1691 0.0 0.0
0.838 32.7889 71.1194 0.0 0.0
0.0319 32.1855 72.0618 0.0 0.0
0.0277 32.0161 72.3324 0.0 0.0
-0.3001 32.0352 72.3016 0.0 0.0
-0.2769 32.2039 72.0327 0.0 0.0
0.4989 32.7782 71.1358 0.0 0.0
1.2542 33.3753 70.2311 0.0 0.0
1.9889 33.9946 69.3187 0.0 0.0
2.7041 34.6361 68.3978 0.0 0.0
3.4003 35.2994 67.4685 0.0 0.0
4.0778 35.9844 66.5303 0.0 0.0
4.7373 36.6913 65.5825 0.0 0.0
5.3795 37.4197 64.6251 0.0 0.0
6.0046 38.1699 63.657 0.0 0.0
6.6133 38.9416 62.6782 0.0 0.0
7.2063 39.7354 61.6881 0.0 0.0
7.7837 40.5514 60.6855 0.0 0.0
8.3462 41.3897 59.6705 0.0 0.0
8.8944 42.2512 58.6416 0.0 0.0
9.4284 43.1357 57.5986 0.0 0.0
9.6144 43.1995 57.5241 0.0 0.0
9.5468 43.4903 57.1841 0.0 0.0
9.3614 43.426 57.2592 0.0 0.0
8.8162 42.5161 58.328 0.0 0.0
8.2565 41.6307 59.3813 0.0 0.0
7.6816 40.7692 60.4205 0.0 0.0
7.0913 39.9315 61.4458 0.0 0.0
6.4849 39.117 62.4582 0.0 0.0
5.862 38.3255 63.4583 0.0 0.0
5.222 37.5567 64.4468 0.0 0.0
4.5641 36.8104 65.4246 0.0 0.0
3.8883 36.087 66.3917 0.0 0.0
3.1936 35.3861 67.3486 0.0 0.0
2.4796 34.708 68.296 0.0 0.0
1.7457 34.0527 69.2342 0.0 0.0
0.991 33.4203 70.1639 0.0 0.0
0.2153 32.8114 71.0849 0.0 0.0
-0.5821 32.226 71.9976 0.0 0.0
-0.6063 32.0571 72.2666 0.0 0.0
-0.9252 32.0852 72.2217 0.0 0.0
-0.8824 32.2524 71.9559 0.0 0.0
-0.0637 32.8486 71.0277 0.0 0.0
0.7324 33.4694 70.0908 0.0 0.0
1.5061 34.1143 69.1451 0.0 0.0
2.2587 34.7833 68.1896 0.0 0.0
2.9904 35.4762 67.2244 0.0 0.0
3.702 36.1927 66.249 0.0 0.0
4.394 36.9328 65.2629 0.0 0.0
5.0668 37.6963 64.266 0.0 0.0
5.7215 38.4837 63.257 0.0 0.0
6.3583 39.2948 62.2357 0.0 0.0
6.978 40.13 61.2014 0.0 0.0
7.581 40.9895 60.1533 0.0 0.0
8.1676 41.8735 59.0911 0.0 0.0
8.7388 42.7829 58.0131 0.0 0.0
9.2949 43.7182 56.9188 0.0 0.0
9.4796 43.783 56.8435 0.0 0.0
9.4019 44.0819 56.4969 0.0 0.0
9.2222 44.0006 56.5909 0.0 0.0
8.6921 43.1012 57.6391 0.0 0.0
8.1484 42.2256 58.672 0.0 0.0
7.5905 41.3732 59.6904 0.0 0.0
7.018 40.5436 60.6952 0.0 0.0
6.4305 39.7363 61.6869 0.0 0.0
5.8275 38.9511 62.6665 0.0 0.0
5.2085 38.1876 63.6342 0.0 0.0
4.573 37.4458 64.5909 0.0 0.0
3.9205 36.7256 65.537 0.0 0.0
3.2506 36.0269 66.4729 0.0 0.0
2.5625 35.3497 67.399 0.0 0.0
1.856 34.6941 68.3157 0.0 0.0
1.1303 34.0602 69.2233 0.0 0.0
0.385 33.4482 70.1223 0.0 0.0
-0.3805 32.8583 71.0128 0.0 0.0
-1.1667 32.2908 71.8952 0.0 0.0
-1.2104 32.1236 72.1603 0.0 0.0
-1.495 32.163 72.0977 0.0 0.0
-1.4502 32.3305 71.8326 0.0 0.0
-0.6464 32.9069 70.9386 0.0 0.0
0.1357 33.5062 70.036 0.0 0.0
0.8972 34.1286 69.1244 0.0 0.0
1.6381 34.7736 68.2035 0.0 0.0
2.3595 35.4408 67.2732 0.0 0.0
3.0616 36.1306 66.3328 0.0 0.0
3.7449 36.8426 65.382 0.0 0.0
4.4104 37.5768 64.4208 0.0 0.0
5.0583 38.3335 63.4482 0.0 0.0
5.6889 39.1126 62.4637 0.0 0.0
6.3032 39.9143 61.4669 0.0 0.0
6.9013 40.7387 60.4575 0.0 0.0
7.4841 41.5867 59.4342 0.0 0.0
8.0519 42.4583 58.3963 0.0 0.0
8.6049 43.3538 57.3435 0.0 0.0
9.1439 44.2744 56.2742 0.0 0.0
9.3232 44.3564 56.1797 0.0 0.0
9.2449 44.6319 55.8623 0.0 0.0
9.0664 44.5501 55.9565 0.0 0.0
8.5189 43.6088 57.0461 0.0 0.0
7.9567 42.6931 58.1189 0.0 0.0
7.3797 41.8029 59.1753 0.0 0.0
6.7872 40.9371 60.2168 0.0 0.0
6.1785 40.0956 61.2436 0.0 0.0
5.5535 39.2779 62.2568 0.0 0.0
4.9114 38.4834 63.2573 0.0 0.0
4.2519 37.7124 64.2452 0.0 0.0
3.5739 36.9644 65.2212 0.0 0.0
2.8776 36.2393 66.1863 0.0 0.0
2.162 35.5374 67.1401 0.0 0.0
1.4263 34.8586 68.0836 0.0 0.0
0.6705 34.2028 69.0173 0.0 0.0
-0.1063 33.5705 69.9409 0.0 0.0
-0.9049 32.9615 70.8552 0.0 0.0
-1.7254 32.3766 71.7601 0.0 0.0
-1.7882 32.2115 72.0207 0.0 0.0
-2.0538 32.2654 71.9352 0.0 0.0
-1.9901 32.4307 71.6751 0.0 0.0
-1.1542 33.0236 70.7608 0.0 0.0
-0.3412 33.6409 69.8367 0.0 0.0
0.4499 34.2824 68.9027 0.0 0.0
1.2192 34.9479 67.9584 0.0 0.0
1.9675 35.6374 67.0032 0.0 0.0
2.6955 36.3504 66.0372 0.0 0.0
3.4037 37.0871 65.0598 0.0 0.0
4.0929 37.8476 64.0707 0.0 0.0
4.7633 38.6319 63.0692 0.0 0.0
5.4156 39.4401 62.0547 0.0 0.0
6.0505 40.2725 61.0266 0.0 0.0
6.6684 41.1294 59.9842 0.0 0.0
7.2699 42.0115 58.9264 0.0 0.0
7.8557 42.9189 57.853 0.0 0.0
8.426 43.8524 56.7628 0.0 0.0
8.9813 44.8128 55.6546 0.0 0.0
9.1543 44.9116 55.5414 0.0 0.0
9.066 45.171 55.2444 0.0 0.0
8.8935 45.0718 55.3579 0.0 0.0
8.364 44.1496 56.4186 0.0 0.0
7.8211 43.252 57.4624 0.0 0.0
7.2642 42.3785 58.4906 0.0 0.0
6.693 41.5285 59.5039 0.0 0.0
6.1068 40.7011 60.5033 0.0 0.0
5.5056 39.8965 61.489 0.0 0.0
4.8886 39.1141 62.4618 0.0 0.0
4.2555 38.3537 63.4224 0.0 0.0
3.6056 37.615 64.3713 0.0 0.0
2.9387 36.898 65.309 0.0 0.0
2.254 36.2025 66.2358 0.0 0.0
1.5512 35.5287 67.1522 0.0 0.0
0.8295 34.8763 68.0589 0.0 0.0
0.0887 34.2457 68.9553 0.0 0.0
-0.6717 33.6371 69.8425 0.0 0.0
-1.4524 33.0504 70.7202 0.0 0.0
-2.2538 32.4859 71.5888 0.0 0.0
-2.3187 32.3206 71.8482 0.0 0.0
-2.5906 32.3863 71.7447 0.0 0.0
-2.5088 32.5478 71.4924 0.0 0.0
-1.6938 33.1193 70.6157 0.0 0.0
-0.9003 33.7134 69.7298 0.0 0.0
-0.1273 34.3303 68.8339 0.0 0.0
0.6253 34.9693 67.9282 0.0 0.0
1.3584 35.6308 67.0121 0.0 0.0
2.0723 36.3145 66.0854 0.0 0.0
2.7674 37.0201 65.148 0.0 0.0
3.4446 37.7481 64.1991 0.0 0.0
4.104 38.4981 63.2387 0.0 0.0
4.7466 39.2707 62.2658 0.0 0.0
5.3724 40.0657 61.2804 0.0 0.0
5.9822 40.8838 60.2814 0.0 0.0
6.5765 41.7251 59.2682 0.0 0.0
7.1554 42.5899 58.2408 0.0 0.0
7.7199 43.4791 57.1973 0.0 0.0
8.2699 44.3929 56.1377 0.0 0.0
8.8063 45.3325 55.0602 0.0 0.0
8.9783 45.432 54.9468 0.0 0.0
8.8773 45.6962 54.6462 0.0 0.0
8.7118 45.5802 54.778 0.0 0.0
8.1692 44.6251 55.8703 0.0 0.0
7.6126 43.6963 56.9442 0.0 0.0
7.0414 42.7932 58.0011 0.0 0.0
6.4553 41.9149 59.0416 0.0 0.0
5.8537 41.061 60.0668 0.0 0.0
5.2362 40.231 61.0775 0.0 0.0
4.6023 39.4244 62.0741 0.0 0.0
3.9515 38.641 63.0575 0.0 0.0
3.283 37.8804 64.0285 0.0 0.0
2.5967 37.1427 64.987 0.0 0.0
1.892 36.4277 65.9336 0.0 0.0
1.1683 35.7354 66.869 0.0 0.0
0.425 35.0658 67.7934 0.0 0.0
-0.3384 34.4189 68.707 0.0 0.0
-1.1225 33.7949 69.6103 0.0 0.0
-1.9277 33.1939 70.5033 0.0 0.0
-2.7547 32.6161 71.3863 0.0 0.0
-2.8373 32.4546 71.6378 0.0 0.0
-3.2414 32.5703 71.4572 0.0 0.0
-2.9998 32.6854 71.279 0.0 0.0
-2.1609 33.2694 70.3897 0.0 0.0
-1.3444 33.8769 69.4902 0.0 0.0
-0.5493 34.5081 68.5798 0.0 0.0
0.2248 35.1626 67.6585 0.0 0.0
0.9781 35.8401 66.7262 0.0 0.0
1.7117 36.5411 65.7824 0.0 0.0
2.4258 37.2652 64.8267 0.0 0.0
3.1209 38.0122 63.8589 0.0 0.0
3.7979 38.7829 62.8783 0.0 0.0
4.4569 39.5768 61.8847 0.0 0.0
5.0988 40.3946 60.877 0.0 0.0
5.724 41.2366 59.8549 0.0 0.0
6.3327 42.1028 58.8179 0.0 0.0
6.9259 42.9943 57.7647 0.0 0.0
7.5038 43.9113 56.6944 0.0 0.0
8.0667 44.8545 55.6067 0.0 0.0
8.6155 45.8252 54.4997 0.0 0.0
8.7807 45.941 54.3686 0.0 0.0
8.727 46.079 54.2123 0.0 0.0
8.52 46.0721 54.2201 0.0 0.0
7.9656 45.0866 55.3411 0.0 0.0
7.3963 44.1288 56.4427 0.0 0.0
6.8122 43.1984 57.5253 0.0 0.0
6.2124 42.2941 58.5908 0.0 0.0
5.5967 41.4157 59.6394 0.0 0.0
4.9645 40.5624 60.6722 0.0 0.0
4.315 39.7336 61.6904 0.0 0.0
3.6482 38.9293 62.6939 0.0 0.0
2.963 38.1488 63.684 0.0 0.0
2.2593 37.3923 64.6606 0.0 0.0
1.5363 36.6594 65.6249 0.0 0.0
0.7936 35.9503 66.5765 0.0 0.0
0.0307 35.2649 67.5163 0.0 0.0
-0.7534 34.603 68.4448 0.0 0.0
-1.5588 33.965 69.3616 0.0 0.0
-2.3864 33.3509 70.2677 0.0 0.0
-3.2363 32.7609 71.1624 0.0 0.0
-3.3367 32.6041 71.4047 0.0 0.0
-3.5648 32.6862 71.2777 0.0 0.0
-3.4638 32.8431 71.0363 0.0 0.0
-2.651 33.4048 70.1869 0.0 0.0
-1.8589 33.9883 69.3279 0.0 0.0
-1.0866 34.5936 68.4581 0.0 0.0
-0.3338 35.2205 67.578 0.0 0.0
0.3999 35.8687 66.6874 0.0 0.0
1.1149 36.5386 65.7857 0.0 0.0
1.812 37.2299 64.8726 0.0 0.0
2.4914 37.9426 63.9484 0.0 0.0
3.1538 38.6771 63.0119 0.0 0.0
3.7992 39.4334 62.0631 0.0 0.0
4.4287 40.2114 61.1015 0.0 0.0
5.0424 41.0119 60.1263 0.0 0.0
5.6406 41.835 59.1371 0.0 0.0
6.2242 42.6809 58.1333 0.0 0.0
6.7933 43.5506 57.1138 0.0 0.0
7.3484 44.4445 56.078 0.0 0.0
7.8898 45.3631 55.0253 0.0 0.0
8.4181 46.3077 53.954 0.0 0.0
8.727 46.079 54.2123 0.0 0.0
8.3805 46.8744 53.3163 0.0 0.0
8.3137 46.5392 53.693 0.0 0.0
7.7805 45.5822 54.7759 0.0 0.0
7.234 44.6516 55.8398 0.0 0.0
6.6739 43.7466 56.8858 0.0 0.0
6.0993 42.8665 57.9148 0.0 0.0
5.5101 42.0103 58.928 0.0 0.0
4.9059 41.1776 59.926 0.0 0.0
4.2863 40.3681 60.9096 0.0 0.0
3.6505 39.5812 61.8792 0.0 0.0
2.9983 38.817 62.8353 0.0 0.0
2.3292 38.0747 63.7787 0.0 0.0
1.6427 37.3545 64.7099 0.0 0.0
0.9385 36.6562 65.6292 0.0 0.0
0.2157 35.9797 66.5368 0.0 0.0
-0.5259 35.325 67.433 0.0 0.0
-1.2868 34.6922 68.3183 0.0 0.0
-2.0673 34.0815 69.1925 0.0 0.0
-2.8684 33.4927 70.0562 0.0 0.0
-3.6903 32.926 70.9094 0.0 0.0
-3.7916 32.7688 71.1502 0.0 0.0
-4.0286 32.8617 71.0077 0.0 0.0
-3.9114 33.0132 70.7765 0.0 0.0
-3.0808 33.5848 69.9198 0.0 0.0
-2.2714 34.1788 69.052 0.0 0.0
-1.4825 34.7951 68.173 0.0 0.0
-0.714 35.4335 67.2832 0.0 0.0
0.0352 36.0943 66.3817 0.0 0.0
0.7652 36.7773 65.4685 0.0 0.0
1.4766 37.4825 64.5433 0.0 0.0
2.1699 38.21 63.6058 0.0 0.0
2.8456 38.9596 62.6557 0.0 0.0
3.5039 39.7321 61.6922 0.0 0.0
4.1457 40.5274 60.715 0.0 0.0
4.7713 41.3458 59.7233 0.0 0.0
5.3812 42.1879 58.7168 0.0 0.0
5.9758 43.0539 57.6945 0.0 0.0
6.5556 43.9447 56.6558 0.0 0.0
7.1207 44.8604 55.5999 0.0 0.0
7.6721 45.8026 54.5254 0.0 0.0
8.2099 46.7719 53.4313 0.0 0.0
8.3667 46.9056 53.2812 0.0 0.0
8.2514 47.1473 53.0105 0.0 0.0
8.1022 46.9975 53.1783 0.0 0.0
7.5603 46.0172 54.2823 0.0 0.0
7.0047 45.0646 55.3662 0.0 0.0
6.4349 44.1387 56.4311 0.0 0.0
5.8506 43.2387 57.4781 0.0 0.0
5.2513 42.3638 58.5081 0.0 0.0
4.6364 41.5134 59.522 0.0 0.0
4.0057 40.687 60.5205 0.0 0.0
3.3586 39.8841 61.5042 0.0 0.0
2.6946 39.1045 62.4738 0.0 0.0
2.013 38.3478 63.4298 0.0 0.0
1.3138 37.6139 64.3727 0.0 0.0
0.5963 36.9026 65.3028 0.0 0.0
-0.1401 36.2138 66.2206 0.0 0.0
-0.8958 35.5475 67.1263 0.0 0.0
-1.6713 34.9037 68.0203 0.0 0.0
-2.4671 34.2824 68.9026 0.0 0.0
-3.2838 33.6838 69.7736 0.0 0.0
-4.1217 33.1078 70.6331 0.0 0.0
-4.2394 32.9562 70.8634 0.0 0.0
-4.4491 33.0516 70.7182 0.0 0.0
-4.3309 33.2035 70.4887 0.0 0.0
-3.4858 33.7837 69.6267 0.0 0.0
-2.6624 34.3866 68.7531 0.0 0.0
-1.8599 35.0126 67.8676 0.0 0.0
-1.078 35.6613 66.9704 0.0 0.0
-0.316 36.3328 66.0607 0.0 0.0
0.4262 37.027 65.139 0.0 0.0
1.1497 37.7442 64.2042 0.0 0.0
1.8544 38.484 63.2565 0.0 0.0
2.5413 39.2472 62.2952 0.0 0.0
3.2107 40.0337 61.3199 0.0 0.0
3.8628 40.8435 60.3303 0.0 0.0
4.4986 41.6775 59.3253 0.0 0.0
5.118 42.5357 58.3048 0.0 0.0
5.7221 43.419 57.2673 0.0 0.0
6.3107 44.3277 56.2127 0.0 0.0
6.8848 45.263 55.1394 0.0 0.0
7.4445 46.2253 54.0469 0.0 0.0
7.9904 47.2162 52.9334 0.0 0.0
8.1394 47.3664 52.7656 0.0 0.0
8.028 47.5866 52.52 0.0 0.0
7.8793 47.4361 52.6878 0.0 0.0
7.3294 46.4348 53.8106 0.0 0.0
6.7656 45.4625 54.9121 0.0 0.0
6.1873 44.5179 55.9935 0.0 0.0
5.5942 43.6002 57.056 0.0 0.0
4.9859 42.7089 58.1003 0.0 0.0
4.3616 41.8427 59.1279 0.0 0.0
3.721 41.0013 60.1392 0.0 0.0
3.0638 40.1842 61.1349 0.0 0.0
2.3892 39.3911 62.1157 0.0 0.0
1.697 38.6216 63.0822 0.0 0.0
0.9866 37.8755 64.0347 0.0 0.0
0.2574 37.1527 64.9739 0.0 0.0
-0.491 36.453 65.8999 0.0 0.0
-1.2588 35.7765 66.8129 0.0 0.0
-2.0472 35.1229 67.7137 0.0 0.0
-2.8562 34.4923 68.6021 0.0 0.0
-3.6865 33.8849 69.4785 0.0 0.0
-4.5384 33.3007 70.3427 0.0 0.0
-4.6713 33.156 70.5603 0.0 0.0
-4.8647 33.2626 70.4 0.0 0.0
-4.7314 33.4079 70.1825 0.0 0.0
-3.874 33.9958 69.3169 0.0 0.0
-3.0381 34.6073 68.4386 0.0 0.0
-2.2238 35.242 67.5481 0.0 0.0
-1.4301 35.9001 66.6447 0.0 0.0
-0.6571 36.5815 65.7284 0.0 0.0
0.0963 37.286 64.7993 0.0 0.0
0.8302 38.0141 63.8565 0.0 0.0
1.5454 38.7655 62.9002 0.0 0.0
2.242 39.5406 61.9297 0.0 0.0
2.9207 40.3398 60.9442 0.0 0.0
3.5824 41.1631 59.9436 0.0 0.0
4.2269 42.0113 58.9269 0.0 0.0
4.8552 42.8844 57.8937 0.0 0.0
5.4675 43.7836 56.8428 0.0 0.0
6.0644 44.709 55.7738 0.0 0.0
6.6462 45.662 54.6852 0.0 0.0
7.2136 46.643 53.5761 0.0 0.0
7.7667 47.6538 52.4451 0.0 0.0
7.9074 47.8193 52.2609 0.0 0.0
7.7884 48.0264 52.0309 0.0 0.0
7.648 47.86 52.2157 0.0 0.0
7.0916 46.8408 53.3539 0.0 0.0
6.5212 45.8519 54.4695 0.0 0.0
5.9359 44.8915 55.5644 0.0 0.0
5.3356 43.9589 56.6394 0.0 0.0
4.7196 43.0531 57.6955 0.0 0.0
4.0878 42.1738 58.7336 0.0 0.0
3.4393 41.3197 59.7548 0.0 0.0
2.7739 40.4906 60.7598 0.0 0.0
2.0911 39.6863 61.7489 0.0 0.0
1.3902 38.906 62.7231 0.0 0.0
0.6708 38.1497 63.6829 0.0 0.0
-0.0675 37.417 64.6284 0.0 0.0
-0.8252 36.7082 65.56 0.0 0.0
-1.603 36.0228 66.4785 0.0 0.0
-2.4013 35.3607 67.3837 0.0 0.0
-3.2207 34.7222 68.276 0.0 0.0
-4.0612 34.1073 69.1551 0.0 0.0
-4.924 33.5159 70.0218 0.0 0.0
-5.0575 33.3704 70.2383 0.0 0.0
-5.2493 33.4791 70.0764 0.0 0.0
-5.1154 33.6248 69.8605 0.0 0.0
-4.2928 34.1877 69.0391 0.0 0.0
-3.4899 34.772 68.2056 0.0 0.0
-2.7065 35.3775 67.3606 0.0 0.0
-1.9422 36.0041 66.5036 0.0 0.0
-1.1965 36.6521 65.6347 0.0 0.0
-0.4687 37.3214 64.7531 0.0 0.0
0.2411 38.012 63.8593 0.0 0.0
0.9336 38.724 62.9526 0.0 0.0
1.6093 39.4576 62.0327 0.0 0.0
2.2687 40.2134 61.0991 0.0 0.0
2.9119 40.991 60.1515 0.0 0.0
3.5394 41.7911 59.1894 0.0 0.0
4.1518 42.6141 58.2122 0.0 0.0
4.7496 43.4607 57.2187 0.0 0.0
5.3329 44.3311 56.2089 0.0 0.0
5.9021 45.226 55.1816 0.0 0.0
6.4578 46.1465 54.1361 0.0 0.0
7.0005 47.0936 53.0707 0.0 0.0
7.5301 48.0678 51.9849 0.0 0.0
7.6704 48.234 51.8007 0.0 0.0
7.5528 48.4438 51.5687 0.0 0.0
7.4126 48.2767 51.7535 0.0 0.0
6.8804 47.2949 52.8455 0.0 0.0
6.335 46.3407 53.9167 0.0 0.0
5.7766 45.4136 54.9677 0.0 0.0
5.2045 44.5123 55.9999 0.0 0.0
4.6184 43.636 57.0143 0.0 0.0
4.0176 42.7838 58.0121 0.0 0.0
3.4021 41.9554 58.9933 0.0 0.0
2.7714 41.1503 59.9591 0.0 0.0
2.125 40.3678 60.9098 0.0 0.0
1.4623 39.6075 61.8466 0.0 0.0
0.7833 38.8695 62.7691 0.0 0.0
0.0873 38.1533 63.6782 0.0 0.0
-0.626 37.4588 64.5741 0.0 0.0
-1.3574 36.7856 65.4575 0.0 0.0
-2.1068 36.134 66.3281 0.0 0.0
-2.8749 35.5039 67.1863 0.0 0.0
-3.6621 34.8951 68.0323 0.0 0.0
-4.469 34.3076 68.8666 0.0 0.0
-5.2955 33.7416 69.6884 0.0 0.0
-5.4433 33.6037 69.8916 0.0 0.0
-5.6194 33.7234 69.7152 0.0 0.0
-5.4717 33.8616 69.5127 0.0 0.0
-4.642 34.4301 68.6909 0.0 0.0
-3.8322 35.0202 67.857 0.0 0.0
-3.0419 35.6318 67.0107 0.0 0.0
-2.2708 36.2649 66.152 0.0 0.0
-1.5184 36.9195 65.2806 0.0 0.0
-0.7842 37.5956 64.3963 0.0 0.0
-0.068 38.2935 63.4991 0.0 0.0
0.6309 39.0131 62.5885 0.0 0.0
1.3127 39.7548 61.6641 0.0 0.0
1.9782 40.5187 60.7256 0.0 0.0
2.6273 41.3051 59.7723 0.0 0.0
3.2607 42.1145 58.804 0.0 0.0
3.8788 42.9473 57.8198 0.0 0.0
4.482 43.804 56.8191 0.0 0.0
5.0706 44.6852 55.8011 0.0 0.0
5.6452 45.5918 54.765 0.0 0.0
6.206 46.5244 53.7096 0.0 0.0
6.7535 47.4842 52.6341 0.0 0.0
7.2881 48.4723 51.537 0.0 0.0
7.5452 48.4572 51.5538 0.0 0.0
7.2943 48.8501 51.1202 0.0 0.0
7.1633 48.668 51.3209 0.0 0.0
6.6267 47.6736 52.423 0.0 0.0
6.0768 46.7081 53.5029 0.0 0.0
5.5137 45.7699 54.5626 0.0 0.0
4.9366 44.8583 55.6023 0.0 0.0
4.3457 43.9722 56.624 0.0 0.0
3.7399 43.111 57.6276 0.0 0.0
3.1194 42.2738 58.6148 0.0 0.0
2.4834 41.4604 59.5855 0.0 0.0
1.8317 40.67 60.5411 0.0 0.0
1.1637 39.9025 61.4815 0.0 0.0
0.4792 39.1572 62.4077 0.0 0.0
-0.2225 38.4344 63.3198 0.0 0.0
-0.9415 37.7332 64.2183 0.0 0.0
-1.6786 37.0541 65.1033 0.0 0.0
-2.4338 36.3965 65.9755 0.0 0.0
-3.2079 35.7607 66.8346 0.0 0.0
-4.001 35.1463 67.6812 0.0 0.0
-4.8139 34.5537 68.5149 0.0 0.0
-5.6465 33.9824 69.3363 0.0 0.0
-5.7946 33.8438 69.5385 0.0 0.0
-5.9759 33.9779 69.343 0.0 0.0
-5.8159 34.1076 69.1547 0.0 0.0
-4.9806 34.6812 68.3339 0.0 0.0
-4.1652 35.2765 67.5003 0.0 0.0
-3.3694 35.8934 66.6538 0.0 0.0
-2.5928 36.532 65.7943 0.0 0.0
-1.8349 37.1922 64.9221 0.0 0.0
-1.0954 37.8744 64.0363 0.0 0.0
-0.3738 38.5785 63.1368 0.0 0.0
0.3303 39.3047 62.2234 0.0 0.0
1.0173 40.0532 61.2958 0.0 0.0
1.6875 40.8244 60.3536 0.0 0.0
2.3416 41.6184 59.3961 0.0 0.0
2.9799 42.4358 58.4228 0.0 0.0
3.6028 43.277 57.4332 0.0 0.0
4.2107 44.1427 56.4266 0.0 0.0
4.804 45.0331 55.4021 0.0 0.0
5.3831 45.9497 54.3587 0.0 0.0
5.9485 46.8931 53.2954 0.0 0.0
6.5004 47.8642 52.211 0.0 0.0
7.0392 48.8645 51.1044 0.0 0.0
7.1703 49.0472 50.9032 0.0 0.0
7.0329 49.2514 50.6788 0.0 0.0
6.9111 49.0541 50.8957 0.0 0.0
6.3706 48.0491 52.0058 0.0 0.0
5.8171 47.0734 53.0931 0.0 0.0
5.2502 46.126 54.1593 0.0 0.0
4.6694 45.2052 55.2054 0.0 0.0
4.0743 44.3109 56.2322 0.0 0.0
3.4647 43.4418 57.2407 0.0 0.0
2.8401 42.5973 58.2319 0.0 0.0
2.2001 41.7769 59.2065 0.0 0.0
1.5443 40.9799 60.165 0.0 0.0
0.8722 40.2058 61.1084 0.0 0.0
0.1835 39.4546 62.0366 0.0 0.0
-0.5222 38.7259 62.9503 0.0 0.0
-1.2455 38.0193 63.8499 0.0 0.0
-1.9867 37.3348 64.7357 0.0 0.0
-2.7465 36.6722 65.608 0.0 0.0
-3.5247 36.0311 66.4671 0.0 0.0
-4.3222 35.4121 67.3129 0.0 0.0
-5.1391 34.8147 68.1455 0.0 0.0
-5.976 34.239 68.965 0.0 0.0
-6.136 34.109 69.1527 0.0 0.0
-6.2954 34.2414 68.9617 0.0 0.0
-6.1354 34.3716 68.7746 0.0 0.0
-5.2973 34.9492 67.9565 0.0 0.0
-4.479 35.5485 67.1251 0.0 0.0
-3.6802 36.1695 66.2803 0.0 0.0
-2.9005 36.8123 65.4222 0.0 0.0
-2.1395 37.4769 64.5505 0.0 0.0
-1.3968 38.1636 63.6651 0.0 0.0
-0.672 38.8723 62.7656 0.0 0.0
0.0353 39.6033 61.8518 0.0 0.0
0.7255 40.3568 60.9232 0.0 0.0
1.3993 41.1334 59.9793 0.0 0.0
2.0567 41.933 59.02 0.0 0.0
2.6982 42.7562 58.0445 0.0 0.0
3.3243 43.6036 57.0521 0.0 0.0
3.9355 44.4758 56.0421 0.0 0.0
4.532 45.3734 55.0136 0.0 0.0
5.1143 46.2973 53.9656 0.0 0.0
5.6828 47.2485 52.8972 0.0 0.0
6.2378 48.2281 51.8072 0.0 0.0
6.7798 49.2374 50.6941 0.0 0.0
6.9017 49.4352 50.4772 0.0 0.0
6.6377 49.808 50.069 0.0 0.0
6.6489 49.422 50.4916 0.0 0.0
6.1054 48.4084 51.6078 0.0 0.0
5.5489 47.4247 52.7004 0.0 0.0
4.9789 46.4698 53.7713 0.0 0.0
4.395 45.5423 54.8212 0.0 0.0
3.7969 44.6414 55.8515 0.0 0.0
3.1843 43.7661 56.863 0.0 0.0
2.5566 42.9159 57.8567 0.0 0.0
1.9135 42.0899 58.8333 0.0 0.0
1.2546 41.2877 59.7933 0.0 0.0
0.5797 40.5091 60.7373 0.0 0.0
-0.1121 39.7532 61.6661 0.0 0.0
-0.8209 39.0199 62.58 0.0 0.0
-1.5471 38.309 63.4794 0.0 0.0
-2.2913 37.6202 64.3644 0.0 0.0
-3.0537 36.9536 65.2357 0.0 0.0
-3.8347 36.3088 66.0931 0.0 0.0
-4.6349 35.6858 66.9368 0.0 0.0
-5.4545 35.0846 67.767 0.0 0.0
-6.294 34.5052 68.5838 0.0 0.0
-6.4386 34.6482 68.3806 0.0 0.0
-5.5989 35.2293 67.5657 0.0 0.0
-4.7792 35.8321 66.7371 0.0 0.0
-3.9787 36.4566 65.8952 0.0 0.0
-3.1971 37.103 65.039 0.0 0.0
-2.4341 37.7714 64.169 0.0 0.0
-1.6896 38.4618 63.2847 0.0 0.0
-0.9627 39.1745 62.3862 0.0 0.0
-0.2532 39.9094 61.4731 0.0 0.0
0.4393 40.6672 60.5446 0.0 0.0
1.1151 41.448 59.6005 0.0 0.0
1.7748 42.2523 58.6404 0.0 0.0
2.4188 43.0802 57.6638 0.0 0.0
3.0474 43.9327 56.6696 0.0 0.0
3.6608 44.8104 55.6574 0.0 0.0
4.2598 45.7139 54.6261 0.0 0.0
4.8447 46.6441 53.5749 0.0 0.0
5.4157 47.6018 52.503 0.0 0.0
5.9731 48.5886 51.4085 0.0 0.0
6.5176 49.6057 50.2903 0.0 0.0
6.3799 49.7771 50.1028 0.0 0.0
5.8347 48.7578 51.2218 0.0 0.0
5.2764 47.769 52.317 0.0 0.0
4.7047 46.8092 53.3895 0.0 0.0
4.1193 45.877 54.4411 0.0 0.0
3.5195 44.9719 55.4722 0.0 0.0
2.9053 44.0928 56.4842 0.0 0.0
2.2763 43.2389 57.4779 0.0 0.0
1.6319 42.4095 58.4541 0.0 0.0
0.9717 41.604 59.4133 0.0 0.0
0.2955 40.8218 60.3566 0.0 0.0
-0.3972 40.0629 61.2839 0.0 0.0
-1.1069 39.3267 62.1959 0.0 0.0
-1.8339 38.613 63.093 0.0 0.0
-2.5787 37.9215 63.9755 0.0 0.0
-3.3417 37.2521 64.8437 0.0 0.0
-4.1231 36.6044 65.698 0.0 0.0
-4.9234 35.9787 66.538 0.0 0.0
-5.7429 35.3748 67.3642 0.0 0.0
-6.5821 34.7926 68.1766 0.0 0.0
-6.753 34.6719 68.3472 0.0 0.0
-6.8957 34.817 68.1421 0.0 0.0
-6.7249 34.938 67.9722 0.0 0.0
-5.8861 35.5215 67.1621 0.0 0.0
-5.067 36.1265 66.3382 0.0 0.0
-4.2668 36.7534 65.5001 0.0 0.0
-3.4856 37.402 64.6481 0.0 0.0
-2.7226 38.0726 63.7815 0.0 0.0
-1.9779 38.7652 62.9007 0.0 0.0
-1.2506 39.4801 62.0048 0.0 0.0
-0.5408 40.2174 61.0942 0.0 0.0
0.1524 40.9776 60.1678 0.0 0.0
0.8289 41.7607 59.2257 0.0 0.0
1.4896 42.5676 58.267 0.0 0.0
2.1344 43.3983 57.2915 0.0 0.0
2.7641 44.2539 56.298 0.0 0.0
3.3788 45.1345 55.2863 0.0 0.0
3.9791 46.0414 54.2549 0.0 0.0
4.5652 46.975 53.2034 0.0 0.0
5.1376 47.937 52.1303 0.0 0.0
5.6966 48.9279 51.0345 0.0 0.0
6.2427 49.9497 49.9143 0.0 0.0
6.3549 50.1624 49.6823 0.0 0.0
6.2182 50.3366 49.4927 0.0 0.0
6.106 50.1238 49.7245 0.0 0.0
5.5595 49.1002 50.8449 0.0 0.0
4.9999 48.1072 51.9413 0.0 0.0
4.4272 47.1439 53.0144 0.0 0.0
3.8408 46.2084 54.066 0.0 0.0
3.2401 45.3004 55.0969 0.0 0.0
2.6251 44.4182 56.1083 0.0 0.0
1.9952 43.5617 57.1009 0.0 0.0
1.3502 42.7299 58.0756 0.0 0.0
0.6897 41.9219 59.0333 0.0 0.0
0.0129 41.1377 59.9741 0.0 0.0
-0.68 40.3765 60.8992 0.0 0.0
-1.3896 39.6383 61.8084 0.0 0.0
-2.1167 38.9226 62.7024 0.0 0.0
-2.8611 38.2289 63.5816 0.0 0.0
-3.6235 37.5574 64.4459 0.0 0.0
-4.4041 36.9077 65.2961 0.0 0.0
-5.2034 36.2799 66.1317 0.0 0.0
-6.0219 35.6737 66.9535 0.0 0.0
-6.8595 35.0892 67.7607 0.0 0.0
-7.0399 34.979 67.9148 0.0 0.0
-7.168 35.1347 67.6974 0.0 0.0
-6.9877 35.2453 67.5436 0.0 0.0
-6.1519 35.8305 66.7395 0.0 0.0
-5.3353 36.4372 65.921 0.0 0.0
-4.5375 37.0655 65.0883 0.0 0.0
-3.7583 37.7156 64.2412 0.0 0.0
-2.9972 38.3874 63.3794 0.0 0.0
-2.2539 39.0813 62.5029 0.0 0.0
-1.5279 39.7974 61.6114 0.0 0.0
-0.8191 40.536 60.7045 0.0 0.0
-0.1268 41.2973 59.7818 0.0 0.0
0.5493 42.082 58.8427 0.0 0.0
1.2094 42.89 57.887 0.0 0.0
1.854 43.7222 56.9141 0.0 0.0
2.4835 44.5791 55.9232 0.0 0.0
3.0983 45.4614 54.9134 0.0 0.0
3.6987 46.3699 53.8838 0.0 0.0
4.2851 47.3055 52.8335 0.0 0.0
4.8579 48.2695 51.7615 0.0 0.0
5.4174 49.2629 50.6662 0.0 0.0
5.964 50.2872 49.5463 0.0 0.0
6.1642 50.4043 49.419 0.0 0.0
5.9188 50.677 49.1226 0.0 0.0
5.8201 50.4473 49.3721 0.0 0.0
5.2734 49.4226 50.4911 0.0 0.0
4.7139 48.4288 51.5851 0.0 0.0
4.1412 47.4647 52.6559 0.0 0.0
3.555 46.5289 53.7047 0.0 0.0
2.9548 45.6205 54.7323 0.0 0.0
2.3404 44.7382 55.7403 0.0 0.0
1.7113 43.8812 56.7293 0.0 0.0
1.0672 43.049 57.7003 0.0 0.0
0.4078 42.241 58.6538 0.0 0.0
-0.2673 41.4565 59.5904 0.0 0.0
-0.9587 40.6951 60.5106 0.0 0.0
-1.6666 39.9564 61.415 0.0 0.0
-2.3913 39.2402 62.3039 0.0 0.0
-3.1334 38.5462 63.1777 0.0 0.0
-3.8931 37.8743 64.0363 0.0 0.0
-4.6708 37.224 64.8805 0.0 0.0
-5.4668 36.5953 65.7101 0.0 0.0
-6.2815 35.9881 66.5253 0.0 0.0
-7.1152 35.4024 67.3261 0.0 0.0
-7.2953 35.2916 67.4794 0.0 0.0
-7.3941 35.4149 67.3089 0.0 0.0
-7.2401 35.5618 67.1068 0.0 0.0
-6.4087 36.1479 66.3095 0.0 0.0
-5.596 36.7555 65.4974 0.0 0.0
-4.8019 37.3844 64.671 0.0 0.0
-4.0258 38.035 63.8297 0.0 0.0
-3.2678 38.7072 62.974 0.0 0.0
-2.527 39.4014 62.1029 0.0 0.0
-1.8036 40.1175 61.2167 0.0 0.0
-1.0969 40.8561 60.3151 0.0 0.0
-0.4065 41.6175 59.3971 0.0 0.0
0.2678 42.4019 58.4631 0.0 0.0
0.9266 43.21 57.5117 0.0 0.0
1.57 44.042 56.543 0.0 0.0
2.1984 44.8988 55.5561 0.0 0.0
2.8124 45.7812 54.5497 0.0 0.0
3.4122 46.6897 53.5237 0.0 0.0
3.9982 47.6257 52.4764 0.0 0.0
4.5706 48.5899 51.4073 0.0 0.0
5.1301 49.5839 50.3142 0.0 0.0
5.6766 50.6088 49.1966 0.0 0.0
5.7787 50.8353 48.9509 0.0 0.0
5.6231 51.0045 48.7674 0.0 0.0
5.5312 50.7664 49.0256 0.0 0.0
4.9851 49.742 50.1412 0.0 0.0
4.4264 48.7491 51.2314 0.0 0.0
3.8546 47.7857 52.2984 0.0 0.0
3.2694 46.8506 53.3431 0.0 0.0
2.6707 45.943 54.3663 0.0 0.0
2.0577 45.0614 55.3698 0.0 0.0
1.4305 44.2055 56.3538 0.0 0.0
0.7884 43.3741 57.3197 0.0 0.0
0.131 42.5668 58.268 0.0 0.0
-0.5416 41.7832 59.199 0.0 0.0
-1.2303 41.0224 60.1136 0.0 0.0
-1.9352 40.2843 61.0122 0.0 0.0
-2.6565 39.5686 61.8948 0.0 0.0
-3.3949 38.8749 62.7624 0.0 0.0
-4.1505 38.2031 63.6146 0.0 0.0
-4.9238 37.5527 64.4522 0.0 0.0
-5.7152 36.9237 65.275 0.0 0.0
-6.5246 36.3163 66.083 0.0 0.0
-7.3529 35.7299 66.8767 0.0 0.0
-7.3941 35.4149 67.3089 0.0 0.0
-7.8041 36.034 66.4631 0.0 0.0
-7.4652 35.8989 66.6464 0.0 0.0
-6.6407 36.485 65.8571 0.0 0.0
-5.8346 37.0922 65.0531 0.0 0.0
-5.0466 37.7207 64.2346 0.0 0.0
-4.2764 38.3704 63.4011 0.0 0.0
-3.5235 39.0416 62.5528 0.0 0.0
-2.7878 39.7344 61.6892 0.0 0.0
-2.0687 40.4492 60.8103 0.0 0.0
-1.3661 41.1862 59.9157 0.0 0.0
-0.6796 41.9458 59.0049 0.0 0.0
-0.0089 42.728 58.0777 0.0 0.0
0.6466 43.534 57.1332 0.0 0.0
1.2871 44.3639 56.1709 0.0 0.0
1.913 45.2185 55.1903 0.0 0.0
2.5246 46.0985 54.1904 0.0 0.0
3.1222 47.0047 53.1703 0.0 0.0
3.7063 47.9381 52.129 0.0 0.0
4.2771 48.8998 51.0654 0.0 0.0
4.835 49.8912 49.9781 0.0 0.0
5.3804 50.9138 48.8657 0.0 0.0
5.4725 51.1526 48.6071 0.0 0.0
5.3224 51.3019 48.4458 0.0 0.0
5.2302 51.0627 48.7046 0.0 0.0
4.6857 50.0418 49.8137 0.0 0.0
4.1285 49.0519 50.8981 0.0 0.0
3.5587 48.0918 51.9583 0.0 0.0
2.9758 47.1601 52.9962 0.0 0.0
2.3794 46.2555 54.0128 0.0 0.0
1.769 45.3769 55.0096 0.0 0.0
1.1447 44.5238 55.9867 0.0 0.0
0.5058 43.6953 56.9453 0.0 0.0
-0.1479 42.8908 57.8862 0.0 0.0
-0.8169 42.1093 58.8101 0.0 0.0
-1.5013 41.351 59.7171 0.0 0.0
-2.2016 40.6152 60.6079 0.0 0.0
-2.9181 39.9014 61.4829 0.0 0.0
-3.6514 39.2093 62.3427 0.0 0.0
-4.4013 38.5389 63.187 0.0 0.0
-5.1684 37.8899 64.0163 0.0 0.0
-5.9531 37.262 64.8308 0.0 0.0
-6.7559 36.655 65.6307 0.0 0.0
-7.5765 36.0691 66.4157 0.0 0.0
-7.7641 35.9696 66.5503 0.0 0.0
-7.8722 36.1602 66.2928 0.0 0.0
-7.6776 36.2471 66.176 0.0 0.0
-6.8614 36.8327 65.3951 0.0 0.0
-6.0629 37.439 64.5999 0.0 0.0
-5.2822 38.0663 63.7896 0.0 0.0
-4.5186 38.7144 62.9647 0.0 0.0
-3.7722 39.384 62.1245 0.0 0.0
-3.0422 40.0748 61.2694 0.0 0.0
-2.3288 40.7874 60.3983 0.0 0.0
-1.6312 41.5219 59.5118 0.0 0.0
-0.9494 42.2789 58.6087 0.0 0.0
-0.2829 43.0585 57.6893 0.0 0.0
0.3685 43.8615 56.7522 0.0 0.0
1.0054 44.6882 55.7977 0.0 0.0
1.6278 45.5396 54.8243 0.0 0.0
2.2364 46.416 53.8319 0.0 0.0
2.8311 47.3187 52.8189 0.0 0.0
3.4127 48.2483 51.7849 0.0 0.0
3.9811 49.2064 50.7282 0.0 0.0
4.537 50.1939 49.648 0.0 0.0
5.0804 51.2126 48.5422 0.0 0.0
5.1728 51.4523 48.2833 0.0 0.0
5.005 51.5992 48.1248 0.0 0.0
4.9233 51.3485 48.3954 0.0 0.0
4.3814 50.3337 49.4958 0.0 0.0
3.8271 49.3495 50.5712 0.0 0.0
3.2605 48.395 51.6225 0.0 0.0
2.6808 47.4684 52.6517 0.0 0.0
2.0881 46.5691 53.6594 0.0 0.0
1.4818 45.6954 54.6471 0.0 0.0
0.8618 44.8472 55.6153 0.0 0.0
0.2277 44.0232 56.5647 0.0 0.0
-0.4211 43.2228 57.4968 0.0 0.0
-1.0844 42.4456 58.4112 0.0 0.0
-1.7632 41.6909 59.3092 0.0 0.0
-2.4571 40.9586 60.1908 0.0 0.0
-3.1669 40.2481 61.0564 0.0 0.0
-3.893 39.5589 61.9068 0.0 0.0
-4.6352 38.8912 62.7417 0.0 0.0
-5.3944 38.2443 63.5618 0.0 0.0
-6.1704 37.6185 64.3668 0.0 0.0
-6.9639 37.0131 65.1572 0.0 0.0
-7.7748 36.4285 65.9327 0.0 0.0
-7.9689 36.3415 66.0491 0.0 0.0
-8.0649 36.5241 65.805 0.0 0.0
-7.8714 36.6109 65.6894 0.0 0.0
-7.0658 37.1946 64.919 0.0 0.0
-6.2774 37.7987 64.1339 0.0 0.0
-5.5061 38.4232 63.3338 0.0 0.0
-4.7514 39.0686 62.5187 0.0 0.0
-4.0133 39.7347 61.6889 0.0 0.0
-3.2913 40.4219 60.8438 0.0 0.0
-2.5852 41.1303 59.9831 0.0 0.0
-1.8947 41.8605 59.1066 0.0 0.0
-1.2194 42.6127 58.2138 0.0 0.0
-0.5588 43.3876 57.3041 0.0 0.0
0.087 44.1852 56.3773 0.0 0.0
0.7185 45.0064 55.4327 0.0 0.0
1.336 45.8518 54.4696 0.0 0.0
1.9399 46.7222 53.4872 0.0 0.0
2.5305 47.6184 52.4846 0.0 0.0
3.1082 48.5417 51.4603 0.0 0.0
3.6731 49.4928 50.4141 0.0 0.0
4.2256 50.4731 49.344 0.0 0.0
4.766 51.4843 48.2488 0.0 0.0
4.8478 51.7354 47.978 0.0 0.0
4.691 51.8728 47.8303 0.0 0.0
4.609 51.6212 48.1011 0.0 0.0
4.04 50.5589 49.2508 0.0 0.0
3.4578 49.5309 50.3722 0.0 0.0
2.8618 48.5353 51.4675 0.0 0.0
2.2519 47.5702 52.5383 0.0 0.0
1.6274 46.6348 53.5855 0.0 0.0
0.9884 45.7275 54.6107 0.0 0.0
0.3342 44.8476 55.6147 0.0 0.0
-0.3354 43.9944 56.5981 0.0 0.0
-1.021 43.167 57.5619 0.0 0.0
-1.7226 42.3645 58.5072 0.0 0.0
-2.441 41.5869 59.4339 0.0 0.0
-3.1761 40.833 60.343 0.0 0.0
-3.9287 40.1032 61.2345 0.0 0.0
-4.6987 39.3964 62.1091 0.0 0.0
-5.4868 38.7129 62.9666 0.0 0.0
-6.2931 38.0521 63.8078 0.0 0.0
-7.118 37.4141 64.6324 0.0 0.0
-7.9619 36.7983 65.4407 0.0 0.0
-8.1609 36.7247 65.5381 0.0 0.0
-8.2421 36.9188 65.2814 0.0 0.0
-8.0435 36.9927 65.1841 0.0 0.0
-7.2067 37.6069 64.3818 0.0 0.0
-6.3883 38.2431 63.5635 0.0 0.0
-5.5884 38.9018 62.7284 0.0 0.0
-4.8062 39.5829 61.8771 0.0 0.0
-4.0416 40.287 61.0087 0.0 0.0
-3.2945 41.0141 60.1237 0.0 0.0
-2.5642 41.7648 59.221 0.0 0.0
-1.8507 42.5391 58.3007 0.0 0.0
-1.1533 43.3378 57.3622 0.0 0.0
-0.4721 44.1616 56.4046 0.0 0.0
0.1938 45.0108 55.4278 0.0 0.0
0.8443 45.8864 54.4304 0.0 0.0
1.4801 46.789 53.4122 0.0 0.0
2.1012 47.7199 52.3715 0.0 0.0
2.7083 48.6798 51.3078 0.0 0.0
3.3014 49.6706 50.2194 0.0 0.0
3.8812 50.6934 49.1047 0.0 0.0
4.4477 51.7498 47.9626 0.0 0.0
4.5184 52.0102 47.6823 0.0 0.0
4.3538 52.1327 47.5508 0.0 0.0
4.2827 51.8715 47.8315 0.0 0.0
3.7186 50.8214 48.966 0.0 0.0
3.1416 49.8047 50.0726 0.0 0.0
2.5514 48.8199 51.1535 0.0 0.0
1.9475 47.8653 52.2098 0.0 0.0
1.3297 46.9395 53.2432 0.0 0.0
0.6976 46.0418 54.2544 0.0 0.0
0.0509 45.171 55.2444 0.0 0.0
-0.6108 44.3263 56.2144 0.0 0.0
-1.2878 43.5068 57.1649 0.0 0.0
-1.9806 42.712 58.0966 0.0 0.0
-2.6892 41.9413 59.0102 0.0 0.0
-3.4141 41.1942 59.906 0.0 0.0
-4.1557 40.4703 60.7845 0.0 0.0
-4.9143 39.7691 61.6464 0.0 0.0
-5.6902 39.0906 62.4913 0.0 0.0
-6.4836 38.4344 63.3197 0.0 0.0
-7.295 37.8003 64.1317 0.0 0.0
-8.1244 37.1881 64.9276 0.0 0.0
-8.3225 37.1141 65.0246 0.0 0.0
-8.4063 37.3261 64.7471 0.0 0.0
-8.2036 37.3859 64.6691 0.0 0.0
-7.3816 37.9961 63.8796 0.0 0.0
-6.5771 38.6282 63.0738 0.0 0.0
-5.7904 39.2819 62.252 0.0 0.0
-5.0207 39.9577 61.4134 0.0 0.0
-4.2682 40.6557 60.5585 0.0 0.0
-3.5323 41.3763 59.6868 0.0 0.0
-2.8125 42.12 58.7975 0.0 0.0
-2.109 42.8869 57.8908 0.0 0.0
-1.4212 43.6778 56.9657 0.0 0.0
-0.7485 44.4929 56.0223 0.0 0.0
-0.0911 45.3331 55.0595 0.0 0.0
0.5519 46.1993 54.0764 0.0 0.0
1.1802 47.0919 53.0726 0.0 0.0
1.7945 48.0121 52.0468 0.0 0.0
2.3953 48.9613 50.9977 0.0 0.0
2.9825 49.9402 49.9246 0.0 0.0
3.5568 50.951 48.8254 0.0 0.0
4.1183 51.9947 47.699 0.0 0.0
4.1899 52.256 47.4183 0.0 0.0
4.0117 52.3842 47.2807 0.0 0.0
3.9517 52.1141 47.5707 0.0 0.0
3.3934 51.0779 48.688 0.0 0.0
2.8226 50.0746 49.7781 0.0 0.0
2.2389 49.1024 50.8425 0.0 0.0
1.6421 48.1599 51.8829 0.0 0.0
1.0319 47.2458 52.9003 0.0 0.0
0.4078 46.3591 53.896 0.0 0.0
-0.2303 45.4986 54.8708 0.0 0.0
-0.8829 44.6637 55.8258 0.0 0.0
-1.5502 43.8535 56.7615 0.0 0.0
-2.2325 43.0675 57.6787 0.0 0.0
-2.9303 42.305 58.5779 0.0 0.0
-3.6437 41.5655 59.4595 0.0 0.0
-4.3731 40.8487 60.324 0.0 0.0
-5.1187 40.1542 61.1717 0.0 0.0
-5.881 39.4817 62.0029 0.0 0.0
-6.6601 38.8309 62.8178 0.0 0.0
-7.4564 38.2016 63.6165 0.0 0.0
-8.27 37.5935 64.3991 0.0 0.0
-8.472 37.5338 64.4766 0.0 0.0
-8.537 37.7428 64.206 0.0 0.0
-8.3357 37.8026 64.1288 0.0 0.0
-7.5311 38.4078 63.3535 0.0 0.0
-6.7435 39.034 62.5623 0.0 0.0
-5.9724 39.6815 61.7548 0.0 0.0
-5.2179 40.3502 60.9314 0.0 0.0
-4.4797 41.0406 60.0916 0.0 0.0
-3.7573 41.7529 59.2352 0.0 0.0
-3.0506 42.4875 58.3617 0.0 0.0
-2.3592 43.2448 57.4709 0.0 0.0
-1.6827 44.0254 56.5622 0.0 0.0
-1.0211 44.83 55.6348 0.0 0.0
-0.3739 45.6588 54.6886 0.0 0.0
0.2592 46.5128 53.7228 0.0 0.0
0.8785 47.3927 52.7362 0.0 0.0
1.4843 48.2996 51.7281 0.0 0.0
2.077 49.2348 50.697 0.0 0.0
2.6567 50.1991 49.6423 0.0 0.0
3.2238 51.1941 48.5623 0.0 0.0
3.7786 52.2215 47.4554 0.0 0.0
3.8391 52.492 47.1653 0.0 0.0
3.6668 52.6009 47.0486 0.0 0.0
3.6057 52.33 47.339 0.0 0.0
3.0545 51.3114 48.4356 0.0 0.0
2.491 50.3244 49.5059 0.0 0.0
1.9153 49.3681 50.5508 0.0 0.0
1.327 48.4407 51.5721 0.0 0.0
0.7257 47.5407 52.5712 0.0 0.0
0.111 46.6676 53.5486 0.0 0.0
-0.517 45.8201 54.5056 0.0 0.0
-1.1588 44.9972 55.4433 0.0 0.0
-1.8149 44.1986 56.3618 0.0 0.0
-2.4853 43.4235 57.2621 0.0 0.0
-3.1704 42.6711 58.1449 0.0 0.0
-3.8704 41.9413 59.0102 0.0 0.0
-4.5859 41.2335 59.8586 0.0 0.0
-5.3167 40.5471 60.6908 0.0 0.0
-6.0634 39.8823 61.5065 0.0 0.0
-6.8261 39.2385 62.3062 0.0 0.0
-7.6053 38.6153 63.0902 0.0 0.0
-8.4008 38.0129 63.8581 0.0 0.0
-8.6015 37.953 63.9351 0.0 0.0
-8.657 38.188 63.6337 0.0 0.0
-8.4534 38.2336 63.5755 0.0 0.0
-7.6678 38.8329 62.8152 0.0 0.0
-6.898 39.4526 62.0391 0.0 0.0
-6.1444 40.0925 61.2474 0.0 0.0
-5.4062 40.7534 60.4398 0.0 0.0
-4.6835 41.4349 59.6161 0.0 0.0
-3.9761 42.1378 58.7762 0.0 0.0
-3.2833 42.8625 57.9194 0.0 0.0
-2.6053 43.6091 57.0457 0.0 0.0
-1.9417 44.3782 56.1545 0.0 0.0
-1.2919 45.1707 55.245 0.0 0.0
-0.6561 45.9866 54.3169 0.0 0.0
-0.0336 46.8272 53.3692 0.0 0.0
0.5754 47.6929 52.4017 0.0 0.0
1.1716 48.5847 51.4129 0.0 0.0
1.7553 49.5041 50.4017 0.0 0.0
2.3264 50.4517 49.3674 0.0 0.0
2.8856 51.4295 48.308 0.0 0.0
3.4328 52.4384 47.2226 0.0 0.0
3.4822 52.7164 46.9251 0.0 0.0
3.3009 52.8089 46.8262 0.0 0.0
3.2509 52.5303 47.1243 0.0 0.0
2.6757 51.4746 48.2592 0.0 0.0
2.0878 50.4538 49.365 0.0 0.0
1.4864 49.4655 50.444 0.0 0.0
0.8714 48.5082 51.4973 0.0 0.0
0.2427 47.581 52.5262 0.0 0.0
-0.4004 46.682 53.5323 0.0 0.0
-1.0581 45.8106 54.5164 0.0 0.0
-1.7305 44.966 55.479 0.0 0.0
-2.4183 44.1469 56.4216 0.0 0.0
-3.1214 43.3532 57.3442 0.0 0.0
-3.8405 42.5837 58.2479 0.0 0.0
-4.5757 41.8383 59.1332 0.0 0.0
-5.3272 41.1165 59.9998 0.0 0.0
-6.0955 40.4177 60.8489 0.0 0.0
-6.8809 39.7417 61.6803 0.0 0.0
-7.6833 39.0883 62.4941 0.0 0.0
-8.5035 38.4571 63.2909 0.0 0.0
-8.7061 38.4116 63.3488 0.0 0.0
-8.7551 38.6363 63.0636 0.0 0.0
-8.5532 38.6819 63.006 0.0 0.0
-7.7444 39.309 62.2181 0.0 0.0
-6.9526 39.9579 61.4131 0.0 0.0
-6.1775 40.6289 60.5911 0.0 0.0
-5.419 41.3223 59.7517 0.0 0.0
-4.6767 42.0383 58.8946 0.0 0.0
-3.9504 42.7775 58.0196 0.0 0.0
-3.2398 43.5401 57.126 0.0 0.0
-2.5446 44.3268 56.2137 0.0 0.0
-1.8645 45.1382 55.282 0.0 0.0
-1.1991 45.9749 54.3301 0.0 0.0
-0.5483 46.8377 53.3574 0.0 0.0
0.0883 47.7276 52.3631 0.0 0.0
0.7111 48.6454 51.3458 0.0 0.0
1.3203 49.5925 50.3048 0.0 0.0
1.9162 50.5702 49.2386 0.0 0.0
2.4991 51.5799 48.1457 0.0 0.0
3.0694 52.6236 47.0243 0.0 0.0
3.1197 52.9025 46.726 0.0 0.0
2.9391 52.9976 46.6243 0.0 0.0
2.8882 52.7181 46.9232 0.0 0.0
2.3233 51.6872 48.03 0.0 0.0
1.7459 50.6893 49.1092 0.0 0.0
1.156 49.7231 50.1619 0.0 0.0
0.5531 48.7867 51.1901 0.0 0.0
-0.0629 47.8791 52.1945 0.0 0.0
-0.6926 46.9988 53.1769 0.0 0.0
-1.3359 46.1452 54.1375 0.0 0.0
-1.9935 45.317 55.0779 0.0 0.0
-2.6653 44.5138 55.9982 0.0 0.0
-3.352 43.7347 56.8997 0.0 0.0
-4.0534 42.9793 57.7823 0.0 0.0
-4.7702 42.2467 58.6469 0.0 0.0
-5.5023 41.537 59.4937 0.0 0.0
-6.2504 40.8493 60.3233 0.0 0.0
-7.0143 40.1837 61.1355 0.0 0.0
-7.7946 39.5394 61.931 0.0 0.0
-8.5912 38.9167 62.7096 0.0 0.0
-8.795 38.8861 62.7483 0.0 0.0
-8.8279 39.1256 62.4474 0.0 0.0
-8.6247 39.1561 62.4092 0.0 0.0
-7.8413 39.7736 61.6407 0.0 0.0
-7.0737 40.412 60.8558 0.0 0.0
-6.3217 41.0717 60.054 0.0 0.0
-5.5853 41.7525 59.2357 0.0 0.0
-4.8641 42.455 58.4002 0.0 0.0
-4.158 43.1796 57.5473 0.0 0.0
-3.4665 43.9267 56.6767 0.0 0.0
-2.7896 44.6969 55.7878 0.0 0.0
-2.1267 45.4909 54.8797 0.0 0.0
-1.4778 46.3089 53.9525 0.0 0.0
-0.8427 47.152 53.0052 0.0 0.0
-0.2209 48.021 52.0369 0.0 0.0
0.3877 48.9169 51.0466 0.0 0.0
0.9836 49.8407 50.0333 0.0 0.0
1.567 50.7941 48.9955 0.0 0.0
2.138 51.778 47.9323 0.0 0.0
2.697 52.7942 46.8417 0.0 0.0
2.7361 53.0795 46.5371 0.0 0.0
2.5455 53.1568 46.4545 0.0 0.0
2.5057 52.871 46.7597 0.0 0.0
1.9527 51.8693 47.834 0.0 0.0
1.388 50.8992 48.8815 0.0 0.0
0.8115 49.9594 49.9037 0.0 0.0
0.2227 49.0479 50.9024 0.0 0.0
-0.3786 48.1638 51.8786 0.0 0.0
-0.9925 47.3059 52.8332 0.0 0.0
-1.6195 46.4733 53.7673 0.0 0.0
-2.2597 45.6651 54.6815 0.0 0.0
-2.9133 44.881 55.5765 0.0 0.0
-3.5807 44.1196 56.4532 0.0 0.0
-4.2622 43.3808 57.312 0.0 0.0
-4.9579 42.664 58.1533 0.0 0.0
-5.6681 41.9687 58.9775 0.0 0.0
-6.3931 41.2947 59.7849 0.0 0.0
-7.1328 40.6417 60.5756 0.0 0.0
-7.8878 40.009 61.3502 0.0 0.0
-8.6582 39.3967 62.1087 0.0 0.0
-8.8608 39.3662 62.1468 0.0 0.0
-8.8829 39.6336 61.8141 0.0 0.0
-8.6796 39.648 61.7963 0.0 0.0
-7.8764 40.2932 61.0011 0.0 0.0
-7.0899 40.9608 60.1881 0.0 0.0
-6.3199 41.651 59.357 0.0 0.0
-5.5659 42.3642 58.5076 0.0 0.0
-4.828 43.1011 57.6393 0.0 0.0
-4.1059 43.8616 56.7522 0.0 0.0
-3.3992 44.6465 55.8456 0.0 0.0
-2.7076 45.4565 54.9189 0.0 0.0
-2.0309 46.2922 53.9715 0.0 0.0
-1.3688 47.1545 53.0025 0.0 0.0
-0.7209 48.0442 52.0111 0.0 0.0
-0.087 48.9628 50.996 0.0 0.0
0.5333 49.9109 49.9566 0.0 0.0
1.1402 50.8902 48.8913 0.0 0.0
1.7339 51.9023 47.7985 0.0 0.0
2.3148 52.9489 46.6763 0.0 0.0
2.3553 53.2351 46.371 0.0 0.0
2.1408 53.2971 46.305 0.0 0.0
2.1125 53.0069 46.6146 0.0 0.0
1.5393 51.9789 47.7159 0.0 0.0
0.9538 50.9846 48.7891 0.0 0.0
0.3556 50.0217 49.8357 0.0 0.0
-0.2557 49.0894 50.8568 0.0 0.0
-0.88 48.186 51.854 0.0 0.0
-1.5178 47.3103 52.8284 0.0 0.0
-2.1693 46.4612 53.7808 0.0 0.0
-2.8349 45.6378 54.7126 0.0 0.0
-3.5148 44.8396 55.6238 0.0 0.0
-4.2093 44.0658 56.5155 0.0 0.0
-4.9186 43.3156 57.388 0.0 0.0
-5.6429 42.5887 58.2421 0.0 0.0
-6.3829 41.8846 59.0779 0.0 0.0
-7.1382 41.2025 59.8961 0.0 0.0
-7.9093 40.5426 60.6964 0.0 0.0
-8.6964 39.9044 61.4793 0.0 0.0
-8.8988 39.8893 61.4979 0.0 0.0
-8.9148 40.1472 61.1803 0.0 0.0
-8.7131 40.1623 61.1617 0.0 0.0
-7.9419 40.7934 60.3911 0.0 0.0
-7.1861 41.4455 59.6035 0.0 0.0
-6.4452 42.1192 58.7985 0.0 0.0
-5.7195 42.8143 57.9762 0.0 0.0
-5.0085 43.5314 57.1362 0.0 0.0
-4.312 44.2711 56.278 0.0 0.0
-3.6298 45.0339 55.4014 0.0 0.0
-2.9614 45.8205 54.5052 0.0 0.0
-2.307 46.6311 53.5895 0.0 0.0
-1.6661 47.4669 52.6535 0.0 0.0
-1.0384 48.3285 51.6961 0.0 0.0
-0.4237 49.2171 50.7166 0.0 0.0
0.1783 50.1337 49.7137 0.0 0.0
0.768 51.0799 48.6859 0.0 0.0
1.3452 52.0566 47.6326 0.0 0.0
1.9106 53.0658 46.5516 0.0 0.0
1.9397 53.3562 46.2419 0.0 0.0
1.7237 53.4165 46.1777 0.0 0.0
1.7069 53.123 46.4906 0.0 0.0
1.1501 52.134 47.5494 0.0 0.0
0.582 51.176 48.5819 0.0 0.0
0.0019 50.2481 49.589 0.0 0.0
-0.5899 49.3482 50.5725 0.0 0.0
-1.1942 48.4758 51.5333 0.0 0.0
-1.8107 47.6291 52.4727 0.0 0.0
-2.4402 46.8075 53.3914 0.0 0.0
-3.0824 46.0104 54.29 0.0 0.0
-3.738 45.2369 55.1694 0.0 0.0
-4.4069 44.4859 56.0303 0.0 0.0
-5.0896 43.7576 56.873 0.0 0.0
-5.786 43.0507 57.6983 0.0 0.0
-6.4967 42.3653 58.5063 0.0 0.0
-7.2215 41.7011 59.2971 0.0 0.0
-7.9608 41.0572 60.0715 0.0 0.0
-8.7149 40.4339 60.829 0.0 0.0
-8.9162 40.4356 60.8271 0.0 0.0
-8.9142 40.7111 60.4911 0.0 0.0
-8.7138 40.7095 60.4931 0.0 0.0
-7.9293 41.3659 59.6992 0.0 0.0
-7.1609 42.0444 58.8874 0.0 0.0
-6.408 42.7458 58.0569 0.0 0.0
-5.6706 43.4702 57.2075 0.0 0.0
-4.9486 44.2181 56.3394 0.0 0.0
-4.2413 44.9902 55.4513 0.0 0.0
-3.5488 45.787 54.5431 0.0 0.0
-2.871 46.6091 53.6144 0.0 0.0
-2.2072 47.4576 52.6638 0.0 0.0
-1.5573 48.3333 51.6908 0.0 0.0
-0.9213 49.2369 50.6948 0.0 0.0
-0.2985 50.1701 49.6739 0.0 0.0
0.3112 51.1341 48.6271 0.0 0.0
0.9079 52.1302 47.5535 0.0 0.0
1.4922 53.1607 46.4504 0.0 0.0
1.5096 53.4544 46.1374 0.0 0.0
1.2957 53.4936 46.0956 0.0 0.0
1.2775 53.1995 46.4091 0.0 0.0
0.7034 52.1927 47.4863 0.0 0.0
0.1173 51.2187 48.5357 0.0 0.0
-0.4811 50.2757 49.5588 0.0 0.0
-1.092 49.3623 50.557 0.0 0.0
-1.7157 48.4772 51.5316 0.0 0.0
-2.3525 47.6193 52.4836 0.0 0.0
-3.0026 46.7874 53.4139 0.0 0.0
-3.6661 45.9811 54.3232 0.0 0.0
-4.3435 45.199 55.2126 0.0 0.0
-5.035 44.4407 56.0824 0.0 0.0
-5.7408 43.7057 56.9334 0.0 0.0
-6.4611 42.9933 57.7657 0.0 0.0
-7.1961 42.3032 58.5799 0.0 0.0
-7.946 41.6349 59.3762 0.0 0.0
-8.7111 40.9882 60.155 0.0 0.0
-8.91 41.0062 60.1331 0.0 0.0
-8.8887 41.3017 59.7765 0.0 0.0
-8.6905 41.2836 59.7984 0.0 0.0
-7.9469 41.9195 59.0361 0.0 0.0
-7.2173 42.5763 58.2568 0.0 0.0
-6.5021 43.2537 57.4605 0.0 0.0
-5.8006 43.9527 56.6465 0.0 0.0
-5.113 44.6732 55.8148 0.0 0.0
-4.4388 45.4162 54.9647 0.0 0.0
-3.778 46.1819 54.0961 0.0 0.0
-3.1302 46.9712 53.2078 0.0 0.0
-2.4954 47.7845 52.2997 0.0 0.0
-1.873 48.6231 51.3706 0.0 0.0
-1.2633 49.4874 50.42 0.0 0.0
-0.6655 50.379 49.4465 0.0 0.0
-0.0799 51.2986 48.4494 0.0 0.0
0.4942 52.2481 47.4269 0.0 0.0
1.0567 53.2286 46.378 0.0 0.0
1.0629 53.5245 46.0628 0.0 0.0
0.8342 53.5395 46.0467 0.0 0.0
0.8273 53.2439 46.3617 0.0 0.0
0.237 52.2237 47.453 0.0 0.0
-0.3659 51.2375 48.5153 0.0 0.0
-0.9813 50.2838 49.5501 0.0 0.0
-1.61 49.3603 50.5592 0.0 0.0
-2.252 48.4661 51.5438 0.0 0.0
-2.9075 47.6 52.505 0.0 0.0
-3.5768 46.7612 53.4434 0.0 0.0
-4.2603 45.9482 54.3603 0.0 0.0
-4.9581 45.1606 55.2564 0.0 0.0
-5.6705 44.3976 56.1321 0.0 0.0
-6.3977 43.6587 56.9881 0.0 0.0
-7.1398 42.9434 57.8243 0.0 0.0
-7.8973 42.2509 58.6419 0.0 0.0
-8.6703 41.581 59.4408 0.0 0.0
-8.8674 41.5992 59.4191 0.0 0.0
-8.834 41.9242 59.0305 0.0 0.0
-8.6394 41.8895 59.0719 0.0 0.0
-7.8905 42.5464 58.292 0.0 0.0
-7.1563 43.2247 57.4946 0.0 0.0
-6.4363 43.925 56.6786 0.0 0.0
-5.7306 44.6478 55.8442 0.0 0.0
-5.0386 45.3931 54.991 0.0 0.0
-4.3605 46.1622 54.1182 0.0 0.0
-3.6958 46.9552 53.2257 0.0 0.0
-3.0443 47.7733 52.3121 0.0 0.0
-2.4061 48.6171 51.377 0.0 0.0
-1.7805 49.4874 50.4199 0.0 0.0
-1.1677 50.3857 49.439 0.0 0.0
-0.567 51.3131 48.4336 0.0 0.0
0.0214 52.2708 47.4026 0.0 0.0
0.5981 53.2608 46.3436 0.0 0.0
0.6057 53.5565 46.0286 0.0 0.0
0.35 53.5495 46.036 0.0 0.0
0.3539 53.2529 46.3521 0.0 0.0
-0.2511 52.2244 47.4523 0.0 0.0
-0.8693 51.2305 48.5229 0.0 0.0
-1.5006 50.2699 49.5651 0.0 0.0
-2.1453 49.3407 50.5807 0.0 0.0
-2.804 48.4413 51.5713 0.0 0.0
-3.4765 47.571 52.5375 0.0 0.0
-4.1632 46.7283 53.4803 0.0 0.0
-4.8645 45.9125 54.4008 0.0 0.0
-5.5808 45.1225 55.3 0.0 0.0
-6.3119 44.358 56.1778 0.0 0.0
-7.0583 43.6182 57.0352 0.0 0.0
-7.8203 42.9022 57.8727 0.0 0.0
-8.5978 42.2101 58.6904 0.0 0.0
-8.7915 42.2449 58.649 0.0 0.0
-8.7444 42.5863 58.2448 0.0 0.0
-8.5546 42.5346 58.306 0.0 0.0
-7.8054 43.2102 57.5114 0.0 0.0
-7.0707 43.9081 56.6983 0.0 0.0
-6.3506 44.6287 55.866 0.0 0.0
-5.6445 45.3724 55.0148 0.0 0.0
-4.9523 46.1401 54.1432 0.0 0.0
-4.274 46.9324 53.2513 0.0 0.0
-3.6094 47.75 52.3381 0.0 0.0
-2.9579 48.5937 51.403 0.0 0.0
-2.3195 49.4645 50.4451 0.0 0.0
-1.694 50.3633 49.4636 0.0 0.0
-1.0813 51.2918 48.4566 0.0 0.0
-0.4807 52.2513 47.4233 0.0 0.0
0.1077 53.2435 46.3621 0.0 0.0
-0.0411 53.5326 46.0542 0.0 0.0
-0.1638 53.5133 46.0746 0.0 0.0
-0.1487 53.218 46.3893 0.0 0.0
-0.7182 52.2662 47.4075 0.0 0.0
-1.2988 51.3448 48.3994 0.0 0.0
-1.891 50.452 49.3671 0.0 0.0
-2.4948 49.5868 50.3111 0.0 0.0
-3.1106 48.7476 51.2331 0.0 0.0
-3.7385 47.9338 52.1338 0.0 0.0
-4.3785 47.1445 53.0136 0.0 0.0
-5.0312 46.3786 53.8739 0.0 0.0
-5.6967 45.6357 54.715 0.0 0.0
-6.3748 44.9153 55.5371 0.0 0.0
-7.0662 44.2164 56.3413 0.0 0.0
-7.7706 43.539 57.1274 0.0 0.0
-8.4887 42.8822 57.8963 0.0 0.0
-8.6776 42.9341 57.8353 0.0 0.0
-8.6116 43.2847 57.4244 0.0 0.0
-8.4237 43.2327 57.4852 0.0 0.0
-7.681 43.9231 56.6809 0.0 0.0
-6.9525 44.6365 55.8572 0.0 0.0
-6.2384 45.3729 55.014 0.0 0.0
-5.5381 46.1335 54.1507 0.0 0.0
-4.8519 46.9184 53.2669 0.0 0.0
-4.1792 47.7288 52.3615 0.0 0.0
-3.5197 48.5651 51.4345 0.0 0.0
-2.8736 49.4285 50.4845 0.0 0.0
-2.2402 50.3203 49.5102 0.0 0.0
-1.6196 51.2413 48.5112 0.0 0.0
-1.0113 52.1935 47.4855 0.0 0.0
-0.4155 53.1778 46.4321 0.0 0.0
-0.4297 53.473 46.1175 0.0 0.0
-0.7163 53.4187 46.1754 0.0 0.0
-0.6902 53.1264 46.4869 0.0 0.0
-1.2623 52.1908 47.4883 0.0 0.0
-1.8456 51.2848 48.4643 0.0 0.0
-2.4402 50.4071 49.4158 0.0 0.0
-3.0462 49.5561 50.3447 0.0 0.0
-3.6641 48.7309 51.2516 0.0 0.0
-4.294 47.9305 52.1374 0.0 0.0
-4.936 47.1541 53.0029 0.0 0.0
-5.5904 46.401 53.8488 0.0 0.0
-6.2573 45.6704 54.6756 0.0 0.0
-6.9366 44.962 55.4837 0.0 0.0
-7.629 44.2748 56.2739 0.0 0.0
-8.3345 43.6086 57.0463 0.0 0.0
-8.5178 43.6773 56.9664 0.0 0.0
-8.4245 44.0611 56.5209 0.0 0.0
-8.2419 43.9919 56.6011 0.0 0.0
-7.5156 44.6904 55.7952 0.0 0.0
-6.803 45.4118 54.9697 0.0 0.0
-6.1042 46.1564 54.1248 0.0 0.0
-5.4189 46.9249 53.2595 0.0 0.0
-4.7469 47.7182 52.3735 0.0 0.0
-4.0878 48.5371 51.4655 0.0 0.0
-3.4418 49.3822 50.5353 0.0 0.0
-2.8084 50.2547 49.5818 0.0 0.0
-2.1875 51.1558 48.6037 0.0 0.0
-1.5786 52.0871 47.5997 0.0 0.0
-0.9819 53.0497 46.5689 0.0 0.0
-1.0072 53.3416 46.2575 0.0 0.0
-1.321 53.2466 46.3588 0.0 0.0
-1.2844 52.9587 46.666 0.0 0.0
-1.9072 51.9689 47.7268 0.0 0.0
-2.5427 51.0123 48.759 0.0 0.0
-3.1916 50.0879 49.7635 0.0 0.0
-3.8537 49.1936 50.7423 0.0 0.0
-4.5297 48.3287 51.6959 0.0 0.0
-5.2193 47.4918 52.6256 0.0 0.0
-5.9233 46.6818 53.5326 0.0 0.0
-6.6414 45.8982 54.4171 0.0 0.0
-7.3742 45.1398 55.2802 0.0 0.0
-8.1215 44.4064 56.122 0.0 0.0
-8.2985 44.4932 56.0219 0.0 0.0
-8.1721 44.9179 55.5341 0.0 0.0
-7.9958 44.8312 55.6334 0.0 0.0
-7.3016 45.5248 54.8411 0.0 0.0
-6.6201 46.2405 54.0297 0.0 0.0
-5.9511 46.9785 53.1996 0.0 0.0
-5.2947 47.7395 52.3497 0.0 0.0
-4.6506 48.5244 51.4795 0.0 0.0
-4.0185 49.3342 50.5879 0.0 0.0
-3.3983 50.1693 49.6748 0.0 0.0
-2.7897 51.031 48.7388 0.0 0.0
-2.1927 51.9208 47.7786 0.0 0.0
-1.607 52.8394 46.7935 0.0 0.0
-1.6429 53.1265 46.4868 0.0 0.0
-1.793 53.071 46.546 0.0 0.0
-1.9526 52.6878 46.9556 0.0 0.0
-2.5562 51.7576 47.9541 0.0 0.0
-3.1716 50.8578 48.9264 0.0 0.0
-3.7992 49.9865 49.8741 0.0 0.0
-4.4388 49.1429 50.798 0.0 0.0
-5.0912 48.3255 51.6994 0.0 0.0
-5.7559 47.5338 52.5787 0.0 0.0
-6.4338 46.7666 53.4373 0.0 0.0
-7.1244 46.0235 54.2752 0.0 0.0
-7.8285 45.3034 55.0934 0.0 0.0
-7.9983 45.4072 54.9749 0.0 0.0
-7.8039 45.9249 54.3869 0.0 0.0
-7.6411 45.8041 54.5238 0.0 0.0
-6.9294 46.5503 53.6805 0.0 0.0
-6.2313 47.3212 52.8162 0.0 0.0
-5.5466 48.1174 51.93 0.0 0.0
-4.8749 48.9401 51.0211 0.0 0.0
-4.2165 49.7897 50.0891 0.0 0.0
-3.5708 50.6676 49.1328 0.0 0.0
-2.9377 51.575 48.151 0.0 0.0
-2.317 52.5133 47.1424 0.0 0.0
-2.6649 52.6106 47.0382 0.0 0.0
-2.7949 52.5327 47.1216 0.0 0.0
-2.7377 52.2594 47.4146 0.0 0.0
-3.3679 51.3288 48.4168 0.0 0.0
-4.0107 50.4289 49.3921 0.0 0.0
-4.6663 49.5584 50.3421 0.0 0.0
-5.3348 48.7164 51.2675 0.0 0.0
-6.0165 47.9013 52.1698 0.0 0.0
-6.7116 47.1124 53.0497 0.0 0.0
-7.4203 46.3488 53.9076 0.0 0.0
-7.5823 46.4702 53.7708 0.0 0.0
-7.2787 47.1235 53.0371 0.0 0.0
-7.1243 46.9857 53.1914 0.0 0.0
-6.4412 47.7458 52.3427 0.0 0.0
-5.7708 48.5306 51.4727 0.0 0.0
-5.113 49.3409 50.5806 0.0 0.0
-4.4675 50.1776 49.6657 0.0 0.0
-3.8343 51.0419 48.7269 0.0 0.0
-3.2131 51.935 47.7632 0.0 0.0
-3.2811 52.1989 47.4796 0.0 0.0
-3.8678 51.7332 47.9805 0.0 0.0
-3.7893 51.4796 48.2538 0.0 0.0
-4.3578 50.689 49.1096 0.0 0.0
-4.9361 49.9213 49.9454 0.0 0.0
-5.5247 49.1755 50.7623 0.0 0.0
-6.1231 48.4513 51.5604 0.0 0.0
-6.7319 47.7478 52.3405 0.0 0.0
-6.8777 47.9027 52.1683 0.0 0.0
-6.6248 48.3201 51.7055 0.0 0.0
-6.1367 49.1164 50.8272 0.0 0.0
-6.0084 48.9296 51.0326 0.0 0.0
-5.3396 49.7581 50.1237 0.0 0.0
-4.6836 50.6144 49.1906 0.0 0.0
-4.6836 50.3257 48.9673 0.0 0.0
-4.783 50.5563 48.719 0.0 0.0
-4.2819 51.0493 48.19 0.0 0.0
-4.0218 51.3022 47.9193 0.0 0.0
-3.4826 51.7551 47.4358 0.0 0.0
-2.9284 52.1541 47.0108 0.0 0.0
-2.3642 52.4951 46.6486 0.0 0.0
-1.7878 52.7765 46.3501 0.0 0.0
-1.2023 52.9958 46.1179 0.0 0.0
-0.6152 53.1507 45.9542 0.0 0.0
-0.0228 53.2405 45.8593 0.0 0.0
0.5717 53.2645 45.8338 0.0 0.0
1.1658 53.2233 45.8773 0.0 0.0
1.7583 53.1155 45.9914 0.0 0.0
2.3454 52.9428 46.174 0.0 0.0
2.9273 52.7068 46.4239 0.0 0.0
3.5 52.4093 46.7397 0.0 0.0
4.0626 52.0526 47.1187 0.0 0.0
4.6123 51.6396 47.5589 0.0 0.0
5.1481 51.1722 48.0584 0.0 0.0
5.6667 50.6553 48.6128 0.0 0.0
6.1666 50.0916 49.2195 0.0 0.0
6.6448 49.4852 49.8749 0.0 0.0
7.1004 48.84 50.5757 0.0 0.0
7.5297 48.1607 51.3173 0.0 0.0
7.9312 47.4503 52.0973 0.0 0.0
8.3023 46.7153 52.9094 0.0 0.0
8.6409 45.9577 53.7521 0.0 0.0
8.9448 45.1791 54.6246 0.0 0.0
9.2095 44.3941 55.5117 0.0 0.0
9.4354 43.597 56.4203 0.0 0.0
9.5833 42.9479 57.1662 0.0 0.0
9.7698 41.9874 58.2815 0.0 0.0
9.5284 41.9495 58.3259 0.0 0.0
9.3957 42.7303 57.4177 0.0 0.0
9.2194 43.5099 56.52 0.0 0.0
9.0009 44.2864 55.634 0.0 0.0
8.7445 45.0509 54.7692 0.0 0.0
8.4497 45.8088 53.9185 0.0 0.0
8.1208 46.5462 53.097 0.0 0.0
7.76 47.262 52.3048 0.0 0.0
7.3688 47.9528 51.545 0.0 0.0
6.9504 48.6138 50.8221 0.0 0.0
6.5063 49.2413 50.1394 0.0 0.0
6.0397 49.8304 49.5014 0.0 0.0
5.5515 50.3785 48.9104 0.0 0.0
5.0452 50.8807 48.3708 0.0 0.0
4.5216 51.3343 47.885 0.0 0.0
3.9843 51.7357 47.4565 0.0 0.0
3.4341 52.0819 47.0875 0.0 0.0
2.8741 52.3708 46.7804 0.0 0.0
2.3052 52.5998 46.5373 0.0 0.0
1.7309 52.7673 46.3598 0.0 0.0
1.1513 52.8718 46.2492 0.0 0.0
0.5702 52.9126 46.206 0.0 0.0
0.2788 52.8997 46.2197 0.0 0.0
-0.0116 52.889 46.2309 0.0 0.0
-0.5912 52.8016 46.3236 0.0 0.0
-1.1654 52.6512 46.4829 0.0 0.0
-1.7381 52.4384 46.7087 0.0 0.0
-2.3019 52.1652 46.999 0.0 0.0
-2.8533 51.8338 47.3517 0.0 0.0
-3.3952 51.4463 47.7653 0.0 0.0
-3.9221 51.0072 48.2352 0.0 0.0
-4.4327 50.5177 48.7606 0.0 0.0
-4.9262 49.9814 49.3383 0.0 0.0
-5.3992 49.4024 49.9646 0.0 0.0
-5.8492 48.7849 50.6357 0.0 0.0
-6.275 48.1324 51.3483 0.0 0.0
-6.6732 47.4502 52.0973 0.0 0.0
-7.0426 46.7398 52.8821 0.0 0.0
-7.3804 46.0083 53.6957 0.0 0.0
-7.6839 45.2583 54.5356 0.0 0.0
-7.9512 44.4934 55.3991 0.0 0.0
-8.1803 43.7189 56.2807 0.0 0.0
-8.3682 42.9394 57.1762 0.0 0.0
-8.5126 42.1586 58.0817 0.0 0.0
-8.612 41.3808 58.9934 0.0 0.0
-8.6639 40.6094 59.9078 0.0 0.0
-8.6662 39.8491 60.8197 0.0 0.0
-8.6169 39.103 61.726 0.0 0.0
-8.5154 38.3762 62.6208 0.0 0.0
-8.3594 37.6725 63.4996 0.0 0.0
-8.1478 36.9946 64.3587 0.0 0.0
-7.8809 36.3459 65.1935 0.0 0.0
-7.5574 35.7306 65.9981 0.0 0.0
-7.1786 35.1513 66.768 0.0 0.0
-6.7444 34.6109 67.4985 0.0 0.0
-6.2563 34.1112 68.1853 0.0 0.0
-5.7164 33.6551 68.8226 0.0 0.0
-5.1285 33.2449 69.4051 0.0 0.0
-4.4945 32.8818 69.9285 0.0 0.0
-3.8198 32.5675 70.3884 0.0 0.0
-3.1056 32.3015 70.7825 0.0 0.0
-2.3663 32.089 71.1008 0.0 0.0
-1.5983 31.9261 71.3471 0.0 0.0
-0.8134 31.8149 71.5165 0.0 0.0
-0.0156 31.7558 71.6069 0.0 0.0
0.7856 31.7488 71.6177 0.0 0.0
1.5846 31.794 71.5484 0.0 0.0
2.3748 31.8913 71.4002 0.0 0.0
3.148 32.0403 71.1743 0.0 0.0
3.897 32.2403 70.8737 0.0 0.0
4.6167 32.4916 70.5001 0.0 0.0
5.3024 32.7929 70.0579 0.0 0.0
5.9469 33.1429 69.5513 0.0 0.0
6.5483 33.5407 68.9839 0.0 0.0
7.1008 33.9844 68.3614 0.0 0.0
7.6029 34.4726 67.6874 0.0 0.0
8.0517 35.0027 66.9678 0.0 0.0
8.4458 35.5716 66.2082 0.0 0.0
8.7838 36.1777 65.4122 0.0 0.0
9.0663 36.8178 64.5849 0.0 0.0
9.2926 37.4887 63.7311 0.0 0.0
9.4636 38.1859 62.8571 0.0 0.0
9.5796 38.9064 61.9668 0.0 0.0
9.6425 39.6473 61.0636 0.0 0.0
9.654 40.4047 60.1522 0.0 0.0
9.6153 41.1726 59.2392 0.0 0.0
9.5284 41.9495 58.3259 0.0 0.0
9.4472 41.9571 58.3169 0.0 0.0
9.7213 41.9884 58.2805 0.0 0.0
9.5836 42.7865 57.3528 0.0 0.0
9.4015 43.5835 56.4356 0.0 0.0
9.1765 44.3772 55.5308 0.0 0.0
8.9133 45.1589 54.6474 0.0 0.0
8.6107 45.934 53.7785 0.0 0.0
8.2738 46.6886 52.9389 0.0 0.0
7.9045 47.4209 52.1296 0.0 0.0
7.5044 48.1279 51.3531 0.0 0.0
7.0768 48.8046 50.6142 0.0 0.0
6.6232 49.4469 49.9164 0.0 0.0
6.1468 50.0503 49.264 0.0 0.0
5.6486 50.6118 48.6595 0.0 0.0
5.1321 51.1262 48.1076 0.0 0.0
4.5982 51.5911 47.6107 0.0 0.0
4.0504 52.0027 47.1719 0.0 0.0
3.4896 52.3576 46.7946 0.0 0.0
2.9189 52.654 46.48 0.0 0.0
2.3391 52.8888 46.2312 0.0 0.0
1.7541 53.0606 46.0494 0.0 0.0
1.1636 53.1676 45.9363 0.0 0.0
0.5715 53.2094 45.8921 0.0 0.0
0.2749 53.1963 45.9059 0.0 0.0
-0.0211 53.1854 45.9175 0.0 0.0
-0.6115 53.0956 46.0124 0.0 0.0
-1.1965 52.9414 46.1755 0.0 0.0
-1.78 52.7231 46.4068 0.0 0.0
-2.3544 52.4431 46.7037 0.0 0.0
-2.9166 52.1034 47.0648 0.0 0.0
-3.4688 51.7061 47.488 0.0 0.0
-4.0062 51.2559 47.9688 0.0 0.0
-4.5271 50.7542 48.5065 0.0 0.0
-5.0306 50.205 49.0972 0.0 0.0
-5.5135 49.612 49.7377 0.0 0.0
-5.9731 48.9795 50.4238 0.0 0.0
-6.4082 48.3116 51.1521 0.0 0.0
-6.8154 47.6136 51.9176 0.0 0.0
-7.1935 46.8865 52.7197 0.0 0.0
-7.5393 46.1383 53.5507 0.0 0.0
-7.8506 45.371 54.4091 0.0 0.0
-8.1251 44.5889 55.2908 0.0 0.0
-8.3608 43.7971 56.1913 0.0 0.0
-8.5545 43.0 57.1063 0.0 0.0
-8.7042 42.2021 58.031 0.0 0.0
-8.808 41.4072 58.9624 0.0 0.0
-8.8632 40.619 59.8963 0.0 0.0
-8.8682 39.842 60.8282 0.0 0.0
-8.8204 39.0799 61.7543 0.0 0.0
-8.719 38.3375 62.6687 0.0 0.0
-8.562 37.6186 63.5674 0.0 0.0
-8.3481 36.9264 64.4457 0.0 0.0
-8.0774 36.2641 65.2997 0.0 0.0
-7.7487 35.6358 66.1232 0.0 0.0
-7.3628 35.0445 66.9115 0.0 0.0
-6.9202 34.4929 67.6596 0.0 0.0
-6.422 33.983 68.3632 0.0 0.0
-5.8704 33.5179 69.0163 0.0 0.0
-5.2691 33.0994 69.6137 0.0 0.0
-4.6205 32.7293 70.1509 0.0 0.0
-3.9296 32.4089 70.6227 0.0 0.0
-3.1978 32.1379 71.0273 0.0 0.0
-2.4399 31.9216 71.354 0.0 0.0
-1.6523 31.7556 71.6072 0.0 0.0
-0.8472 31.6424 71.7811 0.0 0.0
-0.0289 31.5822 71.8741 0.0 0.0
0.7932 31.5751 71.885 0.0 0.0
1.6129 31.6212 71.8139 0.0 0.0
2.4236 31.7201 71.6617 0.0 0.0
3.2164 31.8719 71.4296 0.0 0.0
3.9843 32.0756 71.1211 0.0 0.0
4.722 32.3317 70.7373 0.0 0.0
5.4241 32.6387 70.2836 0.0 0.0
6.0838 32.9956 69.7637 0.0 0.0
6.6988 33.4012 69.1818 0.0 0.0
7.2635 33.8536 68.5438 0.0 0.0
7.7763 34.3518 67.8531 0.0 0.0
8.234 34.8928 67.116 0.0 0.0
8.6352 35.4734 66.3385 0.0 0.0
8.9791 36.0922 65.5237 0.0 0.0
9.2657 36.7458 64.6773 0.0 0.0
9.4948 37.4308 63.8043 0.0 0.0
9.6671 38.143 62.9107 0.0 0.0
9.7831 38.8789 62.0005 0.0 0.0
9.8449 39.636 61.0774 0.0 0.0
9.8543 40.4096 60.1464 0.0 0.0
9.8123 41.1944 59.2134 0.0 0.0
9.7213 41.9884 58.2805 0.0 0.0
9.4472 41.9571 58.3169 0.0 0.0
9.3546 41.9152 58.3661 0.0 0.0
9.2265 42.6802 57.4758 0.0 0.0
9.0552 43.4439 56.5956 0.0 0.0
8.8422 44.2048 55.7266 0.0 0.0
8.5927 44.9537 54.8787 0.0 0.0
8.3044 45.6961 54.0445 0.0 0.0
7.9826 46.4188 53.2385 0.0 0.0
7.6293 47.12 52.4616 0.0 0.0
7.2463 47.796 51.7171 0.0 0.0
7.044 48.1123 51.3703 0.0 0.0
7.0429 48.1185 51.3635 0.0 0.0
6.8367 48.4425 51.0091 0.0 0.0
6.4006 49.0569 50.3396 0.0 0.0
5.9428 49.6337 49.7141 0.0 0.0
5.4635 50.1698 49.1351 0.0 0.0
4.9666 50.6608 48.6068 0.0 0.0
4.4523 51.1043 48.1311 0.0 0.0
3.9246 51.497 47.7112 0.0 0.0
3.385 51.8345 47.3511 0.0 0.0
2.8337 52.1176 47.0497 0.0 0.0
2.2743 52.3411 46.812 0.0 0.0
1.7101 52.5052 46.6378 0.0 0.0
1.14 52.6071 46.5296 0.0 0.0
0.5686 52.6466 46.4878 0.0 0.0
0.2825 52.6341 46.501 0.0 0.0
-0.0031 52.6238 46.5119 0.0 0.0
-0.5729 52.5384 46.6027 0.0 0.0
-1.1368 52.3914 46.7586 0.0 0.0
-1.6978 52.184 46.979 0.0 0.0
-2.2542 51.9169 47.2632 0.0 0.0
-2.7967 51.5928 47.6089 0.0 0.0
-3.3281 51.2142 48.0134 0.0 0.0
-3.8455 50.7848 48.4736 0.0 0.0
-4.347 50.3056 48.9888 0.0 0.0
-4.8315 49.7816 49.5543 0.0 0.0
-5.2957 49.2146 50.1683 0.0 0.0
-5.737 48.6105 50.8257 0.0 0.0
-6.1548 47.9718 51.5241 0.0 0.0
-6.5448 47.3045 52.2579 0.0 0.0
-6.9066 46.6081 53.0281 0.0 0.0
-7.2361 45.8933 53.8239 0.0 0.0
-7.5336 45.1576 54.6489 0.0 0.0
-7.7942 44.4088 55.4951 0.0 0.0
-8.0175 43.6492 56.3605 0.0 0.0
-8.1999 42.8845 57.2394 0.0 0.0
-8.3397 42.1204 58.1262 0.0 0.0
-8.4353 41.3577 59.0207 0.0 0.0
-8.4838 40.6022 59.9164 0.0 0.0
-8.4843 39.8564 60.8108 0.0 0.0
-8.434 39.1242 61.7 0.0 0.0
-8.3324 38.412 62.5765 0.0 0.0
-8.1772 37.7218 63.4376 0.0 0.0
-7.9681 37.0569 64.2792 0.0 0.0
-7.7047 36.421 65.0962 0.0 0.0
-7.3859 35.817 65.8843 0.0 0.0
-7.013 35.2483 66.6384 0.0 0.0
-6.5865 34.7182 67.3524 0.0 0.0
-6.1076 34.2272 68.0249 0.0 0.0
-5.5785 33.7797 68.6474 0.0 0.0
-5.0021 33.3766 69.217 0.0 0.0
-4.3821 33.0202 69.7281 0.0 0.0
-3.7229 32.7118 70.1764 0.0 0.0
-3.0237 32.4496 70.5625 0.0 0.0
-2.3006 32.2412 70.8725 0.0 0.0
-1.5492 32.0808 71.1131 0.0 0.0
-0.7832 31.9715 71.2784 0.0 0.0
-0.0038 31.9133 71.3666 0.0 0.0
0.7785 31.9065 71.3768 0.0 0.0
1.5591 31.9508 71.3097 0.0 0.0
2.3313 32.0464 71.1651 0.0 0.0
3.0867 32.1932 70.9444 0.0 0.0
3.8186 32.3894 70.6515 0.0 0.0
4.5222 32.6366 70.2866 0.0 0.0
5.1934 32.9326 69.8549 0.0 0.0
5.8244 33.2765 69.3597 0.0 0.0
6.4132 33.6671 68.8056 0.0 0.0
6.9546 34.1025 68.1972 0.0 0.0
7.4475 34.5819 67.5382 0.0 0.0
7.8885 35.1026 66.8333 0.0 0.0
8.2756 35.6602 66.091 0.0 0.0
8.6085 36.2551 65.3115 0.0 0.0
8.8872 36.8825 64.5019 0.0 0.0
9.111 37.5413 63.6648 0.0 0.0
9.2815 38.2285 62.8042 0.0 0.0
9.3963 38.9316 61.9359 0.0 0.0
9.4601 39.6582 61.0504 0.0 0.0
9.4738 40.4007 60.157 0.0 0.0
9.4379 41.1537 59.2614 0.0 0.0
9.3546 41.9152 58.3661 0.0 0.0
9.4514 41.93 58.3488 0.0 0.0
9.3091 42.7045 57.4476 0.0 0.0
9.1354 43.4761 56.5588 0.0 0.0
8.92 44.2447 55.6813 0.0 0.0
8.6669 45.0012 54.8251 0.0 0.0
8.3753 45.7512 53.9828 0.0 0.0
