Henry99C/3DPrinting_NonPlanarSurfaces_DobotMagician/data_planar/data1/output/angle_values.txt
J1 J2 J3 J5 J6
-13.0217 32.7472 71.1835 0.0 0.0
-12.089 32.3082 71.8676 0.0 0.0
-11.1369 31.8889 72.537 0.0 0.0
-11.2953 31.9127 72.4987 0.0 0.0
-11.5253 31.9547 72.431 0.0 0.0
-11.7491 32.0104 72.3415 0.0 0.0
-11.9652 32.0794 72.2309 0.0 0.0
-12.1721 32.1614 72.1003 0.0 0.0
-12.3684 32.2558 71.9506 0.0 0.0
-12.5527 32.3623 71.7826 0.0 0.0
-12.7238 32.4801 71.5979 0.0 0.0
-12.8803 32.6087 71.3976 0.0 0.0
-13.0217 32.7472 71.1835 0.0 0.0
-13.1471 32.8949 70.957 0.0 0.0
-13.2555 33.0507 70.7197 0.0 0.0
-13.3464 33.214 70.473 0.0 0.0
-13.4196 33.3834 70.2189 0.0 0.0
-13.4748 33.5582 69.9589 0.0 0.0
-13.5116 33.7372 69.695 0.0 0.0
-13.5301 33.9191 69.4285 0.0 0.0
-13.5303 34.1028 69.1618 0.0 0.0
-13.5127 34.2874 68.8956 0.0 0.0
-13.4719 34.4929 68.6014 0.0 0.0
-13.4401 34.6158 68.4265 0.0 0.0
-13.1878 35.5337 67.1454 0.0 0.0
-12.9447 36.48 65.8638 0.0 0.0
-12.7103 37.4539 64.5806 0.0 0.0
-12.4839 38.4551 63.2933 0.0 0.0
-12.2654 39.484 62.0 0.0 0.0
-12.0544 40.5403 60.6991 0.0 0.0
-11.8504 41.6249 59.3884 0.0 0.0
-11.6531 42.7378 58.0662 0.0 0.0
-11.4622 43.8803 56.7305 0.0 0.0
-11.2773 45.0536 55.3787 0.0 0.0
-11.0983 46.2587 54.0092 0.0 0.0
-10.9248 47.4976 52.6192 0.0 0.0
-10.7563 48.7723 51.2058 0.0 0.0
-10.5931 50.0851 49.7666 0.0 0.0
-10.4348 51.4392 48.2975 0.0 0.0
-10.281 52.8375 46.7954 0.0 0.0
-10.258 53.0382 46.5811 0.0 0.0
-10.2184 53.3246 46.2756 0.0 0.0
-10.1662 53.6069 45.975 0.0 0.0
-10.1013 53.8829 45.6818 0.0 0.0
-10.0245 54.1508 45.3974 0.0 0.0
-9.9362 54.4087 45.1243 0.0 0.0
-9.8372 54.6553 44.8635 0.0 0.0
-9.7281 54.8883 44.6175 0.0 0.0
-9.6097 55.1064 44.3873 0.0 0.0
-9.4825 55.3083 44.1747 0.0 0.0
-9.3475 55.4917 43.9816 0.0 0.0
-9.2055 55.6563 43.8087 0.0 0.0
-9.0573 55.8001 43.6575 0.0 0.0
-8.9038 55.9225 43.5291 0.0 0.0
-8.7458 56.0226 43.4243 0.0 0.0
-8.5846 56.0993 43.3437 0.0 0.0
-8.4207 56.1522 43.2883 0.0 0.0
-8.2553 56.1809 43.2582 0.0 0.0
-8.0891 56.185 43.2539 0.0 0.0
-7.9062 56.1616 43.2784 0.0 0.0
-7.7954 56.137 43.3043 0.0 0.0
-6.9848 55.9373 43.5136 0.0 0.0
-6.1715 55.7604 43.6994 0.0 0.0
-5.3556 55.6059 43.8617 0.0 0.0
-4.5374 55.4737 44.0007 0.0 0.0
-3.7176 55.3637 44.1164 0.0 0.0
-2.896 55.2757 44.2089 0.0 0.0
-2.0733 55.2098 44.2785 0.0 0.0
-1.2499 55.1657 44.3249 0.0 0.0
-0.4258 55.1435 44.3483 0.0 0.0
0.3985 55.1431 44.3486 0.0 0.0
1.2224 55.1643 44.3263 0.0 0.0
2.046 55.2076 44.2806 0.0 0.0
2.8686 55.2729 44.212 0.0 0.0
3.6902 55.3601 44.1202 0.0 0.0
4.5102 55.4693 44.0052 0.0 0.0
5.3283 55.6008 43.867 0.0 0.0
6.1443 55.7545 43.7055 0.0 0.0
6.9579 55.9308 43.5205 0.0 0.0
7.7685 56.1297 43.312 0.0 0.0
8.5761 56.3515 43.0797 0.0 0.0
8.6955 56.3834 43.0462 0.0 0.0
8.8604 56.4156 43.0126 0.0 0.0
9.0261 56.4231 43.0046 0.0 0.0
9.1918 56.4061 43.0225 0.0 0.0
9.3561 56.3646 43.0659 0.0 0.0
9.5184 56.2989 43.1346 0.0 0.0
9.6777 56.2096 43.2281 0.0 0.0
9.8332 56.0973 43.3459 0.0 0.0
9.9837 55.9631 43.4866 0.0 0.0
10.1284 55.8073 43.65 0.0 0.0
10.2668 55.6321 43.8341 0.0 0.0
10.3976 55.4378 44.0384 0.0 0.0
10.52 55.2262 44.2611 0.0 0.0
10.6335 54.9989 44.5008 0.0 0.0
10.7372 54.7572 44.7558 0.0 0.0
10.8306 54.5034 45.0242 0.0 0.0
10.9128 54.2384 45.3046 0.0 0.0
10.9833 53.9648 45.5948 0.0 0.0
11.0417 53.684 45.8931 0.0 0.0
11.0923 53.3605 46.2374 0.0 0.0
11.1167 53.1669 46.4436 0.0 0.0
11.2822 51.7621 47.9494 0.0 0.0
11.4526 50.4022 49.4212 0.0 0.0
11.6282 49.0843 50.8625 0.0 0.0
11.8092 47.805 52.2768 0.0 0.0
11.9958 46.562 53.6674 0.0 0.0
12.1883 45.3528 55.0371 0.0 0.0
12.387 44.1761 56.3879 0.0 0.0
12.592 43.0303 57.7224 0.0 0.0
12.804 41.9142 59.0426 0.0 0.0
13.0231 40.8266 60.3509 0.0 0.0
13.2497 39.7673 61.6486 0.0 0.0
13.4842 38.7356 62.9379 0.0 0.0
13.7269 37.7313 64.2208 0.0 0.0
13.9784 36.7543 65.499 0.0 0.0
14.2391 35.8046 66.7746 0.0 0.0
14.5095 34.8831 68.0492 0.0 0.0
14.5465 34.7549 68.2298 0.0 0.0
14.5912 34.5705 68.4909 0.0 0.0
14.6185 34.385 68.7555 0.0 0.0
14.6279 34.1995 69.0219 0.0 0.0
14.6195 34.0153 69.2886 0.0 0.0
14.5927 33.8334 69.5539 0.0 0.0
14.5478 33.655 69.816 0.0 0.0
14.4848 33.4813 70.0731 0.0 0.0
14.4038 33.3133 70.3238 0.0 0.0
14.3052 33.1522 70.5661 0.0 0.0
14.1895 32.9987 70.7986 0.0 0.0
14.0574 32.854 71.0195 0.0 0.0
13.9096 32.719 71.2271 0.0 0.0
13.7467 32.5942 71.4201 0.0 0.0
13.5704 32.4806 71.5971 0.0 0.0
13.3812 32.3787 71.7567 0.0 0.0
13.1807 32.289 71.8979 0.0 0.0
12.9704 32.2124 72.0192 0.0 0.0
12.7513 32.1489 72.1201 0.0 0.0
12.4947 32.0933 72.2087 0.0 0.0
12.3404 32.0666 72.2515 0.0 0.0
11.1992 31.8975 72.5233 0.0 0.0
10.049 31.7459 72.7694 0.0 0.0
8.8906 31.6116 72.9894 0.0 0.0
7.7247 31.4944 73.1829 0.0 0.0
6.5527 31.3943 73.3495 0.0 0.0
5.3748 31.311 73.4891 0.0 0.0
4.1924 31.2444 73.6011 0.0 0.0
3.0064 31.1944 73.6855 0.0 0.0
1.8178 31.161 73.7422 0.0 0.0
0.6277 31.1441 73.771 0.0 0.0
-0.563 31.1438 73.7714 0.0 0.0
-1.7532 31.1598 73.7442 0.0 0.0
-2.9419 31.1923 73.689 0.0 0.0
-4.1281 31.2414 73.6061 0.0 0.0
-5.3104 31.3071 73.4956 0.0 0.0
-6.4885 31.3895 73.3576 0.0 0.0
-7.6612 31.4887 73.1923 0.0 0.0
-8.8274 31.6049 73.0003 0.0 0.0
-9.9863 31.7383 72.7817 0.0 0.0
-11.1369 31.8889 72.537 0.0 0.0
-11.0882 32.0539 72.2716 0.0 0.0
-11.2459 32.0778 72.2336 0.0 0.0
-11.4653 32.1185 72.1684 0.0 0.0
-11.6789 32.1729 72.0819 0.0 0.0
-11.8849 32.2407 71.9743 0.0 0.0
-12.0813 32.3214 71.8469 0.0 0.0
-12.2672 32.4145 71.7005 0.0 0.0
-12.4409 32.5196 71.5363 0.0 0.0
-12.6013 32.6359 71.3555 0.0 0.0
-12.7472 32.7627 71.1598 0.0 0.0
-12.8774 32.8991 70.9506 0.0 0.0
-12.9915 33.0441 70.7296 0.0 0.0
-13.0888 33.1972 70.4982 0.0 0.0
-13.1684 33.357 70.2585 0.0 0.0
-13.23 33.5226 70.0119 0.0 0.0
-13.2736 33.6927 69.7603 0.0 0.0
-13.2989 33.8662 69.5058 0.0 0.0
-13.3059 34.0421 69.2497 0.0 0.0
-13.295 34.2189 68.994 0.0 0.0
-13.2524 34.4548 68.6557 0.0 0.0
-13.2225 34.5726 68.4881 0.0 0.0
-12.9741 35.4897 67.2058 0.0 0.0
-12.7347 36.4354 65.9234 0.0 0.0
-12.5039 37.4086 64.6394 0.0 0.0
-12.2809 38.4094 63.3514 0.0 0.0
-12.0658 39.4377 62.0575 0.0 0.0
-11.8581 40.4934 60.7563 0.0 0.0
-11.6573 41.5771 59.4455 0.0 0.0
-11.463 42.6896 58.123 0.0 0.0
-11.2751 43.8314 56.7873 0.0 0.0
-11.0931 45.0039 55.4355 0.0 0.0
-10.9168 46.2085 54.066 0.0 0.0
-10.7461 47.4464 52.6762 0.0 0.0
-10.5803 48.72 51.2636 0.0 0.0
-10.4197 50.0319 49.8245 0.0 0.0
-10.2638 51.3845 48.3565 0.0 0.0
-10.1125 52.7818 46.855 0.0 0.0
-10.0898 52.9823 46.6407 0.0 0.0
-10.052 53.2567 46.348 0.0 0.0
-10.0015 53.5268 46.0603 0.0 0.0
-9.9384 53.7903 45.7802 0.0 0.0
-9.8633 54.0453 45.5094 0.0 0.0
-9.7768 54.2902 45.2498 0.0 0.0
-9.6798 54.5232 45.0031 0.0 0.0
-9.5726 54.7422 44.7717 0.0 0.0
-9.4561 54.946 44.5564 0.0 0.0
-9.3314 55.1325 44.3599 0.0 0.0
-9.1988 55.3008 44.1826 0.0 0.0
-9.0596 55.449 44.0265 0.0 0.0
-8.9146 55.5767 43.8922 0.0 0.0
-8.7647 55.6822 43.7815 0.0 0.0
-8.6108 55.7648 43.6946 0.0 0.0
-8.4541 55.8241 43.6325 0.0 0.0
-8.2954 55.8595 43.5954 0.0 0.0
-8.1356 55.8706 43.5837 0.0 0.0
-7.9245 55.8477 43.6076 0.0 0.0
-7.8181 55.8244 43.6321 0.0 0.0
-7.0053 55.6258 43.8408 0.0 0.0
-6.1897 55.4497 44.0259 0.0 0.0
-5.3715 55.2959 44.1877 0.0 0.0
-4.5512 55.1644 44.3262 0.0 0.0
-3.729 55.0549 44.4416 0.0 0.0
-2.9052 54.9674 44.534 0.0 0.0
-2.0802 54.9017 44.6032 0.0 0.0
-1.2544 54.8578 44.6495 0.0 0.0
-0.4281 54.8357 44.6729 0.0 0.0
0.3985 54.8353 44.6733 0.0 0.0
1.2248 54.8564 44.6511 0.0 0.0
2.0507 54.8995 44.6056 0.0 0.0
2.8757 54.9643 44.5371 0.0 0.0
3.6995 55.0511 44.4457 0.0 0.0
4.5218 55.1598 44.3311 0.0 0.0
5.3422 55.2905 44.1933 0.0 0.0
6.1604 55.4435 44.0325 0.0 0.0
6.9761 55.6187 43.8481 0.0 0.0
7.789 55.8166 43.6403 0.0 0.0
8.5987 56.0372 43.4089 0.0 0.0
8.7185 56.0689 43.3755 0.0 0.0
8.8773 56.099 43.344 0.0 0.0
9.0367 56.1049 43.3379 0.0 0.0
9.1958 56.0862 43.3575 0.0 0.0
9.3537 56.0429 43.4028 0.0 0.0
9.5094 55.9761 43.4729 0.0 0.0
9.6618 55.8858 43.5676 0.0 0.0
9.81 55.7727 43.6864 0.0 0.0
9.953 55.6375 43.8283 0.0 0.0
10.0899 55.4821 43.9918 0.0 0.0
10.2198 55.307 44.176 0.0 0.0
10.3419 55.1139 44.3795 0.0 0.0
10.4553 54.9041 44.6007 0.0 0.0
10.5592 54.6793 44.838 0.0 0.0
10.6529 54.4411 45.0899 0.0 0.0
10.7355 54.1915 45.3544 0.0 0.0
10.8068 53.9322 45.6293 0.0 0.0
10.866 53.6648 45.9134 0.0 0.0
10.9256 53.2959 46.3061 0.0 0.0
10.9488 53.1106 46.5037 0.0 0.0
11.1118 51.7071 48.0087 0.0 0.0
11.2798 50.3483 49.4797 0.0 0.0
11.4529 49.0315 50.9205 0.0 0.0
11.6312 47.7529 52.3348 0.0 0.0
11.8152 46.5107 53.725 0.0 0.0
12.0049 45.3023 55.0946 0.0 0.0
12.2008 44.1264 56.4454 0.0 0.0
12.4029 42.981 57.7802 0.0 0.0
12.6118 41.8655 59.1006 0.0 0.0
12.8278 40.7787 60.4089 0.0 0.0
13.0512 39.7198 61.7073 0.0 0.0
13.2824 38.6887 62.9972 0.0 0.0
13.5217 37.6847 64.281 0.0 0.0
13.7697 36.7083 65.5599 0.0 0.0
14.0268 35.7593 66.8365 0.0 0.0
14.2934 34.8384 68.1121 0.0 0.0
14.3299 34.7103 68.2928 0.0 0.0
14.3717 34.5335 68.5436 0.0 0.0
14.3959 34.3556 68.7977 0.0 0.0
14.4023 34.1778 69.0533 0.0 0.0
14.3906 34.0012 69.309 0.0 0.0
14.3609 33.8272 69.563 0.0 0.0
14.3131 33.657 69.813 0.0 0.0
14.2469 33.4916 70.0579 0.0 0.0
14.1633 33.3323 70.2954 0.0 0.0
14.0622 33.18 70.5241 0.0 0.0
13.9445 33.036 70.7419 0.0 0.0
13.8105 32.9009 70.9478 0.0 0.0
13.6615 32.7758 71.1394 0.0 0.0
13.4985 32.6616 71.3157 0.0 0.0
13.3223 32.5586 71.4755 0.0 0.0
13.1342 32.4678 71.617 0.0 0.0
12.9361 32.3898 71.7394 0.0 0.0
12.7291 32.3247 71.8418 0.0 0.0
12.4376 32.2584 71.9463 0.0 0.0
12.29 32.2327 71.9871 0.0 0.0
11.1535 32.0629 72.2572 0.0 0.0
10.008 31.9107 72.5019 0.0 0.0
8.8542 31.7758 72.7205 0.0 0.0
7.6933 31.6582 72.9129 0.0 0.0
6.526 31.5575 73.0784 0.0 0.0
5.3533 31.4738 73.2171 0.0 0.0
4.1758 31.4069 73.3285 0.0 0.0
2.995 31.3567 73.4124 0.0 0.0
1.8116 31.3231 73.4687 0.0 0.0
0.6265 31.3061 73.4973 0.0 0.0
-0.5589 31.3057 73.4978 0.0 0.0
-1.7439 31.3218 73.4708 0.0 0.0
-2.9274 31.3545 73.4161 0.0 0.0
-4.1083 31.4037 73.3337 0.0 0.0
-5.2861 31.4697 73.2239 0.0 0.0
-6.4591 31.5525 73.0869 0.0 0.0
-7.6267 31.6521 72.9228 0.0 0.0
-8.7882 31.7688 72.7319 0.0 0.0
-9.9422 31.9027 72.5148 0.0 0.0
-11.0882 32.0539 72.2716 0.0 0.0
-11.0398 32.2203 72.0067 0.0 0.0
-11.1969 32.2442 71.9688 0.0 0.0
-11.4059 32.2836 71.9066 0.0 0.0
-11.6086 32.3367 71.8227 0.0 0.0
-11.8038 32.4031 71.7183 0.0 0.0
-11.9895 32.4824 71.5941 0.0 0.0
-12.1645 32.5742 71.4512 0.0 0.0
-12.3272 32.6777 71.2908 0.0 0.0
-12.4764 32.7921 71.1146 0.0 0.0
-12.611 32.9169 70.9234 0.0 0.0
-12.7298 33.0509 70.7195 0.0 0.0
-12.8322 33.1933 70.5042 0.0 0.0
-12.9175 33.3429 70.2795 0.0 0.0
-12.9851 33.4989 70.0469 0.0 0.0
-13.0347 33.6598 69.8088 0.0 0.0
-13.0662 33.8246 69.5666 0.0 0.0
-13.0793 33.9922 69.3223 0.0 0.0
-13.0743 34.1609 69.0777 0.0 0.0
-13.0517 34.3298 68.8347 0.0 0.0
-13.0327 34.4175 68.709 0.0 0.0
-13.0045 34.53 68.5485 0.0 0.0
-12.76 35.4467 67.265 0.0 0.0
-12.5243 36.3915 65.9821 0.0 0.0
-12.2971 37.3643 64.6971 0.0 0.0
-12.0777 38.3644 63.4088 0.0 0.0
-11.866 39.3921 62.1145 0.0 0.0
-11.6615 40.4471 60.8129 0.0 0.0
-11.4638 41.5304 59.5017 0.0 0.0
-11.2727 42.642 58.1792 0.0 0.0
-11.0877 43.7833 56.8432 0.0 0.0
-10.9087 44.9551 55.4915 0.0 0.0
-10.7352 46.1586 54.1224 0.0 0.0
-10.5672 47.3959 52.7327 0.0 0.0
-10.4041 48.6685 51.3205 0.0 0.0
-10.246 49.9793 49.8819 0.0 0.0
-10.0927 51.3308 48.4146 0.0 0.0
-9.9438 52.7268 46.914 0.0 0.0
-9.9214 52.9271 46.6998 0.0 0.0
-9.8855 53.1891 46.42 0.0 0.0
-9.8366 53.4465 46.1458 0.0 0.0
-9.7753 53.6969 45.8794 0.0 0.0
-9.7021 53.9388 45.6224 0.0 0.0
-9.6175 54.1702 45.377 0.0 0.0
-9.5222 54.3887 45.1455 0.0 0.0
-9.4172 54.5932 44.929 0.0 0.0
-9.3029 54.7817 44.7299 0.0 0.0
-9.1806 54.9525 44.5497 0.0 0.0
-9.0508 55.1043 44.3896 0.0 0.0
-8.9147 55.2358 44.2509 0.0 0.0
-8.7732 55.346 44.1349 0.0 0.0
-8.6273 55.4338 44.0425 0.0 0.0
-8.4781 55.4988 43.9742 0.0 0.0
-8.3265 55.5397 43.9313 0.0 0.0
-8.1735 55.5566 43.9135 0.0 0.0
-8.0205 55.5493 43.921 0.0 0.0
-7.9429 55.5366 43.9345 0.0 0.0
-7.8408 55.5143 43.958 0.0 0.0
-7.0259 55.3166 44.1659 0.0 0.0
-6.2079 55.1414 44.3505 0.0 0.0
-5.3876 54.9884 44.5118 0.0 0.0
-4.5649 54.8575 44.65 0.0 0.0
-3.7404 54.7485 44.765 0.0 0.0
-2.9144 54.6614 44.8571 0.0 0.0
-2.087 54.596 44.9262 0.0 0.0
-1.259 54.5523 44.9723 0.0 0.0
-0.4302 54.5303 44.9957 0.0 0.0
0.3986 54.5299 44.9961 0.0 0.0
1.2272 54.5508 44.974 0.0 0.0
2.0555 54.5936 44.9286 0.0 0.0
2.8828 54.6582 44.8605 0.0 0.0
3.709 54.7445 44.7693 0.0 0.0
4.5335 54.8526 44.6551 0.0 0.0
5.3562 54.9827 44.5178 0.0 0.0
6.1767 55.1348 44.3574 0.0 0.0
6.9946 55.3092 44.1737 0.0 0.0
7.8098 55.506 43.9666 0.0 0.0
8.6217 55.7254 43.736 0.0 0.0
8.7418 55.757 43.7028 0.0 0.0
8.8939 55.7852 43.6732 0.0 0.0
9.0468 55.789 43.6692 0.0 0.0
9.1992 55.7687 43.6907 0.0 0.0
9.3501 55.7238 43.7378 0.0 0.0
9.4986 55.6554 43.8096 0.0 0.0
9.6438 55.564 43.9057 0.0 0.0
9.7842 55.45 44.0255 0.0 0.0
9.9191 55.3146 44.168 0.0 0.0
10.0477 55.159 44.332 0.0 0.0
10.1686 54.9846 44.5158 0.0 0.0
10.2814 54.7928 44.7183 0.0 0.0
10.3848 54.585 44.9377 0.0 0.0
10.4784 54.3633 45.1724 0.0 0.0
10.5613 54.1292 45.4205 0.0 0.0
10.6327 53.8847 45.6798 0.0 0.0
10.6921 53.6317 45.9486 0.0 0.0
10.7391 53.3723 46.2248 0.0 0.0
10.7588 53.2323 46.3739 0.0 0.0
10.7806 53.0552 46.5629 0.0 0.0
10.9413 51.6527 48.0673 0.0 0.0
11.1068 50.2954 49.5374 0.0 0.0
11.2773 48.9793 50.978 0.0 0.0
11.4531 47.7017 52.3918 0.0 0.0
11.6343 46.4603 53.7818 0.0 0.0
11.8213 45.2527 55.1513 0.0 0.0
12.0143 44.0774 56.5019 0.0 0.0
12.2134 42.9327 57.8369 0.0 0.0
12.4194 41.8176 59.1577 0.0 0.0
12.6322 40.7315 60.4664 0.0 0.0
12.8524 39.6731 61.7652 0.0 0.0
13.0803 38.6424 63.0559 0.0 0.0
13.3162 37.6392 64.34 0.0 0.0
13.5606 36.6631 65.6199 0.0 0.0
13.814 35.7149 66.8971 0.0 0.0
14.0769 34.7944 68.1739 0.0 0.0
14.1128 34.6664 68.355 0.0 0.0
14.1515 34.4975 68.5947 0.0 0.0
14.1728 34.3276 68.8379 0.0 0.0
14.1761 34.1577 69.0823 0.0 0.0
14.1614 33.9893 69.3263 0.0 0.0
14.1286 33.8237 69.5681 0.0 0.0
14.0776 33.662 69.8056 0.0 0.0
14.0088 33.5054 70.0374 0.0 0.0
13.9222 33.3553 70.2611 0.0 0.0
13.8188 33.2124 70.4752 0.0 0.0
13.6992 33.0783 70.6779 0.0 0.0
13.564 32.9535 70.8674 0.0 0.0
13.4141 32.8391 71.0423 0.0 0.0
13.251 32.7359 71.201 0.0 0.0
13.0759 32.6444 71.3423 0.0 0.0
12.8898 32.5656 71.4645 0.0 0.0
12.6948 32.4997 71.5672 0.0 0.0
12.4921 32.4474 71.6489 0.0 0.0
12.3809 32.425 71.6841 0.0 0.0
12.24 32.4001 71.723 0.0 0.0
11.1079 32.2297 71.9917 0.0 0.0
9.9671 32.0769 72.2348 0.0 0.0
8.8181 31.9415 72.4522 0.0 0.0
7.6621 31.8233 72.6433 0.0 0.0
6.4996 31.7222 72.8079 0.0 0.0
5.3317 31.6381 72.9457 0.0 0.0
4.1595 31.5709 73.0564 0.0 0.0
2.9836 31.5204 73.1398 0.0 0.0
1.8055 31.4867 73.1959 0.0 0.0
0.6255 31.4695 73.2242 0.0 0.0
-0.5549 31.4692 73.2248 0.0 0.0
-1.7347 31.4853 73.198 0.0 0.0
-2.9132 31.5181 73.1437 0.0 0.0
-4.089 31.5676 73.062 0.0 0.0
-5.2616 31.6338 72.9529 0.0 0.0
-6.4299 31.7169 72.8167 0.0 0.0
-7.5925 31.8169 72.6537 0.0 0.0
-8.7491 31.9341 72.4641 0.0 0.0
-9.8983 32.0685 72.2484 0.0 0.0
-11.0398 32.2203 72.0067 0.0 0.0
-10.7695 33.0521 70.7176 0.0 0.0
-10.5096 33.9149 69.4347 0.0 0.0
-9.4239 33.7815 69.6299 0.0 0.0
-8.3326 33.6653 69.8008 0.0 0.0
-7.2358 33.5663 69.9471 0.0 0.0
-6.1349 33.4841 70.069 0.0 0.0
-5.0302 33.4189 70.1662 0.0 0.0
-3.9229 33.3705 70.2384 0.0 0.0
-2.8134 33.3391 70.2853 0.0 0.0
-1.703 33.3243 70.3074 0.0 0.0
-0.592 33.3263 70.3044 0.0 0.0
0.5182 33.3451 70.2763 0.0 0.0
1.6273 33.3809 70.2228 0.0 0.0
2.7342 33.4333 70.1446 0.0 0.0
3.838 33.5026 70.0416 0.0 0.0
4.9381 33.5888 69.9137 0.0 0.0
6.0334 33.6922 69.7611 0.0 0.0
7.1236 33.8126 69.5844 0.0 0.0
8.2075 33.9501 69.3835 0.0 0.0
9.2847 34.1051 69.1585 0.0 0.0
10.3543 34.2772 68.91 0.0 0.0
11.4159 34.467 68.6384 0.0 0.0
11.2062 35.362 67.3818 0.0 0.0
11.004 36.2843 66.1258 0.0 0.0
10.8088 37.2331 64.8686 0.0 0.0
10.6205 38.2078 63.6085 0.0 0.0
10.4384 39.2086 62.3436 0.0 0.0
10.2625 40.2357 61.0717 0.0 0.0
10.0923 41.2893 59.7913 0.0 0.0
9.9276 42.3697 58.501 0.0 0.0
9.7682 43.4779 57.1986 0.0 0.0
9.6137 44.615 55.8817 0.0 0.0
9.464 45.7821 54.5487 0.0 0.0
9.3188 46.9803 53.1976 0.0 0.0
9.1781 48.2116 51.8255 0.0 0.0
9.0414 49.4784 50.4297 0.0 0.0
8.9087 50.783 49.0075 0.0 0.0
8.7799 52.128 47.5557 0.0 0.0
7.9571 51.9276 47.7713 0.0 0.0
7.1308 51.7475 47.9651 0.0 0.0
6.3017 51.5877 48.1372 0.0 0.0
5.4699 51.4481 48.2878 0.0 0.0
4.6356 51.3286 48.417 0.0 0.0
3.7996 51.229 48.5245 0.0 0.0
2.9619 51.1494 48.6107 0.0 0.0
2.1227 51.0895 48.6754 0.0 0.0
1.2829 51.0495 48.7188 0.0 0.0
0.4424 51.0292 48.7407 0.0 0.0
-0.3984 51.0287 48.7413 0.0 0.0
-1.2388 51.0479 48.7204 0.0 0.0
-2.0799 51.087 48.6782 0.0 0.0
-2.9203 51.1459 48.6144 0.0 0.0
-3.7593 51.2247 48.5291 0.0 0.0
-4.5969 51.3235 48.4224 0.0 0.0
-5.4323 51.4423 48.2941 0.0 0.0
-6.2655 51.5812 48.1442 0.0 0.0
-7.0962 51.7404 47.9727 0.0 0.0
-7.9236 51.9198 47.7795 0.0 0.0
-8.0402 50.5783 49.2298 0.0 0.0
-8.1604 49.2767 50.651 0.0 0.0
-8.2841 48.0126 52.0463 0.0 0.0
-8.4116 46.7836 53.4181 0.0 0.0
-8.543 45.5876 54.7697 0.0 0.0
-8.6786 44.4225 56.1034 0.0 0.0
-8.8186 43.2872 57.4213 0.0 0.0
-8.963 42.1807 58.7252 0.0 0.0
-9.1123 41.1019 60.0174 0.0 0.0
-9.2666 40.0498 61.3 0.0 0.0
-9.4261 39.0242 62.5745 0.0 0.0
-9.5912 38.025 63.8425 0.0 0.0
-9.762 37.0519 65.1062 0.0 0.0
-9.9391 36.1049 66.3675 0.0 0.0
-10.1226 35.1844 67.6281 0.0 0.0
-10.3129 34.2914 68.8898 0.0 0.0
-9.245 34.1402 69.1077 0.0 0.0
-8.1705 34.006 69.302 0.0 0.0
-7.09 33.8889 69.4726 0.0 0.0
-6.0046 33.7888 69.6192 0.0 0.0
-4.9149 33.7055 69.7415 0.0 0.0
-3.8216 33.6391 69.8395 0.0 0.0
-2.7255 33.5893 69.9129 0.0 0.0
-1.6272 33.5563 69.9618 0.0 0.0
-0.5279 33.54 69.9861 0.0 0.0
0.5718 33.5403 69.9855 0.0 0.0
1.6711 33.5573 69.9603 0.0 0.0
2.7691 33.591 69.9105 0.0 0.0
3.8653 33.6414 69.8361 0.0 0.0
4.9585 33.7085 69.7371 0.0 0.0
6.048 33.7925 69.6138 0.0 0.0
7.1332 33.8933 69.4663 0.0 0.0
8.2133 34.011 69.2947 0.0 0.0
9.2878 34.1459 69.0994 0.0 0.0
10.3554 34.2978 68.8806 0.0 0.0
11.4159 34.467 68.6384 0.0 0.0
11.5296 34.4043 68.728 0.0 0.0
11.6808 34.3217 68.8463 0.0 0.0
11.4602 35.2352 67.5576 0.0 0.0
11.2477 36.177 66.2702 0.0 0.0
11.0428 37.1467 64.9817 0.0 0.0
10.8451 38.1442 63.6899 0.0 0.0
10.6543 39.169 62.393 0.0 0.0
10.4701 40.2212 61.0894 0.0 0.0
10.292 41.3012 59.777 0.0 0.0
10.1198 42.4099 58.4534 0.0 0.0
9.9533 43.5479 57.117 0.0 0.0
9.7921 44.7159 55.7659 0.0 0.0
9.6359 45.9155 54.3975 0.0 0.0
9.4846 47.1485 53.0091 0.0 0.0
9.338 48.4168 51.5985 0.0 0.0
9.1958 49.7222 50.1629 0.0 0.0
9.0578 51.0679 48.6989 0.0 0.0
8.9239 52.4574 47.2023 0.0 0.0
8.0898 52.2485 47.4264 0.0 0.0
7.2525 52.0609 47.6279 0.0 0.0
6.4119 51.8944 47.807 0.0 0.0
5.5684 51.7488 47.9636 0.0 0.0
4.7228 51.6241 48.098 0.0 0.0
3.8748 51.5202 48.2101 0.0 0.0
3.0252 51.4369 48.3 0.0 0.0
2.1745 51.3743 48.3676 0.0 0.0
1.3225 51.3322 48.4131 0.0 0.0
0.47 51.3106 48.4364 0.0 0.0
-0.3825 51.3095 48.4375 0.0 0.0
-1.235 51.329 48.4165 0.0 0.0
-2.0954 51.3695 48.3728 0.0 0.0
-2.955 51.431 48.3064 0.0 0.0
-3.813 51.5134 48.2174 0.0 0.0
-4.6696 51.617 48.1057 0.0 0.0
-5.5239 51.7417 47.9713 0.0 0.0
-6.3759 51.8877 47.8141 0.0 0.0
-7.225 52.0551 47.6341 0.0 0.0
-8.0709 52.244 47.4312 0.0 0.0
-8.1924 50.8582 48.926 0.0 0.0
-8.3175 49.5157 50.3889 0.0 0.0
-8.4466 48.2131 51.8238 0.0 0.0
-8.5797 46.9475 53.2344 0.0 0.0
-8.717 45.7167 54.6229 0.0 0.0
-8.8587 44.5192 55.992 0.0 0.0
-9.0051 43.3531 57.3443 0.0 0.0
-9.1564 42.217 58.6823 0.0 0.0
-9.3128 41.1099 60.0077 0.0 0.0
-9.4745 40.0315 61.3226 0.0 0.0
-9.642 38.9809 62.6289 0.0 0.0
-9.8154 37.9577 63.9291 0.0 0.0
-9.9951 36.9619 65.2246 0.0 0.0
-10.1814 35.994 66.5174 0.0 0.0
-10.3747 35.0541 67.8096 0.0 0.0
-10.5754 34.1428 69.1038 0.0 0.0
-9.4826 33.9854 69.332 0.0 0.0
-8.3827 33.8458 69.5357 0.0 0.0
-7.2763 33.7239 69.7145 0.0 0.0
-6.1647 33.6197 69.8682 0.0 0.0
-5.0484 33.5329 69.9964 0.0 0.0
-3.9283 33.4637 70.0993 0.0 0.0
-2.8051 33.4119 70.1766 0.0 0.0
-1.6796 33.3774 70.228 0.0 0.0
-0.553 33.3602 70.2536 0.0 0.0
0.5741 33.3604 70.2534 0.0 0.0
1.7007 33.3779 70.2273 0.0 0.0
2.826 33.4127 70.1754 0.0 0.0
3.9493 33.4648 70.0976 0.0 0.0
5.0694 33.5344 69.9943 0.0 0.0
6.1856 33.6214 69.8654 0.0 0.0
7.2971 33.726 69.7113 0.0 0.0
8.4032 33.8482 69.5321 0.0 0.0
9.5031 33.9882 69.328 0.0 0.0
10.5959 34.146 69.0993 0.0 0.0
11.6808 34.3217 68.8463 0.0 0.0
11.5296 34.4043 68.728 0.0 0.0
11.2005 34.5073 68.5809 0.0 0.0
11.1788 34.5992 68.4501 0.0 0.0
10.9787 35.4778 67.2222 0.0 0.0
10.7855 36.382 65.9948 0.0 0.0
10.599 37.3115 64.766 0.0 0.0
10.4187 38.2659 63.5342 0.0 0.0
10.2443 39.2452 62.2978 0.0 0.0
10.0757 40.2494 61.0548 0.0 0.0
9.9125 41.279 59.8039 0.0 0.0
9.7544 42.3343 58.5431 0.0 0.0
9.6012 43.416 57.2709 0.0 0.0
9.4527 44.5251 55.9853 0.0 0.0
9.3087 45.6626 54.6844 0.0 0.0
9.169 46.83 53.3662 0.0 0.0
9.0334 48.0287 52.0284 0.0 0.0
8.9017 49.2607 50.6685 0.0 0.0
8.7738 50.5284 49.284 0.0 0.0
8.6495 51.8343 47.8717 0.0 0.0
7.8367 51.6411 48.0796 0.0 0.0
7.0207 51.4677 48.2667 0.0 0.0
6.2019 51.3139 48.4328 0.0 0.0
5.3806 51.1795 48.578 0.0 0.0
4.5568 51.0645 48.7025 0.0 0.0
3.7314 50.9688 48.8062 0.0 0.0
2.9044 50.8923 48.8891 0.0 0.0
2.076 50.8349 48.9512 0.0 0.0
1.2469 50.7967 48.9927 0.0 0.0
0.4173 50.7775 49.0134 0.0 0.0
-0.4126 50.7775 49.0135 0.0 0.0
-1.2422 50.7965 48.9929 0.0 0.0
-2.066 50.8343 48.9518 0.0 0.0
-2.889 50.891 48.8904 0.0 0.0
-3.7108 50.9666 48.8085 0.0 0.0
-4.531 51.0612 48.7061 0.0 0.0
-5.3494 51.1748 48.5832 0.0 0.0
-6.1656 51.3075 48.4397 0.0 0.0
-6.9794 51.4595 48.2756 0.0 0.0
-7.7902 51.6307 48.0909 0.0 0.0
-7.9026 50.328 49.5018 0.0 0.0
-8.0181 49.0632 50.8855 0.0 0.0
-8.1371 47.8337 52.2449 0.0 0.0
-8.2597 46.6373 53.5827 0.0 0.0
-8.386 45.472 54.9012 0.0 0.0
-8.5161 44.3363 56.2028 0.0 0.0
-8.6504 43.229 57.4895 0.0 0.0
-8.7889 42.1488 58.7631 0.0 0.0
-8.9318 41.0951 60.0257 0.0 0.0
-9.0795 40.067 61.2788 0.0 0.0
-9.2321 39.0643 62.5243 0.0 0.0
-9.3898 38.0865 63.7638 0.0 0.0
-9.553 37.1336 64.9989 0.0 0.0
-9.7219 36.2057 66.2314 0.0 0.0
-9.8968 35.3032 67.4632 0.0 0.0
-10.0781 34.4266 68.6959 0.0 0.0
-8.9771 34.2736 68.9152 0.0 0.0
-7.8697 34.139 69.1095 0.0 0.0
-6.756 34.0224 69.2782 0.0 0.0
-5.6375 33.924 69.4214 0.0 0.0
-4.5144 33.8436 69.5388 0.0 0.0
-3.388 33.7812 69.6304 0.0 0.0
-2.2588 33.7366 69.6957 0.0 0.0
-1.128 33.7099 69.735 0.0 0.0
0.0039 33.7011 69.7481 0.0 0.0
1.1355 33.7101 69.7349 0.0 0.0
2.2665 33.7369 69.6954 0.0 0.0
3.3955 33.7815 69.6298 0.0 0.0
4.5221 33.8441 69.5381 0.0 0.0
5.6449 33.9246 69.4205 0.0 0.0
6.7637 34.0232 69.2772 0.0 0.0
7.877 34.1398 69.1082 0.0 0.0
8.9847 34.2746 68.9138 0.0 0.0
10.0854 34.4277 68.6944 0.0 0.0
11.1788 34.5992 68.4501 0.0 0.0
11.0326 34.7365 68.2558 0.0 0.0
10.9721 34.6607 68.3629 0.0 0.0
11.0147 34.4769 68.6243 0.0 0.0
10.7033 34.4271 68.6953 0.0 0.0
10.6618 34.6109 68.4337 0.0 0.0
10.9726 34.9994 67.8861 0.0 0.0
11.1906 35.0361 67.8349 0.0 0.0
11.1301 35.3015 67.4657 0.0 0.0
10.9133 35.2647 67.5166 0.0 0.0
10.3509 34.5625 68.5023 0.0 0.0
10.3912 34.3789 68.7644 0.0 0.0
10.0785 34.3321 68.8313 0.0 0.0
10.0394 34.5156 68.569 0.0 0.0
10.4513 35.0184 67.8596 0.0 0.0
10.8545 35.5323 67.1472 0.0 0.0
11.0703 35.5692 67.0965 0.0 0.0
11.0111 35.8393 66.7274 0.0 0.0
10.7964 35.8023 66.7779 0.0 0.0
10.2689 35.1269 67.7081 0.0 0.0
9.727 34.4702 68.6338 0.0 0.0
9.765 34.2868 68.8964 0.0 0.0
9.4511 34.243 68.9593 0.0 0.0
9.4143 34.4263 68.6965 0.0 0.0
9.8655 34.963 67.9372 0.0 0.0
10.3071 35.5126 67.1743 0.0 0.0
10.7389 36.0747 66.4082 0.0 0.0
10.9524 36.1118 66.358 0.0 0.0
10.8945 36.3865 65.9888 0.0 0.0
10.682 36.3493 66.0388 0.0 0.0
10.1686 35.6761 66.95 0.0 0.0
9.6419 35.0211 67.8558 0.0 0.0
9.101 34.3839 68.7571 0.0 0.0
9.1366 34.2007 69.0203 0.0 0.0
8.8215 34.1599 69.0792 0.0 0.0
8.7871 34.3429 68.8157 0.0 0.0
9.4186 35.0799 67.7738 0.0 0.0
10.0312 35.841 66.7251 0.0 0.0
10.6257 36.6261 65.6692 0.0 0.0
10.8371 36.6634 65.6195 0.0 0.0
10.7803 36.9426 65.25 0.0 0.0
10.57 36.9052 65.2994 0.0 0.0
10.0656 36.2286 66.2008 0.0 0.0
9.5483 35.5694 67.0964 0.0 0.0
9.0175 34.9276 67.9867 0.0 0.0
8.4727 34.3035 68.8724 0.0 0.0
8.506 34.1205 69.136 0.0 0.0
8.1897 34.0827 69.1909 0.0 0.0
8.1576 34.2655 68.9269 0.0 0.0
8.7726 34.9629 67.9373 0.0 0.0
9.3701 35.6824 66.9416 0.0 0.0
9.9505 36.4235 65.9392 0.0 0.0
10.5148 37.1868 64.9293 0.0 0.0
10.7241 37.2243 64.8801 0.0 0.0
10.6685 37.508 64.5101 0.0 0.0
10.4602 37.4704 64.5591 0.0 0.0
9.9627 36.7878 65.4546 0.0 0.0
9.4526 36.1223 66.3439 0.0 0.0
8.9294 35.4739 67.2275 0.0 0.0
8.3927 34.8428 68.106 0.0 0.0
7.8422 34.229 68.9794 0.0 0.0
7.8731 34.0463 69.2436 0.0 0.0
7.556 34.0114 69.2943 0.0 0.0
7.5264 34.194 69.0299 0.0 0.0
8.1348 34.865 68.0746 0.0 0.0
8.7264 35.5569 67.1134 0.0 0.0
9.3017 36.2693 66.1459 0.0 0.0
9.8615 37.0025 65.1711 0.0 0.0
10.4062 37.7563 64.1886 0.0 0.0
10.6134 37.794 64.1399 0.0 0.0
10.5589 38.0822 63.7692 0.0 0.0
10.3527 38.0444 63.8177 0.0 0.0
9.7611 37.2187 64.8873 0.0 0.0
9.1518 36.4176 65.9472 0.0 0.0
8.5239 35.6406 66.9987 0.0 0.0
7.877 34.8883 68.042 0.0 0.0
7.21 34.1605 69.0783 0.0 0.0
7.2384 33.9779 69.3429 0.0 0.0
6.9202 33.9459 69.3895 0.0 0.0
6.893 34.1284 69.1247 0.0 0.0
7.4998 34.7797 68.1948 0.0 0.0
8.0904 35.451 67.259 0.0 0.0
8.6651 36.1423 66.3169 0.0 0.0
9.2245 36.8535 65.3676 0.0 0.0
9.7694 37.5843 64.4111 0.0 0.0
10.2998 38.3348 63.4465 0.0 0.0
10.505 38.3727 63.3982 0.0 0.0
10.4516 38.6656 63.0264 0.0 0.0
10.2473 38.6276 63.0746 0.0 0.0
9.6785 37.8155 64.112 0.0 0.0
9.0932 37.0263 65.1399 0.0 0.0
8.4909 36.2598 66.1588 0.0 0.0
7.871 35.5161 67.1695 0.0 0.0
7.2328 34.7953 68.1727 0.0 0.0
6.5758 34.0978 69.1689 0.0 0.0
6.6018 33.9154 69.434 0.0 0.0
6.2829 33.8864 69.4764 0.0 0.0
6.2582 34.0687 69.2112 0.0 0.0
6.8662 34.7041 68.3015 0.0 0.0
7.4583 35.3593 67.3858 0.0 0.0
8.0348 36.0335 66.4639 0.0 0.0
8.5964 36.7272 65.535 0.0 0.0
9.1433 37.4397 64.5989 0.0 0.0
9.6763 38.1716 63.6547 0.0 0.0
10.1955 38.9225 62.7024 0.0 0.0
10.3987 38.9606 62.6545 0.0 0.0
10.3464 39.2578 62.2819 0.0 0.0
10.1441 39.2196 62.3297 0.0 0.0
9.5925 38.4146 63.3447 0.0 0.0
9.0253 37.6312 64.3503 0.0 0.0
8.4424 36.8697 65.3462 0.0 0.0
7.8429 36.1297 66.334 0.0 0.0
7.2265 35.4116 67.3135 0.0 0.0
6.5924 34.7152 68.2859 0.0 0.0
5.9402 34.041 69.2513 0.0 0.0
5.9637 33.8588 69.5167 0.0 0.0
5.6441 33.8326 69.5549 0.0 0.0
5.6219 34.0148 69.2893 0.0 0.0
6.3187 34.7273 68.2687 0.0 0.0
6.9953 35.4648 67.24 0.0 0.0
7.6517 36.2267 66.2033 0.0 0.0
8.2893 37.0133 65.157 0.0 0.0
8.9081 37.824 64.1012 0.0 0.0
9.5094 38.6593 63.0344 0.0 0.0
10.0933 39.519 61.9564 0.0 0.0
10.2946 39.5573 61.9088 0.0 0.0
10.2432 39.8591 61.5352 0.0 0.0
10.0429 39.8207 61.5826 0.0 0.0
9.5049 39.0184 62.5819 0.0 0.0
8.9523 38.2374 63.5707 0.0 0.0
8.3847 37.4771 64.5502 0.0 0.0
7.8017 36.7378 65.5209 0.0 0.0
7.2025 36.0193 66.4832 0.0 0.0
6.5867 35.3219 67.4375 0.0 0.0
5.9537 34.6453 68.3847 0.0 0.0
5.3029 33.9901 69.3253 0.0 0.0
5.3239 33.808 69.5911 0.0 0.0
5.0036 33.7848 69.6251 0.0 0.0
4.9839 33.9668 69.3591 0.0 0.0
5.6748 34.6549 68.3712 0.0 0.0
6.3457 35.3664 67.3759 0.0 0.0
6.9978 36.1014 66.3721 0.0 0.0
7.6314 36.8595 65.3597 0.0 0.0
8.2469 37.6409 64.3376 0.0 0.0
8.8455 38.4456 63.3054 0.0 0.0
9.4272 39.2733 62.2625 0.0 0.0
9.993 40.1248 61.2078 0.0 0.0
10.1924 40.1633 61.1605 0.0 0.0
10.1421 40.4696 60.7854 0.0 0.0
9.9437 40.431 60.8325 0.0 0.0
9.4171 39.6288 61.8202 0.0 0.0
8.8766 38.8471 62.7973 0.0 0.0
8.3219 38.0861 63.7643 0.0 0.0
7.7522 37.3451 64.7222 0.0 0.0
7.1673 36.6244 65.6714 0.0 0.0
6.5665 35.9239 66.6124 0.0 0.0
5.9497 35.2439 67.5454 0.0 0.0
5.3158 34.5842 68.4716 0.0 0.0
4.6646 33.945 69.3909 0.0 0.0
4.683 33.763 69.657 0.0 0.0
4.3622 33.7427 69.6868 0.0 0.0
4.3449 33.9246 69.4206 0.0 0.0
5.0327 34.5922 68.46 0.0 0.0
5.7013 35.2825 67.4921 0.0 0.0
6.3513 35.9951 66.5159 0.0 0.0
6.9835 36.7301 65.5311 0.0 0.0
7.5981 37.487 64.5373 0.0 0.0
8.1961 38.2665 63.5336 0.0 0.0
8.7778 39.0682 62.5193 0.0 0.0
9.3439 39.8925 61.4939 0.0 0.0
9.8948 40.7396 60.4566 0.0 0.0
10.0923 40.7782 60.4095 0.0 0.0
10.043 41.0891 60.0328 0.0 0.0
9.8464 41.0504 60.0798 0.0 0.0
9.2714 40.1581 61.167 0.0 0.0
8.6798 39.2908 62.2408 0.0 0.0
8.0712 38.4482 63.3021 0.0 0.0
7.4448 37.6301 64.3517 0.0 0.0
6.8002 36.8364 65.3903 0.0 0.0
6.1365 36.067 66.4187 0.0 0.0
5.4533 35.322 67.4373 0.0 0.0
4.7496 34.6015 68.447 0.0 0.0
4.025 33.9057 69.4481 0.0 0.0
4.041 33.7239 69.7146 0.0 0.0
3.7193 33.7064 69.7401 0.0 0.0
3.7046 33.8882 69.4736 0.0 0.0
4.3914 34.5383 68.5366 0.0 0.0
5.0595 35.2103 67.5922 0.0 0.0
5.7095 35.9039 66.6397 0.0 0.0
6.342 36.619 65.6786 0.0 0.0
6.9574 37.3556 64.7085 0.0 0.0
7.5565 38.1137 63.7288 0.0 0.0
8.1396 38.8934 62.7389 0.0 0.0
8.7073 39.6948 61.7383 0.0 0.0
9.2601 40.5182 60.7262 0.0 0.0
9.7984 41.3637 59.7018 0.0 0.0
9.9941 41.4026 59.6551 0.0 0.0
9.9457 41.7182 59.2767 0.0 0.0
9.7509 41.6792 59.3233 0.0 0.0
9.1912 40.7919 60.3929 0.0 0.0
8.6158 39.9287 61.4493 0.0 0.0
8.0244 39.0896 62.4926 0.0 0.0
7.4162 38.2739 63.5242 0.0 0.0
6.7909 37.4819 64.5442 0.0 0.0
6.1478 36.7132 65.5535 0.0 0.0
5.486 35.9676 66.5531 0.0 0.0
4.8054 35.2457 67.5431 0.0 0.0
4.1049 34.547 68.5243 0.0 0.0
3.3842 33.8723 69.497 0.0 0.0
3.3977 33.6905 69.7636 0.0 0.0
3.0758 33.676 69.785 0.0 0.0
3.0636 33.8577 69.5182 0.0 0.0
3.7509 34.4924 68.6022 0.0 0.0
4.4201 35.1484 67.6782 0.0 0.0
5.0713 35.8253 66.7465 0.0 0.0
5.7052 36.5231 65.8064 0.0 0.0
6.3225 37.2417 64.8572 0.0 0.0
6.9238 37.9815 63.8985 0.0 0.0
7.5093 38.742 62.93 0.0 0.0
8.0795 39.5235 61.951 0.0 0.0
8.635 40.3262 60.9607 0.0 0.0
9.1764 41.1508 59.9584 0.0 0.0
9.7039 41.997 58.9437 0.0 0.0
9.8977 42.0361 58.8973 0.0 0.0
9.8503 42.3564 58.5169 0.0 0.0
9.6573 42.3172 58.5633 0.0 0.0
9.1106 41.4319 59.6199 0.0 0.0
8.5491 40.5703 60.6625 0.0 0.0
7.9725 39.7324 61.6918 0.0 0.0
7.3799 38.9172 62.7091 0.0 0.0
6.7709 38.1248 63.7147 0.0 0.0
6.1451 37.355 64.7094 0.0 0.0
5.5018 36.6077 65.6937 0.0 0.0
4.8405 35.8829 66.6682 0.0 0.0
4.1608 35.1809 67.6331 0.0 0.0
3.4617 34.5013 68.5894 0.0 0.0
2.7428 33.8446 69.5374 0.0 0.0
2.7537 33.663 69.8043 0.0 0.0
2.4315 33.6514 69.8214 0.0 0.0
2.4219 33.833 69.5544 0.0 0.0
3.1725 34.5113 68.5752 0.0 0.0
3.9019 35.2144 67.5865 0.0 0.0
4.6105 35.9416 66.5883 0.0 0.0
5.299 36.6931 65.5801 0.0 0.0
5.9684 37.4691 64.5608 0.0 0.0
6.6188 38.269 63.5304 0.0 0.0
7.2513 39.0935 62.4876 0.0 0.0
7.8661 39.9423 61.4324 0.0 0.0
8.4639 40.816 60.3637 0.0 0.0
9.0456 41.7152 59.2802 0.0 0.0
9.6112 42.6398 58.1817 0.0 0.0
9.8032 42.6791 58.1355 0.0 0.0
9.7566 43.0044 57.7526 0.0 0.0
9.5654 42.9651 57.7989 0.0 0.0
9.0303 42.0798 58.8453 0.0 0.0
8.4808 41.2177 59.8778 0.0 0.0
7.9168 40.3787 60.8965 0.0 0.0
7.3376 39.5621 61.9028 0.0 0.0
6.7431 38.7681 62.897 0.0 0.0
6.1324 37.996 63.8797 0.0 0.0
5.505 37.2457 64.8521 0.0 0.0
4.8606 36.5174 65.8139 0.0 0.0
4.1984 35.8107 66.7663 0.0 0.0
3.5181 35.1261 67.7092 0.0 0.0
2.8189 34.4633 68.6436 0.0 0.0
2.1005 33.8228 69.5693 0.0 0.0
2.1089 33.6412 69.8363 0.0 0.0
1.7863 33.6325 69.8492 0.0 0.0
1.7793 33.8141 69.5822 0.0 0.0
2.5274 34.474 68.6283 0.0 0.0
3.255 35.1577 67.6654 0.0 0.0
3.9623 35.865 66.6925 0.0 0.0
4.65 36.5955 65.7099 0.0 0.0
5.3189 37.3494 64.7167 0.0 0.0
5.9696 38.1268 63.7121 0.0 0.0
6.6025 38.9275 62.6961 0.0 0.0
7.2181 39.7518 61.6677 0.0 0.0
7.8172 40.6001 60.6263 0.0 0.0
8.4003 41.4728 59.5707 0.0 0.0
8.9678 42.37 58.5007 0.0 0.0
9.5202 43.2925 57.4151 0.0 0.0
9.7105 43.332 57.369 0.0 0.0
9.6648 43.662 56.9841 0.0 0.0
9.4753 43.6224 57.0302 0.0 0.0
8.9502 42.7352 58.0694 0.0 0.0
8.4115 41.8711 59.0939 0.0 0.0
7.8587 41.0297 60.1047 0.0 0.0
7.2916 40.2107 61.1024 0.0 0.0
6.7095 39.4135 62.0878 0.0 0.0
6.1121 38.638 63.0615 0.0 0.0
5.499 37.8841 64.0237 0.0 0.0
4.8693 37.1513 64.9756 0.0 0.0
4.2229 36.4398 65.9175 0.0 0.0
3.559 35.7495 66.8498 0.0 0.0
2.8772 35.0805 67.7728 0.0 0.0
2.177 34.4329 68.6871 0.0 0.0
1.4579 33.8068 69.5928 0.0 0.0
1.4637 33.6252 69.8599 0.0 0.0
1.141 33.6194 69.8685 0.0 0.0
1.1364 33.8009 69.6013 0.0 0.0
1.8836 34.4446 68.6704 0.0 0.0
2.6103 35.1109 67.7304 0.0 0.0
3.3176 35.8002 66.7805 0.0 0.0
4.0058 36.5122 65.8208 0.0 0.0
4.6752 37.2466 64.8509 0.0 0.0
5.327 38.0038 63.8697 0.0 0.0
5.9613 38.7838 62.8772 0.0 0.0
6.5788 39.5866 61.8725 0.0 0.0
7.1798 40.4123 60.8554 0.0 0.0
7.7651 41.2617 59.8246 0.0 0.0
8.3351 42.135 58.7797 0.0 0.0
8.8901 43.0323 57.72 0.0 0.0
9.4309 43.9548 56.644 0.0 0.0
9.6195 43.9945 56.598 0.0 0.0
9.5746 44.3296 56.2107 0.0 0.0
9.3869 44.2898 56.2566 0.0 0.0
8.8305 43.3317 57.3693 0.0 0.0
8.2591 42.4003 58.465 0.0 0.0
7.6719 41.4951 59.544 0.0 0.0
7.0686 40.6152 60.6079 0.0 0.0
6.4484 39.7605 61.657 0.0 0.0
5.8111 38.9303 62.6926 0.0 0.0
5.1557 38.1246 63.7148 0.0 0.0
4.482 37.343 64.7251 0.0 0.0
3.7891 36.5855 65.7231 0.0 0.0
3.0767 35.852 66.7102 0.0 0.0
2.3437 35.1427 67.6862 0.0 0.0
1.5901 34.4573 68.6521 0.0 0.0
0.8147 33.7965 69.6078 0.0 0.0
0.8179 33.615 69.875 0.0 0.0
0.4951 33.6121 69.8793 0.0 0.0
0.4931 33.7936 69.6121 0.0 0.0
1.2402 34.4223 68.7021 0.0 0.0
1.9675 35.0733 67.7829 0.0 0.0
2.6755 35.7464 66.854 0.0 0.0
3.3648 36.4415 65.9152 0.0 0.0
4.036 37.1586 64.966 0.0 0.0
4.6895 37.8978 64.0062 0.0 0.0
5.3259 38.6589 63.0348 0.0 0.0
5.9457 39.4424 62.0518 0.0 0.0
6.5494 40.2482 61.0562 0.0 0.0
7.1375 41.0769 60.0478 0.0 0.0
7.7105 41.9286 59.0254 0.0 0.0
8.2688 42.8039 57.9885 0.0 0.0
8.8129 43.7033 56.9362 0.0 0.0
9.3432 44.6275 55.8675 0.0 0.0
9.5301 44.6674 55.8216 0.0 0.0
9.486 45.0075 55.4314 0.0 0.0
9.3 44.9675 55.4772 0.0 0.0
8.7555 44.0093 56.5809 0.0 0.0
8.1964 43.0776 57.6669 0.0 0.0
7.6225 42.1716 58.736 0.0 0.0
7.033 41.2908 59.7896 0.0 0.0
6.4276 40.4346 60.8283 0.0 0.0
5.8057 39.6025 61.8528 0.0 0.0
5.1668 38.7943 62.8639 0.0 0.0
4.5104 38.0096 63.8623 0.0 0.0
3.8358 37.2484 64.8486 0.0 0.0
3.1426 36.5104 65.8232 0.0 0.0
2.4302 35.7958 66.7867 0.0 0.0
1.6979 35.1044 67.7394 0.0 0.0
0.9452 34.4365 68.6819 0.0 0.0
0.1715 33.7921 69.6143 0.0 0.0
0.1722 33.6106 69.8815 0.0 0.0
-0.1507 33.6105 69.8816 0.0 0.0
-0.1501 33.7921 69.6144 0.0 0.0
0.5978 34.4072 68.7237 0.0 0.0
1.3261 35.0439 67.8239 0.0 0.0
2.0357 35.7023 66.9143 0.0 0.0
2.7269 36.3822 65.9946 0.0 0.0
3.4001 37.0833 65.065 0.0 0.0
4.0561 37.8061 64.1243 0.0 0.0
4.6952 38.5504 63.1725 0.0 0.0
5.3178 39.3161 62.2092 0.0 0.0
5.9246 40.1039 61.2334 0.0 0.0
6.5161 40.9139 60.2449 0.0 0.0
7.0924 41.7461 59.2433 0.0 0.0
7.6543 42.6014 58.2271 0.0 0.0
8.2022 43.4802 57.196 0.0 0.0
8.7362 44.3827 56.1494 0.0 0.0
9.2572 45.3102 55.0856 0.0 0.0
9.4424 45.3504 55.0398 0.0 0.0
9.3991 45.6958 54.6467 0.0 0.0
9.2147 45.6555 54.6924 0.0 0.0
8.6808 44.6954 55.7894 0.0 0.0
8.1329 43.7617 56.8682 0.0 0.0
7.5707 42.8536 57.93 0.0 0.0
6.9937 41.9704 58.9756 0.0 0.0
6.4015 41.1114 60.0059 0.0 0.0
5.7935 40.2764 61.0219 0.0 0.0
5.1692 39.4647 62.024 0.0 0.0
4.5284 38.6764 63.0128 0.0 0.0
3.8702 37.9108 63.9894 0.0 0.0
3.1942 37.1679 64.954 0.0 0.0
2.4998 36.4476 65.907 0.0 0.0
1.7866 35.75 66.849 0.0 0.0
1.054 35.0751 67.7804 0.0 0.0
0.3014 34.4228 68.7014 0.0 0.0
-0.4717 33.7935 69.6124 0.0 0.0
-0.4736 33.6119 69.8795 0.0 0.0
-0.7967 33.6148 69.8754 0.0 0.0
-0.7935 33.7963 69.6081 0.0 0.0
0.0049 34.4397 68.6773 0.0 0.0
0.782 35.1074 67.7353 0.0 0.0
1.5377 35.7988 66.7826 0.0 0.0
2.273 36.5141 65.8184 0.0 0.0
2.9884 37.2532 64.8424 0.0 0.0
3.6847 38.0164 63.8537 0.0 0.0
4.3621 38.8033 62.8525 0.0 0.0
5.0214 39.6145 61.8379 0.0 0.0
5.663 40.45 60.8093 0.0 0.0
6.2877 41.3106 59.7657 0.0 0.0
6.8957 42.1962 58.7069 0.0 0.0
7.4877 43.1076 57.6317 0.0 0.0
8.0642 44.0453 56.5391 0.0 0.0
8.6258 45.0106 55.4279 0.0 0.0
9.1726 46.0038 54.2974 0.0 0.0
9.3563 46.0442 54.2516 0.0 0.0
9.3138 46.3951 53.8553 0.0 0.0
9.131 46.3546 53.901 0.0 0.0
8.6066 45.3911 54.9934 0.0 0.0
8.0689 44.454 56.0671 0.0 0.0
7.5173 43.5422 57.1236 0.0 0.0
6.9516 42.6555 58.1634 0.0 0.0
6.3713 41.7929 59.1874 0.0 0.0
5.7759 40.9539 60.1965 0.0 0.0
5.1649 40.138 61.1915 0.0 0.0
4.538 39.3448 62.1734 0.0 0.0
3.8942 38.5742 63.1421 0.0 0.0
3.2337 37.826 64.0985 0.0 0.0
2.5557 37.0999 65.0431 0.0 0.0
1.8597 36.3959 65.9762 0.0 0.0
1.1452 35.714 66.8983 0.0 0.0
0.4113 35.0539 67.81 0.0 0.0
-0.3418 34.4161 68.711 0.0 0.0
-1.1151 33.8006 69.6019 0.0 0.0
-1.1195 33.6191 69.869 0.0 0.0
-1.4423 33.6248 69.8606 0.0 0.0
-1.4365 33.8063 69.5934 0.0 0.0
-0.639 34.4348 68.6842 0.0 0.0
0.1372 35.0865 67.7644 0.0 0.0
0.8931 35.7616 66.8333 0.0 0.0
1.6287 36.4597 65.891 0.0 0.0
2.3451 37.1811 64.9366 0.0 0.0
3.0423 37.9255 63.9703 0.0 0.0
3.7213 38.6935 62.9912 0.0 0.0
4.3826 39.4847 61.9991 0.0 0.0
5.0262 40.2998 60.9931 0.0 0.0
5.6533 41.139 59.9726 0.0 0.0
6.2639 42.0024 58.9374 0.0 0.0
6.8588 42.8909 57.8859 0.0 0.0
7.4383 43.8048 56.8181 0.0 0.0
8.003 44.7452 55.7322 0.0 0.0
8.5532 45.7125 54.6278 0.0 0.0
9.0897 46.7082 53.503 0.0 0.0
9.2717 46.7488 53.4573 0.0 0.0
9.23 47.1053 53.0575 0.0 0.0
9.0487 47.0645 53.1032 0.0 0.0
8.5331 46.0961 54.1931 0.0 0.0
8.0047 45.1544 55.2634 0.0 0.0
7.463 44.2382 56.3161 0.0 0.0
6.9075 43.3467 57.3518 0.0 0.0
6.338 42.4793 58.3714 0.0 0.0
5.7541 41.6356 59.3754 0.0 0.0
5.1551 40.8147 60.3652 0.0 0.0
4.5408 40.0164 61.3412 0.0 0.0
3.9107 39.2405 62.3036 0.0 0.0
3.2642 38.4864 63.2537 0.0 0.0
2.6009 37.754 64.1915 0.0 0.0
1.9205 37.0435 65.1173 0.0 0.0
1.2222 36.3543 66.0319 0.0 0.0
0.5057 35.6867 66.9356 0.0 0.0
-0.2295 35.0406 67.8285 0.0 0.0
-0.9838 34.4163 68.7107 0.0 0.0
-1.7579 33.8135 69.5829 0.0 0.0
-1.7649 33.632 69.85 0.0 0.0
-2.0874 33.6406 69.8373 0.0 0.0
-2.0792 33.8222 69.5703 0.0 0.0
-1.282 34.4367 68.6815 0.0 0.0
-0.5055 35.074 67.7819 0.0 0.0
0.2509 35.7339 66.8712 0.0 0.0
0.9876 36.4163 65.9489 0.0 0.0
1.705 37.1211 65.0152 0.0 0.0
2.4041 37.8487 64.0692 0.0 0.0
3.0851 38.5991 63.1107 0.0 0.0
3.7485 39.3722 62.1391 0.0 0.0
4.3949 40.1685 61.1542 0.0 0.0
5.0246 40.9881 60.155 0.0 0.0
5.6383 41.8315 59.1412 0.0 0.0
6.2364 42.6991 58.1118 0.0 0.0
6.8192 43.5912 57.0665 0.0 0.0
7.3874 44.5091 56.0038 0.0 0.0
7.9413 45.4531 54.9227 0.0 0.0
8.4815 46.4243 53.8224 0.0 0.0
9.0082 47.4238 52.7016 0.0 0.0
9.1886 47.4647 52.6559 0.0 0.0
9.1476 47.8273 52.2521 0.0 0.0
8.9679 47.7862 52.2978 0.0 0.0
8.4302 46.7553 53.45 0.0 0.0
7.8785 45.7544 54.5803 0.0 0.0
7.3125 44.7822 55.6897 0.0 0.0
6.7315 43.8378 56.7798 0.0 0.0
6.1351 42.92 57.8519 0.0 0.0
5.523 42.0285 58.9063 0.0 0.0
4.8946 41.1625 59.9442 0.0 0.0
4.2495 40.3216 60.9665 0.0 0.0
3.587 39.5051 61.9737 0.0 0.0
2.9067 38.7129 62.9667 0.0 0.0
2.208 37.9446 63.9458 0.0 0.0
1.4904 37.2001 64.9117 0.0 0.0
0.7531 36.4791 65.865 0.0 0.0
-0.0039 35.7819 66.8056 0.0 0.0
-0.7815 35.1083 67.734 0.0 0.0
-1.5802 34.4584 68.6505 0.0 0.0
-2.4005 33.8323 69.5555 0.0 0.0
-2.4101 33.6506 69.8223 0.0 0.0
-2.7323 33.6621 69.8054 0.0 0.0
-2.7215 33.8438 69.5386 0.0 0.0
-1.9242 34.4453 68.6692 0.0 0.0
-1.1469 35.0692 67.7887 0.0 0.0
-0.3896 35.7149 66.8971 0.0 0.0
0.3487 36.3828 65.9937 0.0 0.0
1.0681 37.0726 65.079 0.0 0.0
1.7693 37.7846 64.1519 0.0 0.0
2.4526 38.5186 63.2127 0.0 0.0
3.1188 39.2751 62.2603 0.0 0.0
3.7679 40.0539 61.2949 0.0 0.0
4.4007 40.8556 60.3157 0.0 0.0
5.0177 41.6805 59.3216 0.0 0.0
5.6191 42.5288 58.3128 0.0 0.0
6.2057 43.4015 57.2878 0.0 0.0
6.7776 44.2986 56.2463 0.0 0.0
7.3355 45.2215 55.1869 0.0 0.0
7.8795 46.1703 54.1091 0.0 0.0
8.4103 47.1467 53.0111 0.0 0.0
8.9281 48.1513 51.8923 0.0 0.0
9.107 48.1926 51.8467 0.0 0.0
9.0667 48.5609 51.4392 0.0 0.0
8.8886 48.5195 51.4849 0.0 0.0
8.3605 47.4841 52.6343 0.0 0.0
7.819 46.4788 53.761 0.0 0.0
7.2636 45.5024 54.8666 0.0 0.0
6.694 44.5538 55.9522 0.0 0.0
6.1096 43.632 57.0191 0.0 0.0
5.5101 42.7362 58.0682 0.0 0.0
4.895 41.8657 59.1003 0.0 0.0
4.2638 41.02 60.1165 0.0 0.0
3.616 40.1985 61.1172 0.0 0.0
2.9512 39.401 62.1034 0.0 0.0
2.2688 38.627 63.0754 0.0 0.0
1.5684 37.8763 64.0337 0.0 0.0
0.8493 37.1488 64.9789 0.0 0.0
0.1112 36.4444 65.9115 0.0 0.0
-0.6465 35.7629 66.8314 0.0 0.0
-1.4243 35.1045 67.7394 0.0 0.0
-2.2227 34.4691 68.6353 0.0 0.0
-3.0423 33.8568 69.5196 0.0 0.0
-3.0544 33.6751 69.7863 0.0 0.0
-3.3763 33.6895 69.7651 0.0 0.0
-3.3629 33.8712 69.4984 0.0 0.0
-2.5649 34.4606 68.6474 0.0 0.0
-1.7865 35.0718 67.7849 0.0 0.0
-1.0277 35.7044 66.9114 0.0 0.0
-0.2876 36.3587 66.0261 0.0 0.0
0.4339 37.0343 65.1293 0.0 0.0
1.1375 37.7318 64.2203 0.0 0.0
1.8235 38.4506 63.299 0.0 0.0
2.4925 39.1916 62.3649 0.0 0.0
3.1448 39.9543 61.4177 0.0 0.0
3.7811 40.7395 60.4566 0.0 0.0
4.4014 41.5471 59.4816 0.0 0.0
5.0067 42.3779 58.4913 0.0 0.0
5.5969 43.232 57.4859 0.0 0.0
6.1728 44.1104 56.4638 0.0 0.0
6.7345 45.0133 55.4249 0.0 0.0
7.2828 45.942 54.3674 0.0 0.0
7.8177 46.8969 53.2911 0.0 0.0
8.3399 47.8796 52.1939 0.0 0.0
8.8494 48.8908 51.0754 0.0 0.0
9.0268 48.9323 51.0295 0.0 0.0
8.9872 49.3069 50.6178 0.0 0.0
8.8106 49.2652 50.6637 0.0 0.0
8.2914 48.2238 51.8121 0.0 0.0
7.7592 47.2128 52.9373 0.0 0.0
7.2137 46.2309 54.0406 0.0 0.0
6.6545 45.277 55.1235 0.0 0.0
6.0811 44.3502 56.1869 0.0 0.0
5.4932 43.4491 57.2321 0.0 0.0
4.8902 42.5734 58.2603 0.0 0.0
4.2718 41.7222 59.2718 0.0 0.0
3.6376 40.8952 60.2676 0.0 0.0
2.9871 40.0918 61.2484 0.0 0.0
2.3196 39.3117 62.2147 0.0 0.0
1.6348 38.5546 63.1671 0.0 0.0
0.9322 37.8202 64.106 0.0 0.0
0.2114 37.1085 65.0319 0.0 0.0
-0.5282 36.4195 65.9448 0.0 0.0
-1.287 35.7527 66.8454 0.0 0.0
-2.0655 35.1084 67.734 0.0 0.0
-2.8642 34.4865 68.6105 0.0 0.0
-3.6836 33.8872 69.4753 0.0 0.0
-3.6982 33.7054 69.7418 0.0 0.0
-4.0196 33.7227 69.7164 0.0 0.0
-4.0037 33.9045 69.4499 0.0 0.0
-3.1631 34.5135 68.572 0.0 0.0
-2.3438 35.1461 67.6814 0.0 0.0
-1.5457 35.8019 66.7783 0.0 0.0
-0.7682 36.4811 65.8624 0.0 0.0
-0.0104 37.1838 64.933 0.0 0.0
0.7276 37.9098 63.9906 0.0 0.0
1.4468 38.6596 63.0341 0.0 0.0
2.1474 39.4329 62.0636 0.0 0.0
2.8299 40.2302 61.0784 0.0 0.0
3.4951 41.0521 60.0777 0.0 0.0
4.1432 41.8984 59.0613 0.0 0.0
4.7747 42.77 58.0283 0.0 0.0
5.3903 43.6676 56.9777 0.0 0.0
5.9902 44.5914 55.9089 0.0 0.0
6.5752 45.5429 54.8206 0.0 0.0
7.1453 46.5224 53.712 0.0 0.0
7.7012 47.5313 52.5817 0.0 0.0
8.2434 48.5712 51.4278 0.0 0.0
8.7721 49.6431 50.2494 0.0 0.0
8.948 49.685 50.2035 0.0 0.0
8.9091 50.0661 49.7872 0.0 0.0
8.7339 50.024 49.8331 0.0 0.0
8.223 48.9753 50.9823 0.0 0.0
7.6996 47.9575 52.1074 0.0 0.0
7.1632 46.9688 53.2104 0.0 0.0
6.6137 46.0086 54.292 0.0 0.0
6.0505 45.0755 55.3538 0.0 0.0
5.4734 44.1682 56.397 0.0 0.0
4.8815 43.2864 57.4222 0.0 0.0
4.275 42.4293 58.4305 0.0 0.0
3.6532 41.5962 59.4227 0.0 0.0
3.0157 40.7866 60.3994 0.0 0.0
2.3619 39.9998 61.3615 0.0 0.0
1.6916 39.2361 62.3092 0.0 0.0
1.0042 38.4948 63.243 0.0 0.0
0.2991 37.7757 64.1634 0.0 0.0
-0.4237 37.0786 65.0711 0.0 0.0
-1.165 36.4037 65.9658 0.0 0.0
-1.9251 35.7507 66.8481 0.0 0.0
-2.7046 35.1195 67.7185 0.0 0.0
-3.5042 34.5104 68.5764 0.0 0.0
-4.3237 33.9233 69.4225 0.0 0.0
-4.3408 33.7414 69.6887 0.0 0.0
-4.6617 33.7616 69.6591 0.0 0.0
-4.6433 33.9436 69.393 0.0 0.0
-3.8033 34.5397 68.5347 0.0 0.0
-2.9842 35.1587 67.6639 0.0 0.0
-2.1858 35.8005 66.7804 0.0 0.0
-1.4074 36.465 65.8838 0.0 0.0
-0.6487 37.1524 64.9743 0.0 0.0
0.0909 37.8627 64.0513 0.0 0.0
0.8119 38.596 63.1147 0.0 0.0
1.5146 39.3524 62.1639 0.0 0.0
2.1996 40.1323 61.1986 0.0 0.0
2.8674 40.9359 60.2183 0.0 0.0
3.5182 41.7633 59.2226 0.0 0.0
4.1529 42.6156 58.2104 0.0 0.0
4.7717 43.4929 57.1811 0.0 0.0
5.3752 44.396 56.134 0.0 0.0
5.9636 45.3256 55.0681 0.0 0.0
6.5376 46.2826 53.9823 0.0 0.0
7.0974 47.268 52.8754 0.0 0.0
7.6435 48.2832 51.7463 0.0 0.0
8.1762 49.3294 50.5932 0.0 0.0
8.6961 50.4083 49.4145 0.0 0.0
8.8705 50.4506 49.3685 0.0 0.0
8.8323 50.8385 48.9473 0.0 0.0
8.6586 50.7961 48.9934 0.0 0.0
8.1555 49.7387 50.1449 0.0 0.0
7.64 48.7124 51.2719 0.0 0.0
7.1123 47.7164 52.3754 0.0 0.0
6.5717 46.7486 53.4574 0.0 0.0
6.018 45.8085 54.5188 0.0 0.0
5.4507 44.8944 55.5611 0.0 0.0
4.8695 44.0059 56.5848 0.0 0.0
4.2739 43.1419 57.5914 0.0 0.0
3.6637 42.3021 58.5812 0.0 0.0
3.0381 41.4856 59.5554 0.0 0.0
2.3972 40.6922 60.514 0.0 0.0
1.7402 39.9213 61.4584 0.0 0.0
1.0669 39.1728 62.3883 0.0 0.0
0.3765 38.4461 63.3048 0.0 0.0
-0.3309 37.7414 64.2077 0.0 0.0
-1.0562 37.0582 65.0979 0.0 0.0
-1.7994 36.3967 65.9751 0.0 0.0
-2.5615 35.7566 66.8402 0.0 0.0
-3.3423 35.1381 67.6926 0.0 0.0
-4.1427 34.5408 68.5331 0.0 0.0
-4.9627 33.9653 69.3613 0.0 0.0
-4.9823 33.7833 69.6273 0.0 0.0
-5.3029 33.8064 69.5934 0.0 0.0
-5.282 33.9885 69.3276 0.0 0.0
-4.4421 34.5724 68.4881 0.0 0.0
-3.6228 35.1787 67.636 0.0 0.0
-2.8237 35.8072 66.771 0.0 0.0
-2.0445 36.4579 65.8935 0.0 0.0
-1.2843 37.131 65.0024 0.0 0.0
-0.5429 37.8265 64.098 0.0 0.0
0.1802 38.5444 63.1799 0.0 0.0
0.8853 39.2851 62.2479 0.0 0.0
1.5729 40.0486 61.3014 0.0 0.0
2.2436 40.8354 60.3402 0.0 0.0
2.8975 41.6454 59.3638 0.0 0.0
3.5355 42.4796 58.3711 0.0 0.0
4.1578 43.3382 57.3617 0.0 0.0
4.7649 44.222 56.3349 0.0 0.0
5.3571 45.1315 55.2897 0.0 0.0
5.9349 46.0677 54.2252 0.0 0.0
6.4987 47.0314 53.1402 0.0 0.0
7.0487 48.0236 52.0339 0.0 0.0
7.5857 49.0462 50.9044 0.0 0.0
8.1098 50.1002 49.75 0.0 0.0
8.6214 51.1876 48.5694 0.0 0.0
8.7944 51.2303 48.5232 0.0 0.0
8.7568 51.6253 48.0967 0.0 0.0
8.5846 51.5824 48.1429 0.0 0.0
8.0647 50.4649 49.3531 0.0 0.0
7.5319 49.3825 50.535 0.0 0.0
6.9857 48.3331 51.691 0.0 0.0
6.426 47.3156 52.8224 0.0 0.0
5.8523 46.3283 53.9308 0.0 0.0
5.2641 45.3699 55.0176 0.0 0.0
4.661 44.4393 56.084 0.0 0.0
4.0424 43.5355 57.1315 0.0 0.0
3.4082 42.6581 58.1603 0.0 0.0
2.7578 41.8062 59.1715 0.0 0.0
2.0907 40.9792 60.1658 0.0 0.0
1.4064 40.1767 61.144 0.0 0.0
0.7046 39.3983 62.1066 0.0 0.0
-0.0155 38.6435 63.0544 0.0 0.0
-0.754 37.9124 63.9872 0.0 0.0
-1.5115 37.2047 64.9057 0.0 0.0
-2.2885 36.5202 65.8101 0.0 0.0
-3.0854 35.8589 66.7009 0.0 0.0
-3.903 35.2204 67.5781 0.0 0.0
-4.7412 34.6052 68.4416 0.0 0.0
-5.6007 34.0131 69.2917 0.0 0.0
-5.6229 33.831 69.5574 0.0 0.0
-5.9425 33.857 69.5193 0.0 0.0
-5.9191 34.0392 69.2538 0.0 0.0
-5.0524 34.6304 68.4058 0.0 0.0
-4.207 35.2451 67.5439 0.0 0.0
-3.3827 35.8827 66.6683 0.0 0.0
-2.5788 36.5438 65.7786 0.0 0.0
-1.7952 37.228 64.8752 0.0 0.0
-1.0313 37.9356 63.9575 0.0 0.0
-0.2862 38.6668 63.0249 0.0 0.0
0.4399 39.4216 62.0777 0.0 0.0
1.1478 40.2003 61.1151 0.0 0.0
1.8381 41.0035 60.1364 0.0 0.0
2.511 41.8311 59.1416 0.0 0.0
3.1672 42.6841 58.1295 0.0 0.0
3.8069 43.5626 57.0999 0.0 0.0
4.4306 44.4674 56.0517 0.0 0.0
5.0391 45.3996 54.9836 0.0 0.0
5.6324 46.3597 53.8953 0.0 0.0
6.211 47.3489 52.7851 0.0 0.0
6.7756 48.3688 51.6515 0.0 0.0
7.3263 49.4203 50.4936 0.0 0.0
7.8638 50.5056 49.3087 0.0 0.0
8.3881 51.6261 48.0958 0.0 0.0
8.3628 51.908 47.7923 0.0 0.0
8.1202 51.8501 47.8546 0.0 0.0
8.1448 51.5684 48.158 0.0 0.0
7.6172 50.4529 49.366 0.0 0.0
7.0764 49.3724 50.5459 0.0 0.0
6.5223 48.3256 51.6992 0.0 0.0
5.9542 47.3103 52.8283 0.0 0.0
5.3721 46.3255 53.9339 0.0 0.0
4.7753 45.3698 55.0177 0.0 0.0
4.1633 44.4418 56.0813 0.0 0.0
3.536 43.5411 57.1249 0.0 0.0
2.8927 42.6668 58.15 0.0 0.0
2.2328 41.8178 59.1576 0.0 0.0
1.5563 40.9941 60.1477 0.0 0.0
0.8623 40.1949 61.1218 0.0 0.0
0.1507 39.42 62.0796 0.0 0.0
-0.5791 38.6691 63.022 0.0 0.0
-1.3278 37.9416 63.9497 0.0 0.0
-2.0954 37.2378 64.8624 0.0 0.0
-2.8827 36.5573 65.7608 0.0 0.0
-3.6902 35.8998 66.6451 0.0 0.0
-4.518 35.2657 67.5152 0.0 0.0
-5.367 34.6546 68.3716 0.0 0.0
-6.2371 34.0668 69.2139 0.0 0.0
-6.2617 33.8845 69.4792 0.0 0.0
-6.5806 33.9134 69.4369 0.0 0.0
-6.5547 34.0958 69.1718 0.0 0.0
-5.6812 34.6802 68.3354 0.0 0.0
-4.8288 35.2878 67.4845 0.0 0.0
-3.9975 35.9184 66.6199 0.0 0.0
-3.1866 36.5722 65.7408 0.0 0.0
-2.3955 37.2491 64.8477 0.0 0.0
-1.6242 37.9492 63.94 0.0 0.0
-0.8721 38.6729 63.0173 0.0 0.0
-0.1385 39.42 62.0797 0.0 0.0
0.5768 40.191 61.1266 0.0 0.0
1.2742 40.9863 60.1572 0.0 0.0
1.9546 41.806 59.1716 0.0 0.0
2.6179 42.651 58.1687 0.0 0.0
3.2647 43.5212 57.1481 0.0 0.0
3.8958 44.4177 56.1089 0.0 0.0
4.5112 45.3415 55.0499 0.0 0.0
5.1114 46.2929 53.9706 0.0 0.0
5.6972 47.2733 52.8696 0.0 0.0
6.2685 48.2841 51.7452 0.0 0.0
6.826 49.3263 50.5967 0.0 0.0
7.3701 50.4019 49.4214 0.0 0.0
7.901 51.5124 48.2184 0.0 0.0
7.8772 51.7939 47.915 0.0 0.0
7.634 51.7396 47.9737 0.0 0.0
7.6571 51.4583 48.277 0.0 0.0
7.1229 50.3527 49.475 0.0 0.0
6.5755 49.2818 50.6454 0.0 0.0
6.0147 48.2443 51.7893 0.0 0.0
5.4398 47.238 52.9091 0.0 0.0
4.8508 46.262 54.0055 0.0 0.0
4.247 45.3149 55.0803 0.0 0.0
3.628 44.3953 56.1347 0.0 0.0
2.9935 43.5029 57.1694 0.0 0.0
2.3431 42.6367 58.1854 0.0 0.0
1.676 41.7958 59.1838 0.0 0.0
0.9923 40.9801 60.1648 0.0 0.0
0.291 40.1886 61.1294 0.0 0.0
-0.4278 39.4215 62.0778 0.0 0.0
-1.1649 38.6782 63.0105 0.0 0.0
-1.9208 37.9582 63.9283 0.0 0.0
-2.6957 37.2619 64.831 0.0 0.0
-3.4901 36.5887 65.7189 0.0 0.0
-4.3047 35.9385 66.5927 0.0 0.0
-5.1395 35.3115 67.4519 0.0 0.0
-5.9953 34.7073 68.297 0.0 0.0
-6.8722 34.1263 69.1276 0.0 0.0
-6.8993 33.9439 69.3925 0.0 0.0
-7.2173 33.9757 69.3461 0.0 0.0
-7.189 34.1583 69.0814 0.0 0.0
-6.3089 34.7359 68.2567 0.0 0.0
-5.4497 35.3365 67.4171 0.0 0.0
-4.6115 35.96 66.5634 0.0 0.0
-3.7934 36.6066 65.695 0.0 0.0
-2.9955 37.2762 64.8123 0.0 0.0
-2.2171 37.9688 63.9147 0.0 0.0
-1.4576 38.685 63.0018 0.0 0.0
-0.717 39.4245 62.074 0.0 0.0
0.0055 40.1878 61.1304 0.0 0.0
0.7103 40.9754 60.1705 0.0 0.0
1.3976 41.7872 59.1942 0.0 0.0
2.0682 42.6241 58.2003 0.0 0.0
2.7222 43.4863 57.1889 0.0 0.0
3.3601 44.3745 56.1588 0.0 0.0
3.9827 45.2899 55.1088 0.0 0.0
4.5899 46.2327 54.0385 0.0 0.0
5.1823 47.2043 52.9467 0.0 0.0
5.7606 48.2062 51.8316 0.0 0.0
6.3247 49.2391 50.6924 0.0 0.0
6.8755 50.3052 49.5267 0.0 0.0
7.413 51.4059 48.3335 0.0 0.0
7.3905 51.6869 48.0303 0.0 0.0
7.1468 51.6361 48.0851 0.0 0.0
7.1685 51.3552 48.3883 0.0 0.0
6.6278 50.2594 49.5765 0.0 0.0
6.0738 49.198 50.7374 0.0 0.0
5.5063 48.1697 51.8719 0.0 0.0
4.9246 47.1723 52.9825 0.0 0.0
4.3288 46.2051 54.0698 0.0 0.0
3.7182 45.2665 55.1355 0.0 0.0
3.0922 44.3553 56.1809 0.0 0.0
2.4507 43.4712 57.2065 0.0 0.0
1.7932 42.613 58.2133 0.0 0.0
1.1191 41.7801 59.2026 0.0 0.0
0.4283 40.9722 60.1742 0.0 0.0
-0.2801 40.1886 61.1296 0.0 0.0
-1.0061 39.4291 62.0683 0.0 0.0
-1.7502 38.6934 62.9913 0.0 0.0
-2.5132 37.9809 63.8991 0.0 0.0
-3.2951 37.292 64.7916 0.0 0.0
-4.0965 36.6261 65.6692 0.0 0.0
-4.918 35.983 66.5322 0.0 0.0
-5.7595 35.3631 67.3804 0.0 0.0
-6.622 34.7659 68.2142 0.0 0.0
-7.5053 34.1917 69.0332 0.0 0.0
-7.5349 34.0091 69.2976 0.0 0.0
-7.852 34.0439 69.247 0.0 0.0
-7.8212 34.2266 68.9828 0.0 0.0
-6.9348 34.7974 68.1697 0.0 0.0
-6.069 35.3912 67.3417 0.0 0.0
-5.2242 36.0076 66.499 0.0 0.0
-4.3993 36.647 65.6413 0.0 0.0
-3.5946 37.3093 64.769 0.0 0.0
-2.8093 37.9946 63.8817 0.0 0.0
-2.0428 38.7033 62.9788 0.0 0.0
-1.2951 39.4352 62.0606 0.0 0.0
-0.5657 40.1908 61.1267 0.0 0.0
0.1462 40.9706 60.1761 0.0 0.0
0.8406 41.7746 59.2092 0.0 0.0
1.5182 42.6036 58.2246 0.0 0.0
2.1791 43.4576 57.2222 0.0 0.0
2.824 44.3377 56.2012 0.0 0.0
3.4535 45.2447 55.1603 0.0 0.0
4.0675 46.1791 54.0993 0.0 0.0
4.6667 47.142 53.0165 0.0 0.0
5.2517 48.1349 51.9105 0.0 0.0
5.8225 49.1587 50.7807 0.0 0.0
6.3799 50.2154 49.6246 0.0 0.0
6.9238 51.3062 48.441 0.0 0.0
6.9029 51.587 48.138 0.0 0.0
6.6585 51.5396 48.1891 0.0 0.0
6.6787 51.259 48.4921 0.0 0.0
6.1315 50.173 49.6707 0.0 0.0
5.5709 49.121 50.8221 0.0 0.0
4.9968 48.1018 51.9473 0.0 0.0
4.4085 47.1133 53.0486 0.0 0.0
3.8059 46.1547 54.1268 0.0 0.0
3.1885 45.2245 55.1833 0.0 0.0
2.5556 44.3217 56.2197 0.0 0.0
1.9073 43.4457 57.2362 0.0 0.0
1.2429 42.5956 58.2339 0.0 0.0
0.5618 41.7706 59.2139 0.0 0.0
-0.136 40.9706 60.1762 0.0 0.0
-0.8514 40.1947 61.122 0.0 0.0
-1.5843 39.4429 62.0511 0.0 0.0
-2.3354 38.7147 62.9643 0.0 0.0
-3.1053 38.0097 63.8621 0.0 0.0
-3.894 37.3281 64.7444 0.0 0.0
-4.7022 36.6695 65.6114 0.0 0.0
-5.5303 36.0336 66.4637 0.0 0.0
-6.3784 35.4207 67.3008 0.0 0.0
-7.2473 34.8305 68.1233 0.0 0.0
-8.1369 34.2631 68.9305 0.0 0.0
-8.1688 34.0802 69.1944 0.0 0.0
-8.485 34.118 69.1397 0.0 0.0
-8.4518 34.3009 68.876 0.0 0.0
-7.5592 34.8649 68.0747 0.0 0.0
-6.6872 35.4518 67.258 0.0 0.0
-5.8359 36.0612 66.4265 0.0 0.0
-5.0045 36.6935 65.5796 0.0 0.0
-4.1931 37.3485 64.7179 0.0 0.0
-3.401 38.0264 63.8408 0.0 0.0
-2.6277 38.7277 62.948 0.0 0.0
-1.8732 39.4521 62.0397 0.0 0.0
-1.1369 40.2001 61.1154 0.0 0.0
-0.4181 40.9721 60.1743 0.0 0.0
0.2832 41.7683 59.2168 0.0 0.0
0.9677 42.5893 58.2414 0.0 0.0
1.6355 43.4354 57.2483 0.0 0.0
2.2873 44.3073 56.2364 0.0 0.0
2.9235 45.206 55.2045 0.0 0.0
3.5443 46.1319 54.1525 0.0 0.0
4.1502 47.0862 53.0789 0.0 0.0
4.7419 48.0703 51.9822 0.0 0.0
5.3193 49.085 50.8616 0.0 0.0
5.8831 50.1324 49.715 0.0 0.0
6.4335 51.2136 48.5412 0.0 0.0
6.414 51.494 48.2383 0.0 0.0
6.1693 51.4502 48.2856 0.0 0.0
6.1881 51.1699 48.5885 0.0 0.0
5.6345 50.0935 49.7575 0.0 0.0
5.0674 49.0507 50.8993 0.0 0.0
4.4868 48.0405 52.0152 0.0 0.0
3.8918 47.0608 53.1074 0.0 0.0
3.2826 46.1108 54.1764 0.0 0.0
2.6584 45.1891 55.2239 0.0 0.0
2.0188 44.2945 56.2512 0.0 0.0
1.3637 43.4266 57.2584 0.0 0.0
0.6925 42.5846 58.247 0.0 0.0
0.0045 41.7675 59.2177 0.0 0.0
-0.7001 40.9752 60.1706 0.0 0.0
-1.4223 40.207 61.1069 0.0 0.0
-2.162 39.4628 62.0263 0.0 0.0
-2.9199 38.7422 62.9297 0.0 0.0
-3.6965 38.0446 63.8174 0.0 0.0
-4.4919 37.3703 64.6893 0.0 0.0
-5.3066 36.719 65.5459 0.0 0.0
-6.1412 36.0902 66.3873 0.0 0.0
-6.9956 35.4843 67.2132 0.0 0.0
-7.8707 34.9009 68.0241 0.0 0.0
-8.7662 34.3403 68.8196 0.0 0.0
-8.8006 34.1572 69.083 0.0 0.0
-9.1157 34.1979 69.0242 0.0 0.0
-9.0801 34.3811 68.7611 0.0 0.0
-8.1817 34.9384 67.9716 0.0 0.0
-7.3036 35.5184 67.1665 0.0 0.0
-6.4461 36.1207 66.346 0.0 0.0
-5.6084 36.7459 65.51 0.0 0.0
-4.7905 37.3937 64.6589 0.0 0.0
-3.9919 38.0643 63.7921 0.0 0.0
-3.2119 38.7582 62.9095 0.0 0.0
-2.4507 39.4751 62.0111 0.0 0.0
-1.7077 40.2155 61.0965 0.0 0.0
-0.9821 40.9799 60.1651 0.0 0.0
-0.2741 41.7682 59.2168 0.0 0.0
0.4172 42.5814 58.2508 0.0 0.0
1.0918 43.4195 57.2669 0.0 0.0
1.7503 44.2833 56.2641 0.0 0.0
2.3932 45.1738 55.2414 0.0 0.0
3.0207 46.0913 54.1985 0.0 0.0
3.6332 47.037 53.134 0.0 0.0
4.2315 48.0124 52.0465 0.0 0.0
4.8153 49.0181 50.9352 0.0 0.0
5.3856 50.0562 49.798 0.0 0.0
5.9424 51.1279 48.6338 0.0 0.0
5.9243 51.4081 48.3311 0.0 0.0
5.6792 51.3677 48.3747 0.0 0.0
5.6965 51.0877 48.6774 0.0 0.0
5.1366 50.0207 49.8367 0.0 0.0
4.5631 48.9872 50.9692 0.0 0.0
3.976 47.9859 52.0758 0.0 0.0
3.3745 47.0149 53.1588 0.0 0.0
2.7587 46.0734 54.2187 0.0 0.0
2.1279 45.1601 55.2571 0.0 0.0
1.4817 44.2737 56.2752 0.0 0.0
0.8198 43.4139 57.2733 0.0 0.0
0.1419 42.5798 58.2526 0.0 0.0
-0.5527 41.7705 59.214 0.0 0.0
-1.2641 40.9861 60.1576 0.0 0.0
-1.9929 40.2255 61.0842 0.0 0.0
-2.7393 39.4889 61.9939 0.0 0.0
-3.5038 38.7757 62.8873 0.0 0.0
-4.287 38.0856 63.7649 0.0 0.0
-5.0888 37.4186 64.6264 0.0 0.0
-5.9098 36.7744 65.4723 0.0 0.0
-6.7507 36.1528 66.3029 0.0 0.0
-7.6112 35.5539 67.1176 0.0 0.0
-8.4922 34.9773 67.917 0.0 0.0
-9.3934 34.4234 68.7006 0.0 0.0
-9.4302 34.2401 68.9634 0.0 0.0
-10.1896 34.3621 68.7882 0.0 0.0
-10.1688 34.5347 68.5418 0.0 0.0
-9.7064 34.4672 68.6379 0.0 0.0
-8.8024 35.0178 67.8604 0.0 0.0
-7.9186 35.5909 67.0667 0.0 0.0
-7.0551 36.1863 66.2576 0.0 0.0
-6.2112 36.8044 65.4325 0.0 0.0
-5.387 37.445 64.592 0.0 0.0
-4.5821 38.1084 63.7358 0.0 0.0
-3.7957 38.7948 62.8632 0.0 0.0
-3.028 39.5043 61.9748 0.0 0.0
-2.2783 40.2371 61.07 0.0 0.0
-1.5462 40.9938 60.1481 0.0 0.0
-0.8315 41.7744 59.2093 0.0 0.0
-0.1336 42.5798 58.2527 0.0 0.0
0.5477 43.4099 57.278 0.0 0.0
1.2128 44.2656 56.2844 0.0 0.0
1.8623 45.1479 55.2708 0.0 0.0
2.4964 46.0571 54.237 0.0 0.0
3.1155 46.9944 53.1817 0.0 0.0
3.7202 47.9611 52.1034 0.0 0.0
4.3105 48.9579 51.0014 0.0 0.0
4.8872 49.9869 49.8737 0.0 0.0
5.4502 51.0492 48.7192 0.0 0.0
5.4337 51.329 48.4164 0.0 0.0
5.1881 51.2921 48.4563 0.0 0.0
5.2039 51.0124 48.7589 0.0 0.0
4.6402 49.9592 49.9038 0.0 0.0
4.0631 48.9392 51.022 0.0 0.0
3.472 47.9504 52.1153 0.0 0.0
2.8671 46.9919 53.1845 0.0 0.0
2.2477 46.0623 54.2312 0.0 0.0
1.6135 45.1604 55.2566 0.0 0.0
0.9639 44.2852 56.2618 0.0 0.0
0.2988 43.4362 57.2472 0.0 0.0
-0.3822 42.6127 58.2139 0.0 0.0
-1.0795 41.8138 59.1622 0.0 0.0
-1.7939 41.0391 60.0934 0.0 0.0
-2.5251 40.2884 61.0071 0.0 0.0
-3.2738 39.5612 61.9041 0.0 0.0
-4.0404 38.8571 62.7846 0.0 0.0
-4.8254 38.1758 63.6494 0.0 0.0
-5.6288 37.5174 64.4979 0.0 0.0
-6.4512 36.8815 65.3306 0.0 0.0
-7.2927 36.268 66.1477 0.0 0.0
-8.1541 35.6767 66.9493 0.0 0.0
-9.0351 35.1077 67.7348 0.0 0.0
-9.9362 34.5609 68.5046 0.0 0.0
-10.1562 34.5934 68.4585 0.0 0.0
-10.1008 34.8558 68.0876 0.0 0.0
-9.8819 34.8232 68.1335 0.0 0.0
-9.0031 35.3648 67.378 0.0 0.0
-8.1435 35.9277 66.6072 0.0 0.0
-7.3027 36.512 65.8212 0.0 0.0
-6.4807 37.1176 65.0198 0.0 0.0
-5.677 37.7449 64.2033 0.0 0.0
-4.8915 38.3936 63.3716 0.0 0.0
-4.1236 39.0643 62.5242 0.0 0.0
-3.3731 39.7572 61.6611 0.0 0.0
-2.6396 40.4723 60.7821 0.0 0.0
-1.9229 41.2101 59.8868 0.0 0.0
-1.2226 41.9709 58.9749 0.0 0.0
-0.5383 42.755 58.0459 0.0 0.0
0.1303 43.5631 57.0993 0.0 0.0
0.7836 44.3956 56.1345 0.0 0.0
1.422 45.2532 55.1507 0.0 0.0
2.0456 46.1364 54.1475 0.0 0.0
2.6551 47.0466 53.1233 0.0 0.0
3.2506 47.9845 52.0774 0.0 0.0
3.8327 48.9514 51.0086 0.0 0.0
4.4015 49.9485 49.9157 0.0 0.0
4.9574 50.9773 48.7969 0.0 0.0
4.9424 51.257 48.4943 0.0 0.0
4.6964 51.2235 48.5304 0.0 0.0
4.7108 50.944 48.833 0.0 0.0
4.1628 49.9393 49.9258 0.0 0.0
3.6026 48.9652 50.9934 0.0 0.0
3.0294 48.0199 52.0381 0.0 0.0
2.4435 47.1027 53.0605 0.0 0.0
1.844 46.2118 54.0622 0.0 0.0
1.231 45.347 55.0437 0.0 0.0
0.6038 44.5067 56.0064 0.0 0.0
-0.0377 43.6907 56.9508 0.0 0.0
-0.6938 42.8984 57.8772 0.0 0.0
-1.365 42.1289 58.7868 0.0 0.0
-2.0513 41.3822 59.6797 0.0 0.0
-2.7535 40.6573 60.5565 0.0 0.0
-3.4715 39.9545 61.4174 0.0 0.0
-4.206 39.2729 62.263 0.0 0.0
-4.9571 38.6126 63.0935 0.0 0.0
-5.7249 37.9735 63.9086 0.0 0.0
-6.5102 37.3551 64.7091 0.0 0.0
-7.3127 36.7576 65.4946 0.0 0.0
-8.1332 36.1805 66.2655 0.0 0.0
-8.9714 35.624 67.0213 0.0 0.0
-9.8282 35.0879 67.7626 0.0 0.0
-10.0459 35.1206 67.717 0.0 0.0
-9.9916 35.3879 67.3462 0.0 0.0
-9.775 35.3551 67.3916 0.0 0.0
-8.899 35.9125 66.6279 0.0 0.0
-8.0421 36.4915 65.8484 0.0 0.0
-7.204 37.0923 65.0532 0.0 0.0
-6.3845 37.7148 64.2421 0.0 0.0
-5.5834 38.3593 63.4152 0.0 0.0
-4.8002 39.026 62.5723 0.0 0.0
-4.0348 39.715 61.7133 0.0 0.0
-3.2866 40.4266 60.8379 0.0 0.0
-2.5555 41.1612 59.9459 0.0 0.0
-1.8411 41.919 59.0368 0.0 0.0
-1.143 42.7005 58.1102 0.0 0.0
-0.4609 43.5062 57.1656 0.0 0.0
0.2057 44.3366 56.2025 0.0 0.0
0.8569 45.1924 55.22 0.0 0.0
1.4933 46.0744 54.2175 0.0 0.0
2.1151 46.9834 53.194 0.0 0.0
2.7227 47.9205 52.1485 0.0 0.0
3.3164 48.8867 51.0798 0.0 0.0
3.8967 49.8835 49.9865 0.0 0.0
4.4637 50.9124 48.8673 0.0 0.0
4.4502 51.1918 48.5648 0.0 0.0
4.2039 51.1618 48.5972 0.0 0.0
4.2167 50.8825 48.8996 0.0 0.0
3.6584 49.8787 49.9918 0.0 0.0
3.0872 48.9053 51.0593 0.0 0.0
2.5033 47.9615 52.103 0.0 0.0
1.906 47.0457 53.1244 0.0 0.0
1.2952 46.1565 54.1247 0.0 0.0
0.6702 45.2935 55.1046 0.0 0.0
0.0311 44.4557 56.0651 0.0 0.0
-0.6226 43.6423 57.007 0.0 0.0
-1.2914 42.8525 57.9312 0.0 0.0
-1.9752 42.0861 58.8377 0.0 0.0
-2.6747 41.3426 59.7273 0.0 0.0
-3.3902 40.6212 60.6006 0.0 0.0
-4.1218 39.922 61.4575 0.0 0.0
-4.8699 39.2446 62.2986 0.0 0.0
-5.6348 38.5886 63.1239 0.0 0.0
-6.4171 37.9537 63.934 0.0 0.0
-7.2166 37.3402 64.7287 0.0 0.0
-8.0338 36.7475 65.5079 0.0 0.0
-8.8691 36.1755 66.2721 0.0 0.0
-9.7224 35.6244 67.0208 0.0 0.0
-9.9379 35.6574 66.9758 0.0 0.0
-9.8848 35.9291 66.6053 0.0 0.0
-9.6704 35.8961 66.6501 0.0 0.0
-8.7963 36.4699 65.8773 0.0 0.0
-7.9411 37.0659 65.0878 0.0 0.0
-7.105 37.6838 64.2822 0.0 0.0
-6.2873 38.3242 63.4599 0.0 0.0
-5.488 38.9869 62.6214 0.0 0.0
-4.7065 39.6725 61.766 0.0 0.0
-3.9429 40.3808 60.894 0.0 0.0
-3.1966 41.1124 60.0049 0.0 0.0
-2.4671 41.8677 59.0979 0.0 0.0
-1.7544 42.6469 58.1734 0.0 0.0
-1.0578 43.4508 57.2302 0.0 0.0
-0.3774 44.2796 56.2682 0.0 0.0
0.2874 45.1341 55.2866 0.0 0.0
0.9372 46.0154 54.2843 0.0 0.0
1.5719 46.9238 53.2609 0.0 0.0
2.1923 47.8608 52.2148 0.0 0.0
2.7984 48.8272 51.1455 0.0 0.0
3.3908 49.8247 50.0509 0.0 0.0
3.9696 50.8543 48.9301 0.0 0.0
3.9575 51.1336 48.6278 0.0 0.0
3.7109 51.107 48.6565 0.0 0.0
3.7222 50.8279 48.9589 0.0 0.0
3.1528 49.824 50.0517 0.0 0.0
2.5705 48.851 51.1191 0.0 0.0
1.975 47.9077 52.1628 0.0 0.0
1.3659 46.9926 53.1837 0.0 0.0
0.7428 46.1048 54.1832 0.0 0.0
0.1056 45.2432 55.1621 0.0 0.0
-0.5462 44.4071 56.1213 0.0 0.0
-1.2128 43.5956 57.0614 0.0 0.0
-1.8947 42.8083 57.9833 0.0 0.0
-2.5921 42.0445 58.8873 0.0 0.0
-3.3054 41.3037 59.774 0.0 0.0
-4.0349 40.5857 60.6439 0.0 0.0
-4.7808 39.8899 61.4971 0.0 0.0
-5.5435 39.2162 62.3341 0.0 0.0
-6.3234 38.5642 63.1549 0.0 0.0
-7.1205 37.9338 63.9598 0.0 0.0
-7.9354 37.3247 64.7488 0.0 0.0
-8.7681 36.7369 65.5221 0.0 0.0
-9.6189 36.1701 66.2795 0.0 0.0
-9.8322 36.2032 66.2348 0.0 0.0
-9.7802 36.4796 65.8643 0.0 0.0
-9.568 36.4464 65.9087 0.0 0.0
-8.7401 37.0059 65.1667 0.0 0.0
-7.9297 37.5854 64.4097 0.0 0.0
-7.1359 38.1854 63.6372 0.0 0.0
-6.3592 38.8057 62.8496 0.0 0.0
-5.5986 39.4468 62.0464 0.0 0.0
-4.8546 40.1086 61.2278 0.0 0.0
-4.1262 40.7917 60.3933 0.0 0.0
-3.4136 41.4962 59.5427 0.0 0.0
-2.7165 42.2222 58.676 0.0 0.0
-2.0344 42.9706 57.7923 0.0 0.0
-1.3672 43.7414 56.8918 0.0 0.0
-0.7143 44.5355 55.9733 0.0 0.0
-0.0757 45.3533 55.0365 0.0 0.0
0.5489 46.1952 54.0809 0.0 0.0
1.1601 47.0626 53.1053 0.0 0.0
1.7579 47.9558 52.1094 0.0 0.0
2.3428 48.8763 51.0914 0.0 0.0
2.9149 49.8248 50.0508 0.0 0.0
3.4748 50.8032 48.9857 0.0 0.0
3.4642 51.0822 48.6834 0.0 0.0
3.2172 51.0591 48.7084 0.0 0.0
3.227 50.7801 49.0107 0.0 0.0
2.646 49.7753 50.1049 0.0 0.0
2.0518 48.8018 51.1734 0.0 0.0
1.4441 47.8583 52.2177 0.0 0.0
0.8225 46.9434 53.239 0.0 0.0
0.1867 46.0561 54.2383 0.0 0.0
-0.4636 45.1953 55.2167 0.0 0.0
-1.1288 44.3604 56.175 0.0 0.0
-1.8092 43.5505 57.1139 0.0 0.0
-2.5052 42.7651 58.0342 0.0 0.0
-3.217 42.0033 58.9364 0.0 0.0
-3.9449 41.2651 59.8206 0.0 0.0
-4.6892 40.5499 60.6875 0.0 0.0
-5.4504 39.8573 61.5372 0.0 0.0
-6.2286 39.1871 62.3703 0.0 0.0
-7.0241 38.539 63.1868 0.0 0.0
-7.8373 37.9128 63.9868 0.0 0.0
-8.6684 37.3082 64.7703 0.0 0.0
-9.5176 36.7252 65.5376 0.0 0.0
-9.7287 36.7585 65.4934 0.0 0.0
-9.6778 37.0394 65.1225 0.0 0.0
-9.4677 37.006 65.1665 0.0 0.0
-8.6422 37.5807 64.4157 0.0 0.0
-7.834 38.1762 63.6489 0.0 0.0
-7.0425 38.7922 62.8666 0.0 0.0
-6.268 39.4293 62.068 0.0 0.0
-5.5099 40.0876 61.2536 0.0 0.0
-4.7677 40.767 60.4232 0.0 0.0
-4.0417 41.4684 59.5761 0.0 0.0
-3.3311 42.1915 58.7125 0.0 0.0
-2.6361 42.9373 57.8315 0.0 0.0
-1.9559 43.7057 56.9333 0.0 0.0
-1.2906 44.4975 56.017 0.0 0.0
-0.6396 45.3135 55.0818 0.0 0.0
-0.003 46.1542 54.1272 0.0 0.0
0.62 47.0201 53.1529 0.0 0.0
1.2293 47.9126 52.1572 0.0 0.0
1.8255 48.8323 51.1398 0.0 0.0
2.4086 49.7807 50.0989 0.0 0.0
2.9793 50.7588 49.0338 0.0 0.0
2.9702 51.0377 48.7315 0.0 0.0
2.7231 51.018 48.7528 0.0 0.0
2.7315 50.7392 49.0551 0.0 0.0
2.1382 49.7324 50.1518 0.0 0.0
1.5314 48.7574 51.2223 0.0 0.0
0.9105 47.8125 52.2685 0.0 0.0
0.2756 46.897 53.2909 0.0 0.0
-0.3738 46.0095 54.2911 0.0 0.0
-1.0381 45.1489 55.2697 0.0 0.0
-1.7176 44.3146 56.228 0.0 0.0
-2.4126 43.5056 57.1662 0.0 0.0
-3.1237 42.7213 58.0856 0.0 0.0
-3.8507 41.9615 58.9861 0.0 0.0
-4.5942 41.2255 59.8684 0.0 0.0
-5.3545 40.5128 60.7327 0.0 0.0
-6.132 39.8231 61.5795 0.0 0.0
-6.9267 39.1562 62.409 0.0 0.0
-7.7394 38.5116 63.2217 0.0 0.0
-8.5698 37.8893 64.0169 0.0 0.0
-9.4183 37.2891 64.7952 0.0 0.0
-9.6274 37.3226 64.7515 0.0 0.0
-9.5775 37.6081 64.3802 0.0 0.0
-9.3695 37.5745 64.4237 0.0 0.0
-8.5455 38.1655 63.6626 0.0 0.0
-7.7387 38.7775 62.8851 0.0 0.0
-6.9488 39.4107 62.0913 0.0 0.0
-6.1756 40.0654 61.2809 0.0 0.0
-5.4188 40.7417 60.4538 0.0 0.0
-4.6782 41.4401 59.61 0.0 0.0
-3.9535 42.1608 58.7488 0.0 0.0
-3.2444 42.9043 57.8703 0.0 0.0
-2.5507 43.671 56.9737 0.0 0.0
-1.8719 44.4613 56.0586 0.0 0.0
-1.2079 45.276 55.1246 0.0 0.0
-0.5584 46.1157 54.1707 0.0 0.0
0.077 46.9812 53.1964 0.0 0.0
0.6986 47.8734 52.2008 0.0 0.0
1.3067 48.7934 51.1827 0.0 0.0
1.9016 49.7422 50.141 0.0 0.0
2.4835 50.7213 49.0745 0.0 0.0
2.476 51.0001 48.7723 0.0 0.0
2.2287 50.9838 48.7898 0.0 0.0
2.2355 50.7051 49.092 0.0 0.0
1.665 49.7535 50.1287 0.0 0.0
1.0823 48.8306 51.1416 0.0 0.0
0.4871 47.9355 52.1317 0.0 0.0
-0.1211 47.0666 53.1009 0.0 0.0
-0.7425 46.2231 54.0495 0.0 0.0
-1.3772 45.4042 54.9785 0.0 0.0
-2.0257 44.6091 55.8885 0.0 0.0
-2.6881 43.8373 56.7803 0.0 0.0
-3.3645 43.0884 57.6542 0.0 0.0
-4.0557 42.3613 58.511 0.0 0.0
-4.7616 41.656 59.3511 0.0 0.0
-5.4826 40.972 60.1745 0.0 0.0
-6.2189 40.309 60.9818 0.0 0.0
-6.9707 39.6668 61.7731 0.0 0.0
-7.738 39.0452 62.5482 0.0 0.0
-8.5215 38.4436 63.3079 0.0 0.0
-9.3211 37.8622 64.052 0.0 0.0
-9.5281 37.8958 64.0086 0.0 0.0
-9.4792 38.186 63.6363 0.0 0.0
-9.2732 38.1523 63.6796 0.0 0.0
-8.4497 38.7604 62.9067 0.0 0.0
-7.6435 39.3899 62.1171 0.0 0.0
-6.854 40.0414 61.3103 0.0 0.0
-6.0815 40.7148 60.4865 0.0 0.0
-5.3253 41.4108 59.6451 0.0 0.0
-4.5852 42.1295 58.7861 0.0 0.0
-3.8613 42.8711 57.9092 0.0 0.0
-3.1528 43.6365 57.0137 0.0 0.0
-2.4597 44.426 56.0993 0.0 0.0
-1.7818 45.24 55.1656 0.0 0.0
-1.1185 46.0797 54.2116 0.0 0.0
-0.4696 46.9455 53.2366 0.0 0.0
0.165 47.8382 52.24 0.0 0.0
0.7859 48.7593 51.2203 0.0 0.0
1.3931 49.7095 50.1769 0.0 0.0
1.9872 50.6906 49.1078 0.0 0.0
1.9812 50.9693 48.8056 0.0 0.0
1.7338 50.9565 48.8195 0.0 0.0
1.7391 50.6778 49.1216 0.0 0.0
1.1576 49.7256 50.1591 0.0 0.0
0.5634 48.8025 51.1726 0.0 0.0
-0.0435 47.907 52.1635 0.0 0.0
-0.6635 47.0385 53.1324 0.0 0.0
-1.2969 46.1957 54.0803 0.0 0.0
-1.9442 45.3779 55.0083 0.0 0.0
-2.6052 44.5841 55.9174 0.0 0.0
-3.2804 43.814 56.8075 0.0 0.0
-3.9701 43.0668 57.6794 0.0 0.0
-4.6746 42.3421 58.5337 0.0 0.0
-5.3944 41.6393 59.3711 0.0 0.0
-6.1291 40.9583 60.1912 0.0 0.0
-6.8794 40.2986 60.9947 0.0 0.0
-7.6455 39.6597 61.7819 0.0 0.0
-8.4277 39.0418 62.5525 0.0 0.0
-9.2259 38.4444 63.3069 0.0 0.0
-9.4308 38.4782 63.2639 0.0 0.0
-9.3829 38.7727 62.8911 0.0 0.0
-9.179 38.7388 62.9339 0.0 0.0
-8.3548 39.3651 62.1481 0.0 0.0
-7.5477 40.0138 61.3444 0.0 0.0
-6.7579 40.6848 60.5231 0.0 0.0
-5.9849 41.3786 59.6839 0.0 0.0
-5.2281 42.0958 58.8263 0.0 0.0
-4.4879 42.8363 57.9502 0.0 0.0
-3.7637 43.6009 57.0553 0.0 0.0
-3.0549 44.3902 56.1406 0.0 0.0
-2.3618 45.2045 55.2062 0.0 0.0
-1.6838 46.0447 54.2512 0.0 0.0
-1.0204 46.9118 53.2744 0.0 0.0
-0.3717 47.8062 52.2755 0.0 0.0
0.2629 48.7293 51.2533 0.0 0.0
0.8837 49.6825 50.2062 0.0 0.0
1.4908 50.6668 49.1337 0.0 0.0
1.4863 50.9454 48.8316 0.0 0.0
1.2387 50.936 48.8418 0.0 0.0
1.2425 50.6574 49.1438 0.0 0.0
0.6491 49.7033 50.1836 0.0 0.0
0.0429 48.7787 51.1988 0.0 0.0
-0.5765 47.8824 52.1908 0.0 0.0
-1.2093 47.0133 53.1606 0.0 0.0
-1.8557 46.1703 54.109 0.0 0.0
-2.5161 45.3527 55.0371 0.0 0.0
-3.1908 44.5596 55.9454 0.0 0.0
-3.8802 43.7903 56.835 0.0 0.0
-4.5842 43.0445 57.7057 0.0 0.0
-5.3032 42.3215 58.5583 0.0 0.0
-6.0375 41.6209 59.3931 0.0 0.0
-6.7874 40.9423 60.2105 0.0 0.0
-7.5531 40.2854 61.0107 0.0 0.0
-8.3347 39.6499 61.794 0.0 0.0
-9.1325 39.0355 62.5605 0.0 0.0
-9.3355 39.0695 62.5178 0.0 0.0
-9.2885 39.3687 62.1436 0.0 0.0
-9.0865 39.3346 62.1861 0.0 0.0
-8.3147 39.9369 61.4391 0.0 0.0
-7.5581 40.559 60.6763 0.0 0.0
-6.8167 41.2017 59.897 0.0 0.0
-6.0898 41.8648 59.1013 0.0 0.0
-5.3776 42.5489 58.2891 0.0 0.0
-4.6797 43.254 57.4602 0.0 0.0
-3.9959 43.981 56.6138 0.0 0.0
-3.3263 44.7301 55.7495 0.0 0.0
-2.6701 45.5019 54.8671 0.0 0.0
-2.0273 46.2968 53.9662 0.0 0.0
-1.3976 47.1159 53.0456 0.0 0.0
-0.7809 47.9598 52.1048 0.0 0.0
-0.177 48.8294 51.1429 0.0 0.0
0.4147 49.7255 50.1593 0.0 0.0
0.9942 50.6497 49.1521 0.0 0.0
0.9911 50.9283 48.8501 0.0 0.0
0.7433 50.9223 48.8566 0.0 0.0
0.7456 50.6438 49.1587 0.0 0.0
0.1394 49.6865 50.2019 0.0 0.0
-0.48 48.7593 51.2202 0.0 0.0
-1.1128 47.8609 52.2147 0.0 0.0
-1.7594 46.9902 53.1865 0.0 0.0
-2.42 46.1461 54.1364 0.0 0.0
-3.095 45.3278 55.0655 0.0 0.0
-3.7846 44.5346 55.9744 0.0 0.0
-4.489 43.7655 56.8639 0.0 0.0
-5.2084 43.0203 57.7339 0.0 0.0
-5.9433 42.2985 58.5854 0.0 0.0
-6.6937 41.5995 59.4187 0.0 0.0
-7.46 40.9229 60.2339 0.0 0.0
-8.2424 40.2685 61.0315 0.0 0.0
-9.041 39.6358 61.8115 0.0 0.0
-9.242 39.6699 61.7691 0.0 0.0
-9.196 39.9735 61.394 0.0 0.0
-8.996 39.9392 61.4362 0.0 0.0
-8.2247 40.5583 60.6771 0.0 0.0
-7.4685 41.198 59.9015 0.0 0.0
-6.7274 41.8586 59.1089 0.0 0.0
-6.0012 42.5404 58.2992 0.0 0.0
-5.2895 43.2438 57.4722 0.0 0.0
-4.5922 43.9692 56.6274 0.0 0.0
-3.9091 44.7174 55.7642 0.0 0.0
-3.2397 45.4883 54.8826 0.0 0.0
-2.5842 46.283 53.9819 0.0 0.0
-1.9421 47.102 53.0613 0.0 0.0
-1.3131 47.9461 52.12 0.0 0.0
-0.6971 48.8164 51.1573 0.0 0.0
-0.0937 49.7138 50.1721 0.0 0.0
0.4972 50.6395 49.1632 0.0 0.0
0.4957 50.918 48.8612 0.0 0.0
0.2479 50.9154 48.8639 0.0 0.0
0.2486 50.6367 49.1664 0.0 0.0
-0.3717 49.6745 50.2151 0.0 0.0
-1.0055 48.7433 51.2378 0.0 0.0
-1.6532 47.8413 52.2364 0.0 0.0
-2.3149 46.9678 53.2115 0.0 0.0
-2.9911 46.1213 54.1644 0.0 0.0
-3.6819 45.3014 55.0956 0.0 0.0
-4.3878 44.5069 56.0063 0.0 0.0
-5.1087 43.7374 56.8963 0.0 0.0
-5.8454 42.9921 57.7671 0.0 0.0
-6.5975 42.2708 58.6183 0.0 0.0
-7.3659 41.5726 59.4509 0.0 0.0
-8.1503 40.8976 60.2647 0.0 0.0
-8.9514 40.245 61.0603 0.0 0.0
-9.1504 40.2793 61.0182 0.0 0.0
-9.1053 40.5874 60.6417 0.0 0.0
-8.9072 40.553 60.6836 0.0 0.0
-8.135 41.1903 59.9107 0.0 0.0
-7.3781 41.8489 59.1204 0.0 0.0
-6.6365 42.5289 58.3127 0.0 0.0
-5.9096 43.2312 57.4869 0.0 0.0
-5.1974 43.9559 56.6428 0.0 0.0
-4.4996 44.7035 55.7801 0.0 0.0
-3.8162 45.4744 54.8986 0.0 0.0
-3.1467 46.2696 53.997 0.0 0.0
-2.4908 47.0896 53.0751 0.0 0.0
-1.8484 47.9353 52.1321 0.0 0.0
-1.2195 48.8073 51.1674 0.0 0.0
-0.6033 49.7071 50.1793 0.0 0.0
0.0002 50.6358 49.1672 0.0 0.0
0.0002 50.9146 48.8649 0.0 0.0
-0.2475 50.9154 48.8639 0.0 0.0
-0.2483 50.6367 49.1664 0.0 0.0
-0.8347 49.7412 50.1421 0.0 0.0
-1.433 48.8727 51.0952 0.0 0.0
-2.0434 48.0302 52.0268 0.0 0.0
-2.6662 47.2125 52.9376 0.0 0.0
-3.3016 46.4189 53.8286 0.0 0.0
-3.9498 45.6486 54.7003 0.0 0.0
-4.611 44.9013 55.5532 0.0 0.0
-5.2855 44.1758 56.3882 0.0 0.0
-5.9734 43.4719 57.2057 0.0 0.0
-6.6749 42.789 58.0058 0.0 0.0
-7.3903 42.127 58.7892 0.0 0.0
-8.1198 41.4852 59.5557 0.0 0.0
-8.8634 40.8636 60.306 0.0 0.0
-9.0606 40.8981 60.2641 0.0 0.0
-9.0163 41.2108 59.886 0.0 0.0
-8.8201 41.1762 59.9277 0.0 0.0
-8.0457 41.8333 59.1391 0.0 0.0
-7.2866 42.5127 58.3319 0.0 0.0
-6.5428 43.2144 57.5065 0.0 0.0
-5.8142 43.9391 56.6624 0.0 0.0
-5.1001 44.6871 55.7989 0.0 0.0
-4.4008 45.4595 54.9155 0.0 0.0
-3.7158 46.2562 54.012 0.0 0.0
-3.0447 47.0783 53.0877 0.0 0.0
-2.3876 47.9266 52.1416 0.0 0.0
-1.7441 48.8024 51.1728 0.0 0.0
-1.1138 49.7061 50.1806 0.0 0.0
-0.4967 50.6392 49.1635 0.0 0.0
-0.4952 50.918 48.8612 0.0 0.0
-0.743 50.9223 48.8566 0.0 0.0
-0.7453 50.6435 49.159 0.0 0.0
-1.3435 49.7457 50.1372 0.0 0.0
-1.9541 48.8751 51.0926 0.0 0.0
-2.5769 48.0311 52.0256 0.0 0.0
-3.2125 47.2123 52.9379 0.0 0.0
-3.8608 46.4181 53.8293 0.0 0.0
-4.5223 45.6478 54.7012 0.0 0.0
-5.197 44.9003 55.5544 0.0 0.0
-5.8852 44.1755 56.3886 0.0 0.0
-6.5872 43.4724 57.205 0.0 0.0
-7.303 42.7911 58.0035 0.0 0.0
-8.0331 42.1307 58.7847 0.0 0.0
-8.7772 41.4912 59.5486 0.0 0.0
-8.9725 41.5259 59.507 0.0 0.0
-8.9291 41.8433 59.1271 0.0 0.0
-8.7347 41.8085 59.1686 0.0 0.0
-7.9562 42.4876 58.3616 0.0 0.0
-7.1932 43.19 57.5351 0.0 0.0
-6.4458 43.9158 56.6893 0.0 0.0
-5.7134 44.6658 55.8234 0.0 0.0
-4.9962 45.4403 54.9373 0.0 0.0
-4.2936 46.2403 54.03 0.0 0.0
-3.6057 47.0662 53.1014 0.0 0.0
-2.9318 47.9191 52.15 0.0 0.0
-2.2722 48.7998 51.1757 0.0 0.0
-1.6261 49.7096 50.1767 0.0 0.0
-0.9937 50.6494 49.1524 0.0 0.0
-0.9906 50.9283 48.8501 0.0 0.0
-1.2382 50.9359 48.8417 0.0 0.0
-1.242 50.6571 49.1441 0.0 0.0
-1.8536 49.755 50.127 0.0 0.0
-2.4776 48.881 51.0862 0.0 0.0
-3.1143 48.0338 52.0226 0.0 0.0
-3.764 47.2126 52.9374 0.0 0.0
-4.4269 46.4165 53.8313 0.0 0.0
-5.103 45.6448 54.7046 0.0 0.0
-5.7929 44.8965 55.5586 0.0 0.0
-6.4966 44.1712 56.3935 0.0 0.0
-7.2143 43.4684 57.2098 0.0 0.0
-7.9463 42.7875 58.0077 0.0 0.0
-8.6926 42.1282 58.7876 0.0 0.0
-8.8861 42.1631 58.7463 0.0 0.0
-8.8435 42.4855 58.3641 0.0 0.0
-8.6509 42.4506 58.4054 0.0 0.0
-7.9366 43.0895 57.6529 0.0 0.0
-7.2353 43.7487 56.8832 0.0 0.0
-6.5472 44.4282 56.0968 0.0 0.0
-5.8721 45.1286 55.293 0.0 0.0
-5.2094 45.8503 54.4713 0.0 0.0
-4.5594 46.5943 53.6311 0.0 0.0
-3.9216 47.3605 52.7723 0.0 0.0
-3.2961 48.1499 51.8938 0.0 0.0
-2.6826 48.9634 50.9953 0.0 0.0
-2.0806 49.8021 50.0755 0.0 0.0
-1.4903 50.6665 49.134 0.0 0.0
-1.4857 50.9453 48.8315 0.0 0.0
-1.7334 50.9564 48.8195 0.0 0.0
-1.7387 50.6775 49.1219 0.0 0.0
-2.3651 49.7692 50.1115 0.0 0.0
-3.0045 48.8894 51.0768 0.0 0.0
-3.6569 48.0375 52.0186 0.0 0.0
-4.3227 47.212 52.9382 0.0 0.0
-5.002 46.4124 53.8359 0.0 0.0
-5.695 45.6377 54.7127 0.0 0.0
-6.4023 44.8871 55.5695 0.0 0.0
-7.1235 44.1602 56.4062 0.0 0.0
-7.8594 43.4562 57.2238 0.0 0.0
-8.6096 42.775 58.0223 0.0 0.0
-8.8013 42.81 57.9811 0.0 0.0
-8.7595 43.1371 57.5972 0.0 0.0
-8.5687 43.102 57.6383 0.0 0.0
-7.8528 43.7601 56.87 0.0 0.0
-7.1502 44.4392 56.0842 0.0 0.0
-6.4607 45.1396 55.2804 0.0 0.0
-5.7841 45.8618 54.4583 0.0 0.0
-5.1204 46.6064 53.6173 0.0 0.0
-4.4693 47.3741 52.7571 0.0 0.0
-3.8306 48.1654 51.8768 0.0 0.0
-3.2041 48.9813 50.9758 0.0 0.0
-2.5896 49.8226 50.0532 0.0 0.0
-1.9869 50.6903 49.1081 0.0 0.0
-1.9808 50.9693 48.8057 0.0 0.0
-2.2282 50.9838 48.7899 0.0 0.0
-2.235 50.7048 49.0924 0.0 0.0
-2.8787 49.787 50.092 0.0 0.0
-3.5357 48.8991 51.0663 0.0 0.0
-4.2063 48.0396 52.0162 0.0 0.0
-4.8907 47.2077 52.9429 0.0 0.0
-5.5894 46.4021 53.8474 0.0 0.0
-6.3021 45.6225 54.73 0.0 0.0
-7.0294 44.8679 55.5914 0.0 0.0
-7.7714 44.1377 56.4322 0.0 0.0
-8.5282 43.4313 57.2529 0.0 0.0
-8.7181 43.4665 57.2119 0.0 0.0
-8.6771 43.7985 56.8255 0.0 0.0
-8.4881 43.7632 56.8665 0.0 0.0
-7.7686 44.443 56.0799 0.0 0.0
-7.0627 45.1446 55.2746 0.0 0.0
-6.37 45.8687 54.4505 0.0 0.0
-5.6904 46.6157 53.6069 0.0 0.0
-5.0238 47.3863 52.7433 0.0 0.0
-4.37 48.1813 51.8592 0.0 0.0
-3.7287 49.0014 50.9536 0.0 0.0
-3.0998 49.8476 50.0258 0.0 0.0
-2.483 50.721 49.0748 0.0 0.0
-2.4754 51.0 48.7723 0.0 0.0
-2.7226 51.018 48.7529 0.0 0.0
-2.731 50.7389 49.0554 0.0 0.0
-3.3206 49.9096 49.9581 0.0 0.0
-3.9213 49.105 50.8397 0.0 0.0
-4.5332 48.3243 51.7007 0.0 0.0
-5.1564 47.5664 52.5426 0.0 0.0
-5.791 46.8306 53.3655 0.0 0.0
-6.4374 46.1163 54.1701 0.0 0.0
-7.0956 45.4233 54.9566 0.0 0.0
-7.7659 44.7505 55.726 0.0 0.0
-8.4483 44.0978 56.4785 0.0 0.0
-8.6365 44.1332 56.4375 0.0 0.0
-8.5962 44.4702 56.0486 0.0 0.0
-8.4089 44.4347 56.0894 0.0 0.0
-7.6833 45.1394 55.2806 0.0 0.0
-6.9716 45.8671 54.4523 0.0 0.0
-6.2733 46.6187 53.6036 0.0 0.0
-5.5884 47.3944 52.7344 0.0 0.0
-4.9168 48.1955 51.8434 0.0 0.0
-4.2581 49.0226 50.9303 0.0 0.0
-3.6123 49.8764 49.9944 0.0 0.0
-2.979 50.7585 49.0341 0.0 0.0
-2.9699 51.0377 48.7316 0.0 0.0
-3.2168 51.059 48.7084 0.0 0.0
-3.2267 50.7798 49.011 0.0 0.0
-3.8289 49.9465 49.9177 0.0 0.0
-4.4425 49.1385 50.8028 0.0 0.0
-5.0675 48.3547 51.6671 0.0 0.0
-5.7041 47.5947 52.511 0.0 0.0
-6.3523 46.857 53.3358 0.0 0.0
-7.0127 46.1414 54.1417 0.0 0.0
-7.6851 45.4473 54.9293 0.0 0.0
-8.3699 44.7742 55.699 0.0 0.0
-8.5564 44.8097 55.6581 0.0 0.0
-8.5168 45.1519 55.2663 0.0 0.0
-8.3312 45.1162 55.3071 0.0 0.0
-7.5957 45.8505 54.471 0.0 0.0
-6.8747 46.6094 53.614 0.0 0.0
-6.1674 47.3939 52.735 0.0 0.0
-5.474 48.2043 51.8337 0.0 0.0
-4.7941 49.042 50.9088 0.0 0.0
-4.1277 49.9077 49.9602 0.0 0.0
-3.4743 50.8028 48.986 0.0 0.0
-3.4636 51.0821 48.6834 0.0 0.0
-3.7104 51.107 48.6566 0.0 0.0
-3.7217 50.8276 48.9593 0.0 0.0
-4.339 49.9874 49.8731 0.0 0.0
-4.9678 49.173 50.7649 0.0 0.0
-5.6086 48.3839 51.6348 0.0 0.0
-6.2612 47.6187 52.4843 0.0 0.0
-6.9261 46.8771 53.3133 0.0 0.0
-7.6032 46.1579 54.123 0.0 0.0
-8.2928 45.4612 54.9136 0.0 0.0
-8.4777 45.497 54.8728 0.0 0.0
-8.4389 45.8445 54.4779 0.0 0.0
-8.2549 45.8086 54.5187 0.0 0.0
-7.6105 46.4674 53.7738 0.0 0.0
-6.9772 47.1462 53.0118 0.0 0.0
-6.3545 47.8448 52.2326 0.0 0.0
-5.7426 48.5645 51.4353 0.0 0.0
-5.1411 49.3052 50.6198 0.0 0.0
-4.55 50.0683 49.7849 0.0 0.0
-3.969 50.854 48.9305 0.0 0.0
-3.9569 51.1335 48.6279 0.0 0.0
-4.2035 51.1618 48.5973 0.0 0.0
-4.2164 50.8822 48.9 0.0 0.0
-4.8523 50.0304 49.8263 0.0 0.0
-5.5003 49.2057 50.7291 0.0 0.0
-6.1606 48.407 51.6093 0.0 0.0
-6.8335 47.6334 52.4677 0.0 0.0
-7.5189 46.8842 53.3052 0.0 0.0
-8.2172 46.1587 54.1223 0.0 0.0
-8.4004 46.1947 54.0815 0.0 0.0
-8.3623 46.5477 53.6835 0.0 0.0
-8.1799 46.5116 53.7242 0.0 0.0
-7.5335 47.1912 52.9614 0.0 0.0
-6.8979 47.8917 52.1805 0.0 0.0
-6.2734 48.6132 51.3814 0.0 0.0
-5.6596 49.3565 50.5634 0.0 0.0
-5.0562 50.1227 49.7255 0.0 0.0
-4.4634 50.9121 48.8676 0.0 0.0
-4.4498 51.1918 48.5649 0.0 0.0
-4.6959 51.2235 48.5306 0.0 0.0
-4.7103 50.9437 48.8334 0.0 0.0
-5.3708 50.0731 49.7797 0.0 0.0
-6.0441 49.2311 50.701 0.0 0.0
-6.7303 48.417 51.5982 0.0 0.0
-7.43 47.6293 52.4725 0.0 0.0
-8.143 46.8672 53.3243 0.0 0.0
-8.3246 46.9035 53.2836 0.0 0.0
-8.2871 47.2624 52.8818 0.0 0.0
-8.1063 47.226 52.9225 0.0 0.0
-7.4543 47.931 52.1368 0.0 0.0
-6.8135 48.6579 51.3321 0.0 0.0
-6.1837 49.4071 50.508 0.0 0.0
-5.5649 50.1799 49.6631 0.0 0.0
-4.9569 50.977 48.7973 0.0 0.0
-4.9418 51.2569 48.4944 0.0 0.0
-5.1878 51.2921 48.4564 0.0 0.0
-5.2036 51.0121 48.7593 0.0 0.0
-5.7588 50.2881 49.5453 0.0 0.0
-6.323 49.5843 50.3138 0.0 0.0
-6.8962 48.9 51.0652 0.0 0.0
-7.4785 48.2345 51.8001 0.0 0.0
-8.07 47.5874 52.519 0.0 0.0
-8.25 47.624 52.4784 0.0 0.0
-8.2133 47.9885 52.073 0.0 0.0
-8.0341 47.9518 52.1136 0.0 0.0
-7.3707 48.6897 51.297 0.0 0.0
-6.7189 49.451 50.4598 0.0 0.0
-6.0788 50.2372 49.6008 0.0 0.0
-5.4499 51.0488 48.7194 0.0 0.0
-5.4333 51.329 48.4165 0.0 0.0
-5.6787 51.3676 48.3748 0.0 0.0
-5.696 51.0873 48.6778 0.0 0.0
-6.258 50.3656 49.4611 0.0 0.0
-6.8291 49.6638 50.2267 0.0 0.0
-7.4092 48.982 50.9749 0.0 0.0
-7.9984 48.3192 51.7064 0.0 0.0
-8.1769 48.356 51.6656 0.0 0.0
-8.1407 48.7266 51.2563 0.0 0.0
-7.9631 48.6897 51.297 0.0 0.0
-7.277 49.4753 50.4333 0.0 0.0
-6.6032 50.2877 49.5458 0.0 0.0
-5.9419 51.1276 48.6343 0.0 0.0
-5.9238 51.408 48.3312 0.0 0.0
-6.1688 51.4501 48.2857 0.0 0.0
-6.1876 51.1695 48.5888 0.0 0.0
-6.7586 50.447 49.3724 0.0 0.0
-7.3387 49.7454 50.1374 0.0 0.0
-7.928 49.0635 50.8852 0.0 0.0
-8.1049 49.1006 50.8445 0.0 0.0
-8.0694 49.4775 50.4307 0.0 0.0
-7.8933 49.4403 50.4715 0.0 0.0
-7.4002 50.0169 49.841 0.0 0.0
-6.9134 50.6079 49.1976 0.0 0.0
-6.4332 51.2133 48.5416 0.0 0.0
-6.4136 51.494 48.2384 0.0 0.0
-6.6581 51.5396 48.1892 0.0 0.0
-6.6784 51.2587 48.4925 0.0 0.0
-7.2639 50.5288 49.2835 0.0 0.0
-7.8588 49.8203 50.0556 0.0 0.0
-8.0343 49.8577 50.0147 0.0 0.0
-7.9994 50.2413 49.5964 0.0 0.0
-7.8247 50.2037 49.6373 0.0 0.0
-7.3713 50.7485 49.045 0.0 0.0
-6.9233 51.3059 48.4415 0.0 0.0
-6.9023 51.5869 48.1381 0.0 0.0
-7.1463 51.636 48.0852 0.0 0.0
-7.168 51.3548 48.3887 0.0 0.0
-7.7908 50.5907 49.2162 0.0 0.0
-7.9648 50.6285 49.1753 0.0 0.0
-7.9305 51.0189 48.7519 0.0 0.0
-7.7573 50.981 48.7929 0.0 0.0
-7.4125 51.4055 48.334 0.0 0.0
-7.39 51.6868 48.0304 0.0 0.0
-7.8538 51.7679 47.9431 0.0 0.0
-7.8883 51.509 48.2222 0.0 0.0
-7.6568 51.4579 48.2773 0.0 0.0
-7.724 51.3748 48.367 0.0 0.0
-7.724 51.0894 48.147 0.0 0.0
-7.8965 51.1277 48.1062 0.0 0.0
-8.0168 49.7478 49.5907 0.0 0.0
-8.1408 48.4097 51.0449 0.0 0.0
-8.2689 47.11 52.4726 0.0 0.0
-8.4008 45.8464 53.8764 0.0 0.0
-8.5371 44.6165 55.2596 0.0 0.0
-8.6778 43.4189 56.6242 0.0 0.0
-8.8233 42.2518 57.9732 0.0 0.0
-8.9739 41.1144 59.3079 0.0 0.0
-9.1295 40.0054 60.6314 0.0 0.0
-9.2906 38.9244 61.9447 0.0 0.0
-9.4575 37.8708 63.2507 0.0 0.0
-9.6305 36.8446 64.5506 0.0 0.0
-9.8101 35.8455 65.8469 0.0 0.0
-9.9962 34.8741 67.1412 0.0 0.0
-10.1896 33.9307 68.4361 0.0 0.0
-9.0826 33.7683 68.6633 0.0 0.0
-7.9687 33.6247 68.8655 0.0 0.0
-6.8483 33.4997 69.0422 0.0 0.0
-5.7225 33.3934 69.193 0.0 0.0
-4.5919 33.3055 69.3183 0.0 0.0
-3.4577 33.236 69.4176 0.0 0.0
-2.3203 33.1849 69.4908 0.0 0.0
-1.1811 33.1522 69.5378 0.0 0.0
-0.0404 33.1378 69.5586 0.0 0.0
1.1002 33.1419 69.5527 0.0 0.0
2.2404 33.1641 69.5208 0.0 0.0
3.3789 33.2046 69.4626 0.0 0.0
4.5151 33.2636 69.3783 0.0 0.0
5.6478 33.3409 69.2679 0.0 0.0
6.7765 33.4367 69.1315 0.0 0.0
7.9 33.5512 68.9692 0.0 0.0
9.0178 33.6841 68.7816 0.0 0.0
10.1287 33.8358 68.5689 0.0 0.0
11.2325 34.0062 68.331 0.0 0.0
11.026 34.9151 67.0858 0.0 0.0
10.8269 35.8503 65.8405 0.0 0.0
10.6347 36.8112 64.5934 0.0 0.0
10.4492 37.7972 63.3428 0.0 0.0
10.27 38.8086 62.087 0.0 0.0
10.0968 39.8457 60.8237 0.0 0.0
9.9292 40.9087 59.5517 0.0 0.0
9.7671 41.998 58.2693 0.0 0.0
9.6101 43.1144 56.9743 0.0 0.0
9.4581 44.2593 55.6647 0.0 0.0
9.3107 45.4336 54.3387 0.0 0.0
9.1678 46.6386 52.9943 0.0 0.0
9.0293 47.8764 51.6289 0.0 0.0
8.8947 49.1491 50.2395 0.0 0.0
8.7641 50.4592 48.8235 0.0 0.0
8.6373 51.8093 47.3778 0.0 0.0
7.8378 51.6171 47.583 0.0 0.0
7.035 51.4441 47.7678 0.0 0.0
6.2296 51.2903 47.9321 0.0 0.0
5.4217 51.1556 48.0763 0.0 0.0
4.6115 51.0398 48.2002 0.0 0.0
3.7996 50.943 48.3039 0.0 0.0
2.9861 50.865 48.3875 0.0 0.0
2.1713 50.8058 48.451 0.0 0.0
1.3558 50.7654 48.4945 0.0 0.0
0.5397 50.7437 48.5178 0.0 0.0
-0.2768 50.7407 48.5211 0.0 0.0
-1.0929 50.7564 48.5042 0.0 0.0
-1.9344 50.7922 48.4658 0.0 0.0
-2.7748 50.8479 48.406 0.0 0.0
-3.6142 50.9236 48.3248 0.0 0.0
-4.4519 51.0193 48.2222 0.0 0.0
-5.2878 51.1351 48.0981 0.0 0.0
-6.1213 51.2711 47.9526 0.0 0.0
-6.9523 51.4274 47.7856 0.0 0.0
-7.7804 51.604 47.5968 0.0 0.0
-7.895 50.2572 49.0409 0.0 0.0
-8.013 48.95 50.4559 0.0 0.0
-8.1346 47.6798 51.8448 0.0 0.0
-8.2598 46.4443 53.21 0.0 0.0
-8.3889 45.2414 54.5548 0.0 0.0
-8.5222 44.0689 55.8814 0.0 0.0
-8.6597 42.9257 57.192 0.0 0.0
-8.8016 41.8108 58.4883 0.0 0.0
-8.9483 40.723 59.7724 0.0 0.0
-9.0999 39.6614 61.0466 0.0 0.0
-9.2567 38.6256 62.3123 0.0 0.0
-9.4188 37.6156 63.5712 0.0 0.0
-9.5868 36.6309 64.8249 0.0 0.0
-9.7608 35.6716 66.076 0.0 0.0
-9.9411 34.738 67.3257 0.0 0.0
-10.1282 33.8309 68.5757 0.0 0.0
-9.0222 33.6752 68.7942 0.0 0.0
-7.9093 33.5381 68.9877 0.0 0.0
-6.7905 33.4195 69.1559 0.0 0.0
-5.6662 33.3193 69.2987 0.0 0.0
-4.5378 33.2374 69.4157 0.0 0.0
-3.4056 33.1738 69.507 0.0 0.0
-2.271 33.1284 69.5721 0.0 0.0
-1.1343 33.1012 69.6113 0.0 0.0
0.003 33.0921 69.6242 0.0 0.0
1.1405 33.1013 69.6111 0.0 0.0
2.2769 33.1286 69.5719 0.0 0.0
3.4118 33.1741 69.5065 0.0 0.0
4.5437 33.2378 69.4152 0.0 0.0
5.6723 33.3197 69.2979 0.0 0.0
6.7963 33.4201 69.1552 0.0 0.0
7.9153 33.5388 68.9868 0.0 0.0
9.028 33.676 68.7931 0.0 0.0
10.1342 33.8318 68.5744 0.0 0.0
11.2325 34.0062 68.331 0.0 0.0
11.3461 33.9423 68.4201 0.0 0.0
11.4971 33.8579 68.5377 0.0 0.0
11.2797 34.7857 67.2608 0.0 0.0
11.0704 35.7409 65.9845 0.0 0.0
10.8685 36.7231 64.7064 0.0 0.0
10.6738 37.7322 63.4244 0.0 0.0
10.4859 38.768 62.1369 0.0 0.0
10.3044 39.8304 60.8422 0.0 0.0
10.1291 40.9201 59.5382 0.0 0.0
9.9595 42.0378 58.2227 0.0 0.0
9.7955 43.1842 56.894 0.0 0.0
9.6367 44.3601 55.5503 0.0 0.0
9.483 45.5671 54.189 0.0 0.0
9.334 46.8071 52.8076 0.0 0.0
9.1896 48.0818 51.4036 0.0 0.0
9.0496 49.3933 49.9746 0.0 0.0
8.9137 50.7445 48.5169 0.0 0.0
8.7819 52.1392 47.0267 0.0 0.0
7.971 51.9387 47.2401 0.0 0.0
7.157 51.7583 47.4323 0.0 0.0
6.34 51.5979 47.6035 0.0 0.0
5.5204 51.4573 47.7535 0.0 0.0
4.6987 51.3365 47.8826 0.0 0.0
3.8748 51.2354 47.9908 0.0 0.0
3.0494 51.1539 48.0781 0.0 0.0
2.2229 51.0919 48.1444 0.0 0.0
1.3952 51.0494 48.1899 0.0 0.0
0.567 51.0264 48.2147 0.0 0.0
-0.2613 51.0228 48.2185 0.0 0.0
-1.0896 51.0386 48.2014 0.0 0.0
-1.9503 51.0757 48.1617 0.0 0.0
-2.8099 51.1339 48.0994 0.0 0.0
-3.6684 51.2132 48.0146 0.0 0.0
-4.525 51.3136 47.9072 0.0 0.0
-5.3799 51.4352 47.7771 0.0 0.0
-6.2321 51.5782 47.6244 0.0 0.0
-7.0816 51.7426 47.449 0.0 0.0
-7.9282 51.9287 47.2508 0.0 0.0
-8.0476 50.5375 48.7392 0.0 0.0
-8.1707 49.1894 50.1957 0.0 0.0
-8.2975 47.8807 51.6242 0.0 0.0
-8.4283 46.6084 53.0279 0.0 0.0
-8.5633 45.3706 54.4095 0.0 0.0
-8.7026 44.1655 55.7714 0.0 0.0
-8.8464 42.9914 57.1162 0.0 0.0
-8.9951 41.8466 58.4463 0.0 0.0
-9.1489 40.7304 59.7636 0.0 0.0
-9.3079 39.6422 61.0698 0.0 0.0
-9.4725 38.5812 62.3671 0.0 0.0
-9.643 37.5468 63.6577 0.0 0.0
-9.8197 36.5392 64.9433 0.0 0.0
-10.0028 35.5586 66.2255 0.0 0.0
-10.1929 34.6051 67.5064 0.0 0.0
-10.3903 33.6792 68.7885 0.0 0.0
-9.3147 33.5246 69.0067 0.0 0.0
-8.2325 33.3875 69.2013 0.0 0.0
-7.1446 33.2678 69.3721 0.0 0.0
-6.0512 33.1654 69.5188 0.0 0.0
-4.9534 33.0802 69.6413 0.0 0.0
-3.8519 33.0122 69.7395 0.0 0.0
-2.7476 32.9614 69.8132 0.0 0.0
-1.6415 32.9276 69.8621 0.0 0.0
-0.5339 32.9108 69.8863 0.0 0.0
0.5741 32.9111 69.8859 0.0 0.0
1.6816 32.9285 69.8607 0.0 0.0
2.788 32.9629 69.8108 0.0 0.0
3.892 33.0144 69.7364 0.0 0.0
4.9933 33.083 69.6373 0.0 0.0
6.091 33.1688 69.5139 0.0 0.0
7.1841 33.2719 69.3664 0.0 0.0
8.2721 33.3922 69.1946 0.0 0.0
9.3538 33.5299 68.9992 0.0 0.0
10.4291 33.6851 68.7801 0.0 0.0
11.4971 33.8579 68.5377 0.0 0.0
11.3461 33.9423 68.4201 0.0 0.0
11.0172 34.0478 68.2732 0.0 0.0
10.9958 34.1412 68.1437 0.0 0.0
10.7988 35.0331 66.9268 0.0 0.0
10.6086 35.9499 65.7098 0.0 0.0
10.425 36.8911 64.4908 0.0 0.0
10.2475 37.8566 63.2685 0.0 0.0
10.0759 38.8462 62.0408 0.0 0.0
9.9099 39.8602 60.8063 0.0 0.0
9.7493 40.8989 59.5634 0.0 0.0
9.5937 41.9628 58.3104 0.0 0.0
9.443 43.0527 57.0455 0.0 0.0
9.2968 44.1694 55.7671 0.0 0.0
9.1551 45.3141 54.473 0.0 0.0
9.0177 46.4881 53.1614 0.0 0.0
8.8842 47.6931 51.83 0.0 0.0
8.7546 48.9311 50.4765 0.0 0.0
8.6287 50.2042 49.0981 0.0 0.0
8.5064 51.5151 47.6917 0.0 0.0
7.717 51.33 47.8895 0.0 0.0
6.9246 51.1635 48.0677 0.0 0.0
6.1296 51.0156 48.2262 0.0 0.0
5.3322 50.886 48.3652 0.0 0.0
4.5326 50.7747 48.4846 0.0 0.0
3.7314 50.6816 48.5844 0.0 0.0
2.9287 50.6068 48.6649 0.0 0.0
2.1247 50.55 48.7258 0.0 0.0
1.3201 50.5114 48.7674 0.0 0.0
0.5149 50.4908 48.7895 0.0 0.0
-0.2907 50.4883 48.7922 0.0 0.0
-1.096 50.5039 48.7755 0.0 0.0
-1.9199 50.5385 48.7383 0.0 0.0
-2.743 50.592 48.6806 0.0 0.0
-3.5651 50.6646 48.6027 0.0 0.0
-4.3856 50.7562 48.5043 0.0 0.0
-5.2044 50.8669 48.3855 0.0 0.0
-6.021 50.9968 48.2463 0.0 0.0
-6.8352 51.146 48.0866 0.0 0.0
-7.6466 51.3145 47.9062 0.0 0.0
-7.7569 50.0066 49.3112 0.0 0.0
-7.8704 48.7362 50.6887 0.0 0.0
-7.9872 47.5007 52.0418 0.0 0.0
-8.1076 46.2978 53.3731 0.0 0.0
-8.2316 45.1257 54.6849 0.0 0.0
-8.3594 43.9827 55.9796 0.0 0.0
-8.4913 42.8676 57.259 0.0 0.0
-8.6273 41.7792 58.5252 0.0 0.0
-8.7677 40.7167 59.78 0.0 0.0
-8.9128 39.6793 61.0248 0.0 0.0
-9.0626 38.6666 62.2617 0.0 0.0
-9.2176 37.6783 63.4922 0.0 0.0
-9.3779 36.7142 64.7178 0.0 0.0
-9.5438 35.7744 65.9404 0.0 0.0
-9.7157 34.8591 67.1614 0.0 0.0
-9.8937 33.9689 68.383 0.0 0.0
-8.8112 33.819 68.5923 0.0 0.0
-7.7225 33.687 68.7776 0.0 0.0
-6.6279 33.5728 68.9386 0.0 0.0
-5.5284 33.4763 69.0752 0.0 0.0
-4.4249 33.3975 69.1871 0.0 0.0
-3.3183 33.3364 69.2743 0.0 0.0
-2.2089 33.2928 69.3366 0.0 0.0
-1.0979 33.2667 69.3738 0.0 0.0
0.0139 33.2581 69.3859 0.0 0.0
1.1255 33.2671 69.3731 0.0 0.0
2.2365 33.2936 69.3353 0.0 0.0
3.3457 33.3377 69.2725 0.0 0.0
4.4525 33.3993 69.1847 0.0 0.0
5.5558 33.4785 69.0721 0.0 0.0
6.6551 33.5754 68.9349 0.0 0.0
7.7495 33.6901 68.7733 0.0 0.0
8.8383 33.8225 68.5874 0.0 0.0
9.9205 33.9728 68.3774 0.0 0.0
10.9958 34.1412 68.1437 0.0 0.0
11.0172 34.0478 68.2732 0.0 0.0
11.1082 34.0768 68.2329 0.0 0.0
10.9067 34.9768 67.0027 0.0 0.0
10.7123 35.9024 65.7721 0.0 0.0
10.5247 36.8529 64.54 0.0 0.0
10.3434 37.8282 63.3039 0.0 0.0
10.1682 38.8284 62.0627 0.0 0.0
9.9988 39.8532 60.8147 0.0 0.0
9.8349 40.9033 59.5581 0.0 0.0
9.6762 41.9794 58.2909 0.0 0.0
9.5225 43.0821 57.0115 0.0 0.0
9.3736 44.212 55.7184 0.0 0.0
9.2292 45.3706 54.4094 0.0 0.0
9.0891 46.5596 53.0821 0.0 0.0
8.9532 47.7803 51.7343 0.0 0.0
8.8213 49.0346 50.364 0.0 0.0
8.6933 50.325 48.9679 0.0 0.0
8.5688 51.6548 47.5428 0.0 0.0
8.3554 51.623 47.5765 0.0 0.0
8.3807 51.3397 47.8792 0.0 0.0
8.441 51.2662 47.9579 0.0 0.0
8.6131 51.3084 47.9126 0.0 0.0
8.6501 50.9119 48.3374 0.0 0.0
8.4772 50.8698 48.3825 0.0 0.0
8.1374 51.2818 47.9411 0.0 0.0
8.1128 51.565 47.6386 0.0 0.0
7.8698 51.5086 47.6987 0.0 0.0
7.8936 51.2257 48.0012 0.0 0.0
8.5138 50.477 48.8044 0.0 0.0
8.6874 50.5188 48.7593 0.0 0.0
8.725 50.1293 49.1788 0.0 0.0
8.5507 50.0876 49.2237 0.0 0.0
8.0976 50.6233 48.647 0.0 0.0
7.6497 51.1713 48.0594 0.0 0.0
7.6266 51.4541 47.757 0.0 0.0
7.3831 51.4013 47.8134 0.0 0.0
7.4056 51.1187 48.1156 0.0 0.0
7.9921 50.3997 48.8875 0.0 0.0
8.5879 49.7017 49.6406 0.0 0.0
8.763 49.7432 49.5957 0.0 0.0
8.8013 49.3601 50.0104 0.0 0.0
8.6255 49.3188 50.0553 0.0 0.0
8.131 49.8877 49.4395 0.0 0.0
7.643 50.4706 48.8112 0.0 0.0
7.1611 51.0679 48.1701 0.0 0.0
7.1394 51.3503 47.8679 0.0 0.0
6.8953 51.301 47.9206 0.0 0.0
6.9162 51.0188 48.2228 0.0 0.0
7.4895 50.3056 48.9888 0.0 0.0
8.072 49.6126 49.737 0.0 0.0
8.6633 48.9394 50.4674 0.0 0.0
8.8399 48.9806 50.4226 0.0 0.0
8.8788 48.6043 50.8326 0.0 0.0
8.7015 48.5632 50.8772 0.0 0.0
8.0125 49.3394 50.0329 0.0 0.0
7.3359 50.1417 49.1655 0.0 0.0
6.6713 50.9715 48.2735 0.0 0.0
6.651 51.2535 47.9714 0.0 0.0
6.4065 51.2078 48.0204 0.0 0.0
6.426 50.9259 48.3224 0.0 0.0
6.9912 50.2125 49.0892 0.0 0.0
7.5653 49.5191 49.8382 0.0 0.0
8.148 48.8453 50.5698 0.0 0.0
8.74 48.1902 51.285 0.0 0.0
8.9181 48.231 51.2402 0.0 0.0
8.9577 47.8609 51.6459 0.0 0.0
8.7789 47.8202 51.6905 0.0 0.0
8.1123 48.5496 50.8922 0.0 0.0
7.4572 49.3025 50.0731 0.0 0.0
6.8132 50.0798 49.2322 0.0 0.0
6.1806 50.882 48.3693 0.0 0.0
6.1618 51.1638 48.0674 0.0 0.0
5.9169 51.1216 48.1127 0.0 0.0
5.9349 50.8399 48.4145 0.0 0.0
6.4937 50.1239 49.1847 0.0 0.0
7.0614 49.428 49.9369 0.0 0.0
7.6379 48.751 50.6725 0.0 0.0
8.2235 48.093 51.3913 0.0 0.0
8.8181 47.4529 52.0944 0.0 0.0
8.9977 47.4935 52.0497 0.0 0.0
9.0381 47.1293 52.4513 0.0 0.0
8.8577 47.0888 52.4959 0.0 0.0
8.2022 47.7862 51.7279 0.0 0.0
7.5575 48.5053 50.9404 0.0 0.0
6.9239 49.2466 50.1336 0.0 0.0
6.301 50.0113 49.3061 0.0 0.0
5.6889 50.7996 48.4578 0.0 0.0
5.6716 51.0811 48.1561 0.0 0.0
5.4262 51.0423 48.1975 0.0 0.0
5.4428 50.761 48.4993 0.0 0.0
6.108 49.8997 49.4265 0.0 0.0
6.7858 49.0668 50.3289 0.0 0.0
7.4768 48.2609 51.2076 0.0 0.0
8.1806 47.4815 52.0628 0.0 0.0
8.8976 46.7276 52.8956 0.0 0.0
9.0788 46.7679 52.8509 0.0 0.0
9.1198 46.4095 53.2489 0.0 0.0
8.9378 46.3693 53.2935 0.0 0.0
8.2876 47.042 52.5477 0.0 0.0
7.6482 47.7351 51.784 0.0 0.0
7.0195 48.4492 51.0018 0.0 0.0
6.4014 49.1849 50.2007 0.0 0.0
5.7938 49.9429 49.3799 0.0 0.0
5.1965 50.7241 48.5389 0.0 0.0
5.1806 51.0053 48.2372 0.0 0.0
4.9349 50.97 48.2749 0.0 0.0
4.95 50.6889 48.5766 0.0 0.0
5.5909 49.8458 49.4847 0.0 0.0
6.2437 49.0295 50.3696 0.0 0.0
6.9088 48.2391 51.2314 0.0 0.0
7.5862 47.4734 52.0718 0.0 0.0
8.276 46.7317 52.8911 0.0 0.0
8.9785 46.0135 53.6899 0.0 0.0
9.1613 46.0535 53.6452 0.0 0.0
9.2031 45.7006 54.0396 0.0 0.0
9.0195 45.6607 54.0843 0.0 0.0
8.3713 46.313 53.3561 0.0 0.0
7.7338 46.9848 52.6109 0.0 0.0
7.107 47.6766 51.8483 0.0 0.0
6.4906 48.3891 51.0675 0.0 0.0
5.8846 49.1224 50.2684 0.0 0.0
5.2889 49.8777 49.4504 0.0 0.0
4.7033 50.6555 48.6125 0.0 0.0
4.6889 50.9365 48.3109 0.0 0.0
4.4427 50.9047 48.345 0.0 0.0
4.4562 50.6238 48.6466 0.0 0.0
5.0787 49.792 49.5429 0.0 0.0
5.7126 48.9859 50.4169 0.0 0.0
6.3582 48.2045 51.2693 0.0 0.0
7.0159 47.4468 52.1012 0.0 0.0
7.6854 46.7124 52.9125 0.0 0.0
8.367 46.0005 53.7043 0.0 0.0
9.0609 45.3105 54.4769 0.0 0.0
9.2453 45.3503 54.4322 0.0 0.0
9.2878 45.0027 54.8234 0.0 0.0
9.1026 44.9631 54.8682 0.0 0.0
8.3626 45.6901 54.0513 0.0 0.0
7.6366 46.4416 53.213 0.0 0.0
6.9243 47.2183 52.353 0.0 0.0
6.2254 48.0211 51.4701 0.0 0.0
5.5402 48.8505 50.5641 0.0 0.0
4.8682 49.7077 49.634 0.0 0.0
4.2092 50.5938 48.6787 0.0 0.0
4.1964 50.8746 48.3773 0.0 0.0
3.95 50.8463 48.4077 0.0 0.0
3.962 50.5656 48.7091 0.0 0.0
4.5696 49.7406 49.5985 0.0 0.0
5.1884 48.9405 50.4662 0.0 0.0
5.8185 48.1644 51.3131 0.0 0.0
6.4603 47.4113 52.1402 0.0 0.0
7.1136 46.6808 52.9475 0.0 0.0
7.7787 45.9722 53.7359 0.0 0.0
8.4557 45.2848 54.5058 0.0 0.0
9.1448 44.6182 55.2577 0.0 0.0
9.3308 44.6578 55.213 0.0 0.0
9.3742 44.3151 55.6013 0.0 0.0
9.1873 44.2757 55.6461 0.0 0.0
8.457 44.9737 54.8561 0.0 0.0
7.7402 45.6946 54.0463 0.0 0.0
7.0368 46.439 53.2161 0.0 0.0
6.3468 47.2075 52.3649 0.0 0.0
5.6697 48.0009 51.4923 0.0 0.0
5.0054 48.8199 50.5974 0.0 0.0
4.3538 49.6656 49.6795 0.0 0.0
3.7147 50.5391 48.7376 0.0 0.0
3.7034 50.8197 48.4362 0.0 0.0
3.4567 50.7948 48.4629 0.0 0.0
3.4673 50.5143 48.7643 0.0 0.0
4.0625 49.693 49.65 0.0 0.0
4.6685 48.8963 50.5144 0.0 0.0
5.2858 48.1228 51.3587 0.0 0.0
5.9141 47.3719 52.1835 0.0 0.0
6.554 46.6433 52.9892 0.0 0.0
7.2053 45.9357 53.7766 0.0 0.0
7.8685 45.2489 54.5462 0.0 0.0
8.5433 44.5826 55.2979 0.0 0.0
9.2302 43.936 56.0329 0.0 0.0
9.4179 43.9753 55.988 0.0 0.0
9.4621 43.638 56.3733 0.0 0.0
9.2735 43.5987 56.4182 0.0 0.0
8.5492 44.2723 55.6501 0.0 0.0
7.8382 44.9675 54.8632 0.0 0.0
7.1405 45.6846 54.0573 0.0 0.0
6.4556 46.4248 53.2319 0.0 0.0
5.7834 47.1882 52.3861 0.0 0.0
5.1239 47.9758 51.5198 0.0 0.0
4.477 48.788 50.6323 0.0 0.0
3.8422 49.6262 49.7223 0.0 0.0
3.2195 50.4912 48.7891 0.0 0.0
3.2097 50.7717 48.4878 0.0 0.0
2.9627 50.7502 48.5107 0.0 0.0
2.9718 50.4698 48.812 0.0 0.0
3.6218 49.5608 49.7931 0.0 0.0
4.2851 48.6811 50.7487 0.0 0.0
4.9619 47.8297 51.6801 0.0 0.0
5.6523 47.0055 52.5881 0.0 0.0
6.3565 46.2077 53.4733 0.0 0.0
7.075 45.4352 54.3369 0.0 0.0
7.8079 44.6875 55.1793 0.0 0.0
8.5552 43.9639 56.0009 0.0 0.0
9.3173 43.264 56.8022 0.0 0.0
9.5067 43.3031 56.7572 0.0 0.0
9.5517 42.9707 57.1399 0.0 0.0
9.3614 42.9317 57.185 0.0 0.0
8.6406 43.5839 56.4352 0.0 0.0
7.9329 44.2568 55.6677 0.0 0.0
7.238 44.951 54.8817 0.0 0.0
6.5561 45.6666 54.0776 0.0 0.0
5.8869 46.4044 53.2545 0.0 0.0
5.2301 47.1649 52.4119 0.0 0.0
4.5856 47.9489 51.5493 0.0 0.0
3.9531 48.7574 50.6657 0.0 0.0
3.3326 49.5907 49.7606 0.0 0.0
2.7239 50.4502 48.8332 0.0 0.0
2.7156 50.7305 48.5319 0.0 0.0
2.4684 50.7125 48.5512 0.0 0.0
2.476 50.4323 48.8525 0.0 0.0
3.109 49.5323 49.8239 0.0 0.0
3.7545 48.661 50.7706 0.0 0.0
4.4133 47.8168 51.6943 0.0 0.0
5.0851 46.9988 52.5954 0.0 0.0
5.7705 46.2066 53.4746 0.0 0.0
6.4696 45.4387 54.333 0.0 0.0
7.1824 44.6948 55.171 0.0 0.0
7.9094 43.9743 55.9891 0.0 0.0
8.6504 43.2769 56.7875 0.0 0.0
9.406 42.6016 57.5668 0.0 0.0
9.5971 42.6405 57.5217 0.0 0.0
9.643 42.313 57.902 0.0 0.0
9.4509 42.2741 57.9472 0.0 0.0
8.7316 42.9075 57.2129 0.0 0.0
8.0252 43.5608 56.4616 0.0 0.0
7.3318 44.2344 55.693 0.0 0.0
6.651 44.9287 54.907 0.0 0.0
5.9828 45.6441 54.1028 0.0 0.0
5.3272 46.381 53.2805 0.0 0.0
4.6836 47.1404 52.439 0.0 0.0
4.0521 47.9228 51.5779 0.0 0.0
3.4324 48.7289 50.6966 0.0 0.0
2.8244 49.5597 49.7942 0.0 0.0
2.2278 50.416 48.8699 0.0 0.0
2.221 50.6963 48.5687 0.0 0.0
1.9737 50.6817 48.5843 0.0 0.0
1.9797 50.4016 48.8856 0.0 0.0
2.5977 49.508 49.8502 0.0 0.0
3.2283 48.6419 50.7914 0.0 0.0
3.8713 47.8026 51.7097 0.0 0.0
4.5274 46.9887 52.6065 0.0 0.0
5.1964 46.1998 53.4821 0.0 0.0
5.8788 45.4347 54.3376 0.0 0.0
6.5746 44.6931 55.173 0.0 0.0
7.2842 43.9741 55.9894 0.0 0.0
8.0074 43.2775 56.7868 0.0 0.0
8.7449 42.6024 57.5658 0.0 0.0
9.4963 41.949 58.3265 0.0 0.0
9.6893 41.9878 58.2812 0.0 0.0
9.736 41.6649 58.6593 0.0 0.0
9.5422 41.6262 58.7047 0.0 0.0
8.7581 42.2996 57.9176 0.0 0.0
7.9894 42.9958 57.111 0.0 0.0
7.236 43.7154 56.2846 0.0 0.0
6.4976 44.4589 55.4383 0.0 0.0
5.7741 45.2267 54.5712 0.0 0.0
5.0652 46.0196 53.6831 0.0 0.0
4.3706 46.8382 52.7732 0.0 0.0
3.6902 47.6834 51.8408 0.0 0.0
3.0237 48.5562 50.885 0.0 0.0
2.3709 49.4575 49.9048 0.0 0.0
1.7315 50.3888 48.8993 0.0 0.0
1.7262 50.6689 48.5981 0.0 0.0
1.4787 50.6578 48.61 0.0 0.0
1.4833 50.3777 48.9112 0.0 0.0
2.0882 49.4882 49.8717 0.0 0.0
2.7054 48.6255 50.8093 0.0 0.0
3.3348 47.7891 51.7247 0.0 0.0
3.9767 46.9777 52.6188 0.0 0.0
4.6314 46.1903 53.4927 0.0 0.0
5.2992 45.4266 54.3465 0.0 0.0
5.98 44.6858 55.1813 0.0 0.0
6.6742 43.967 55.9976 0.0 0.0
7.3819 43.2701 56.7952 0.0 0.0
8.1036 42.5946 57.575 0.0 0.0
8.839 41.9397 58.3374 0.0 0.0
9.5885 41.3056 59.0822 0.0 0.0
9.7832 41.3441 59.0366 0.0 0.0
9.8308 41.0259 59.4127 0.0 0.0
9.6352 40.9874 59.4583 0.0 0.0
8.8552 41.6391 58.6897 0.0 0.0
8.0905 42.3126 57.9023 0.0 0.0
7.3408 43.0087 57.0961 0.0 0.0
6.6059 43.7273 56.2711 0.0 0.0
5.8857 44.4691 55.4267 0.0 0.0
5.1799 45.2346 54.5624 0.0 0.0
4.4881 46.0244 53.6776 0.0 0.0
3.8105 46.8394 52.7718 0.0 0.0
3.1466 47.6803 51.8442 0.0 0.0
2.4962 48.5482 50.8937 0.0 0.0
1.8591 49.4438 49.9199 0.0 0.0
1.235 50.3684 48.9213 0.0 0.0
1.2312 50.6484 48.6201 0.0 0.0
0.9834 50.6407 48.6283 0.0 0.0
0.9865 50.3607 48.9295 0.0 0.0
1.5796 49.4735 49.8876 0.0 0.0
2.1846 48.6129 50.8231 0.0 0.0
2.8017 47.7778 51.737 0.0 0.0
3.4311 46.9674 52.6302 0.0 0.0
4.0729 46.1807 53.5034 0.0 0.0
4.7275 45.4171 54.3573 0.0 0.0
5.3953 44.6757 55.1928 0.0 0.0
6.0759 43.9563 56.0096 0.0 0.0
6.7698 43.2583 56.8088 0.0 0.0
7.4773 42.5812 57.5905 0.0 0.0
8.1984 41.9246 58.355 0.0 0.0
8.9334 41.2882 59.1027 0.0 0.0
9.6824 40.6716 59.8337 0.0 0.0
9.8789 40.71 59.7879 0.0 0.0
9.9275 40.3963 60.1622 0.0 0.0
9.73 40.358 60.208 0.0 0.0
8.9522 40.9902 59.4551 0.0 0.0
8.1895 41.6434 58.6845 0.0 0.0
7.4418 42.3181 57.8959 0.0 0.0
6.7089 43.0144 57.0896 0.0 0.0
5.9903 43.7331 56.2646 0.0 0.0
5.2861 44.4744 55.4206 0.0 0.0
4.5959 45.239 54.5574 0.0 0.0
3.9196 46.0274 53.6743 0.0 0.0
3.257 46.8403 52.7707 0.0 0.0
2.6079 47.6784 51.8463 0.0 0.0
1.9718 48.5429 50.8996 0.0 0.0
1.3486 49.4346 49.9298 0.0 0.0
0.7381 50.3548 48.9359 0.0 0.0
0.7358 50.6348 48.6348 0.0 0.0
0.4882 50.6305 48.6393 0.0 0.0
0.4897 50.3505 48.9404 0.0 0.0
1.1174 49.3972 49.9704 0.0 0.0
1.7584 48.4744 50.9743 0.0 0.0
2.4134 47.5803 51.9541 0.0 0.0
3.0823 46.7144 52.9103 0.0 0.0
3.7657 45.8752 53.8443 0.0 0.0
4.4637 45.062 54.7566 0.0 0.0
5.1763 44.2743 55.6477 0.0 0.0
5.9042 43.511 56.5186 0.0 0.0
6.6475 42.7718 57.3697 0.0 0.0
