Henry99C/3DPrinting_NonPlanarSurfaces_DobotMagician/data_planar/data1/output/angle_values.txt
J1 J2 J3 J5 J6
-12.7634 33.1853 71.23 0.0 0.0
-11.749 32.7677 71.8899 0.0 0.0
-11.9048 32.7929 71.8495 0.0 0.0
-12.0704 32.8271 71.7951 0.0 0.0
-12.2294 32.8746 71.7195 0.0 0.0
-12.3801 32.9349 71.6237 0.0 0.0
-12.5204 33.0073 71.5094 0.0 0.0
-12.6488 33.091 71.3776 0.0 0.0
-12.7634 33.1853 71.23 0.0 0.0
-12.8633 33.2886 71.069 0.0 0.0
-12.9472 33.4002 70.8961 0.0 0.0
-13.014 33.5187 70.7135 0.0 0.0
-13.0632 33.6427 70.5239 0.0 0.0
-13.0944 33.7708 70.3289 0.0 0.0
-13.1072 33.9013 70.1316 0.0 0.0
-13.1019 34.0331 69.9336 0.0 0.0
-13.0768 34.1704 69.7285 0.0 0.0
-13.0533 34.2608 69.5941 0.0 0.0
-12.8051 35.149 68.3014 0.0 0.0
-12.5661 36.0666 67.0107 0.0 0.0
-12.3356 37.0131 65.7199 0.0 0.0
-12.1134 37.9875 64.4272 0.0 0.0
-11.8987 38.9898 63.1306 0.0 0.0
-11.6916 40.0201 61.8281 0.0 0.0
-11.4915 41.0787 60.5173 0.0 0.0
-11.298 42.1655 59.197 0.0 0.0
-11.1108 43.2816 57.8649 0.0 0.0
-10.9297 44.4281 56.5186 0.0 0.0
-10.7543 45.6056 55.1565 0.0 0.0
-10.5842 46.8158 53.776 0.0 0.0
-10.4195 48.0605 52.3745 0.0 0.0
-10.2599 49.3419 50.9491 0.0 0.0
-10.1049 50.6628 49.4968 0.0 0.0
-9.9546 52.0256 48.0142 0.0 0.0
-9.932 52.2212 47.8027 0.0 0.0
-9.9016 52.4257 47.5819 0.0 0.0
-9.8581 52.6244 47.3676 0.0 0.0
-9.8022 52.8148 47.1625 0.0 0.0
-9.7345 52.9951 46.9688 0.0 0.0
-9.656 53.1626 46.7888 0.0 0.0
-9.5674 53.3155 46.6248 0.0 0.0
-9.4699 53.4516 46.4788 0.0 0.0
-9.3647 53.5694 46.3526 0.0 0.0
-9.2529 53.6677 46.2475 0.0 0.0
-9.1358 53.7446 46.1653 0.0 0.0
-9.0147 53.7995 46.1065 0.0 0.0
-8.8909 53.8317 46.0722 0.0 0.0
-8.7661 53.8408 46.0624 0.0 0.0
-8.6367 53.8255 46.0788 0.0 0.0
-8.5506 53.8064 46.0992 0.0 0.0
-7.7175 53.5995 46.3206 0.0 0.0
-6.8811 53.4145 46.5186 0.0 0.0
-6.0418 53.2514 46.6935 0.0 0.0
-5.1999 53.1099 46.8453 0.0 0.0
-4.3559 52.99 46.9741 0.0 0.0
-3.5098 52.8916 47.0801 0.0 0.0
-2.6622 52.8144 47.163 0.0 0.0
-1.8134 52.7585 47.2231 0.0 0.0
-0.9638 52.7239 47.2604 0.0 0.0
-0.1138 52.7105 47.2749 0.0 0.0
0.7362 52.718 47.2669 0.0 0.0
1.586 52.7469 47.2357 0.0 0.0
2.435 52.7971 47.1817 0.0 0.0
3.283 52.8685 47.1048 0.0 0.0
4.1293 52.9613 47.0051 0.0 0.0
4.9741 53.0754 46.8824 0.0 0.0
5.8166 53.2111 46.7367 0.0 0.0
6.6567 53.3684 46.568 0.0 0.0
7.4939 53.5475 46.3762 0.0 0.0
8.3278 53.7485 46.1611 0.0 0.0
8.4506 53.7773 46.1302 0.0 0.0
8.5751 53.7951 46.1112 0.0 0.0
8.7003 53.7898 46.1169 0.0 0.0
8.8243 53.7613 46.1474 0.0 0.0
8.9459 53.7097 46.2025 0.0 0.0
9.0638 53.6361 46.2814 0.0 0.0
9.1766 53.5415 46.3827 0.0 0.0
9.2829 53.4268 46.5055 0.0 0.0
9.3817 53.2933 46.6486 0.0 0.0
9.4718 53.1432 46.8097 0.0 0.0
9.5519 52.9779 46.9873 0.0 0.0
9.6215 52.7998 47.1788 0.0 0.0
9.6792 52.6106 47.3825 0.0 0.0
9.7247 52.4133 47.5953 0.0 0.0
9.7585 52.1982 47.8276 0.0 0.0
9.7756 52.0554 47.982 0.0 0.0
9.9232 50.6909 49.466 0.0 0.0
10.0753 49.369 50.9192 0.0 0.0
10.2321 48.0861 52.3459 0.0 0.0
10.3938 46.8399 53.7487 0.0 0.0
10.5606 45.6285 55.1302 0.0 0.0
10.7328 44.4496 56.4934 0.0 0.0
10.9106 43.3023 57.8403 0.0 0.0
11.0943 42.1849 59.1736 0.0 0.0
11.2841 41.0968 60.4951 0.0 0.0
11.4806 40.0374 61.8064 0.0 0.0
11.6839 39.0059 63.1101 0.0 0.0
11.8945 38.0023 64.4078 0.0 0.0
12.1127 37.0269 65.7014 0.0 0.0
12.339 36.0794 66.993 0.0 0.0
12.5736 35.1608 68.2846 0.0 0.0
12.8173 34.2714 69.5785 0.0 0.0
12.8505 34.1479 69.7622 0.0 0.0
12.8767 34.0172 69.9575 0.0 0.0
12.8848 33.8857 70.1551 0.0 0.0
12.8748 33.7551 70.3528 0.0 0.0
12.8464 33.6268 70.5481 0.0 0.0
12.7998 33.5022 70.739 0.0 0.0
12.7355 33.383 70.9226 0.0 0.0
12.6541 33.2705 71.0972 0.0 0.0
12.5565 33.1659 71.2603 0.0 0.0
12.444 33.0703 71.4101 0.0 0.0
12.3176 32.9851 71.5444 0.0 0.0
12.1787 32.911 71.6616 0.0 0.0
12.0295 32.849 71.7603 0.0 0.0
11.8713 32.7995 71.8391 0.0 0.0
11.6964 32.7615 71.8997 0.0 0.0
11.5786 32.742 71.9309 0.0 0.0
10.439 32.5825 72.1877 0.0 0.0
9.291 32.4404 72.4184 0.0 0.0
8.1354 32.3156 72.6226 0.0 0.0
6.9731 32.208 72.8002 0.0 0.0
5.8052 32.1174 72.9506 0.0 0.0
4.6322 32.0436 73.0737 0.0 0.0
3.4553 31.9867 73.1693 0.0 0.0
2.2755 31.9464 73.237 0.0 0.0
1.0938 31.9228 73.2769 0.0 0.0
-0.0888 31.9157 73.2887 0.0 0.0
-1.2714 31.9254 73.2723 0.0 0.0
-2.4529 31.9516 73.2284 0.0 0.0
-3.6323 31.9943 73.1563 0.0 0.0
-4.8087 32.0538 73.0567 0.0 0.0
-5.9807 32.1301 72.9295 0.0 0.0
-7.148 32.2232 72.7749 0.0 0.0
-8.3094 32.3334 72.5934 0.0 0.0
-9.4639 32.4608 72.3851 0.0 0.0
-10.6107 32.6055 72.1505 0.0 0.0
-11.749 32.7677 71.8899 0.0 0.0
-11.6733 33.0181 71.4923 0.0 0.0
-11.8282 33.0435 71.4523 0.0 0.0
-11.9731 33.0747 71.4031 0.0 0.0
-12.1113 33.1192 71.3333 0.0 0.0
-12.241 33.1764 71.2439 0.0 0.0
-12.3596 33.2453 71.1363 0.0 0.0
-12.4657 33.3249 71.0125 0.0 0.0
-12.5576 33.4145 70.874 0.0 0.0
-12.6338 33.5124 70.7233 0.0 0.0
-12.6933 33.6169 70.5631 0.0 0.0
-12.7352 33.727 70.3954 0.0 0.0
-12.7593 33.8409 70.2228 0.0 0.0
-12.7649 33.9567 70.0483 0.0 0.0
-12.7403 34.1346 69.7818 0.0 0.0
-12.4963 35.0237 68.481 0.0 0.0
-12.2614 35.9426 67.1827 0.0 0.0
-12.0349 36.8906 65.8849 0.0 0.0
-11.8166 37.8671 64.5853 0.0 0.0
-11.6057 38.8719 63.2816 0.0 0.0
-11.4023 39.9047 61.9725 0.0 0.0
-11.2059 40.9659 60.6558 0.0 0.0
-11.016 42.0558 59.3293 0.0 0.0
-10.8324 43.1751 57.9911 0.0 0.0
-10.6547 44.3247 56.6391 0.0 0.0
-10.4827 45.5058 55.2711 0.0 0.0
-10.3159 46.7198 53.8848 0.0 0.0
-10.1544 47.9688 52.4772 0.0 0.0
-9.9979 49.2543 51.046 0.0 0.0
-9.8461 50.5793 49.5881 0.0 0.0
-9.6988 51.9466 48.0997 0.0 0.0
-9.6767 52.1421 47.8883 0.0 0.0
-9.6496 52.3219 47.694 0.0 0.0
-9.6094 52.4955 47.5066 0.0 0.0
-9.5568 52.6602 47.3291 0.0 0.0
-9.4927 52.8138 47.1637 0.0 0.0
-9.418 52.9532 47.0137 0.0 0.0
-9.334 53.0768 46.881 0.0 0.0
-9.2418 53.1825 46.7674 0.0 0.0
-9.143 53.2682 46.6755 0.0 0.0
-9.0386 53.3332 46.6059 0.0 0.0
-8.9308 53.3759 46.5601 0.0 0.0
-8.8206 53.396 46.5385 0.0 0.0
-8.6514 53.3846 46.5507 0.0 0.0
-7.8121 53.1766 46.7738 0.0 0.0
-6.9693 52.9906 46.9736 0.0 0.0
-6.1235 52.8264 47.1501 0.0 0.0
-5.2749 52.6839 47.3035 0.0 0.0
-4.4242 52.563 47.4338 0.0 0.0
-3.5713 52.4636 47.5411 0.0 0.0
-2.717 52.3855 47.6253 0.0 0.0
-1.8613 52.3287 47.6865 0.0 0.0
-1.0048 52.2932 47.7249 0.0 0.0
-0.1481 52.2789 47.7403 0.0 0.0
0.709 52.2859 47.7328 0.0 0.0
1.5655 52.3141 47.7025 0.0 0.0
2.4215 52.3635 47.6491 0.0 0.0
3.2763 52.4342 47.5728 0.0 0.0
4.1297 52.5262 47.4734 0.0 0.0
4.9812 52.6397 47.3511 0.0 0.0
5.8304 52.7747 47.2058 0.0 0.0
6.6773 52.9314 47.0373 0.0 0.0
7.5213 53.1098 46.8454 0.0 0.0
8.3618 53.3102 46.6304 0.0 0.0
8.4851 53.3389 46.5998 0.0 0.0
8.5956 53.3531 46.5845 0.0 0.0
8.7062 53.344 46.5943 0.0 0.0
8.8156 53.3123 46.6282 0.0 0.0
8.9218 53.2582 46.6863 0.0 0.0
9.0235 53.1822 46.7679 0.0 0.0
9.1192 53.086 46.8711 0.0 0.0
9.2073 52.9711 46.9946 0.0 0.0
9.2867 52.839 47.1367 0.0 0.0
9.3561 52.6923 47.2945 0.0 0.0
9.4143 52.5326 47.4666 0.0 0.0
9.4606 52.3633 47.6493 0.0 0.0
9.5084 52.0883 47.9464 0.0 0.0
9.6527 50.7157 49.4388 0.0 0.0
9.8013 49.3862 50.9002 0.0 0.0
9.9545 48.0961 52.3347 0.0 0.0
10.1125 46.843 53.7451 0.0 0.0
10.2756 45.6251 55.134 0.0 0.0
10.444 44.4401 56.5045 0.0 0.0
10.6179 43.2867 57.8589 0.0 0.0
10.7976 42.1639 59.1989 0.0 0.0
10.9835 41.0705 60.5274 0.0 0.0
11.1757 40.0058 61.8459 0.0 0.0
11.3748 38.9695 63.1566 0.0 0.0
11.5809 37.9616 64.4612 0.0 0.0
11.7946 36.9817 65.7622 0.0 0.0
12.0162 36.0302 67.0612 0.0 0.0
12.2461 35.1079 68.3601 0.0 0.0
12.4848 34.2153 69.6618 0.0 0.0
12.5171 34.0918 69.8457 0.0 0.0
12.5382 33.9766 70.0184 0.0 0.0
12.5413 33.8607 70.1929 0.0 0.0
12.526 33.746 70.3665 0.0 0.0
12.4926 33.6341 70.537 0.0 0.0
12.4415 33.5268 70.7013 0.0 0.0
12.373 33.4255 70.857 0.0 0.0
12.2886 33.3321 71.0015 0.0 0.0
12.189 33.2477 71.1325 0.0 0.0
12.076 33.1734 71.2484 0.0 0.0
11.9514 33.1107 71.3467 0.0 0.0
11.8169 33.06 71.4262 0.0 0.0
11.5948 33.0062 71.5111 0.0 0.0
10.4583 32.8437 71.7685 0.0 0.0
9.3134 32.699 72.0 0.0 0.0
8.1612 32.5718 72.205 0.0 0.0
7.002 32.4619 72.3833 0.0 0.0
5.8371 32.3693 72.5345 0.0 0.0
4.6673 32.2938 72.6585 0.0 0.0
3.4936 32.2353 72.7549 0.0 0.0
2.3172 32.1938 72.8237 0.0 0.0
1.1386 32.1691 72.8645 0.0 0.0
-0.0409 32.1613 72.8776 0.0 0.0
-1.2205 32.1703 72.8626 0.0 0.0
-2.399 32.1961 72.8197 0.0 0.0
-3.5752 32.2388 72.7491 0.0 0.0
-4.7486 32.2985 72.6508 0.0 0.0
-5.9181 32.3752 72.5249 0.0 0.0
-7.0827 32.469 72.3718 0.0 0.0
-8.2414 32.58 72.1915 0.0 0.0
-9.3931 32.7084 71.9847 0.0 0.0
-10.5374 32.8544 71.7515 0.0 0.0
-11.6733 33.0181 71.4923 0.0 0.0
-11.5987 33.2717 71.0952 0.0 0.0
-11.7527 33.2973 71.0556 0.0 0.0
-11.874 33.3247 71.0128 0.0 0.0
-11.9885 33.3657 70.9495 0.0 0.0
-12.0936 33.4188 70.8673 0.0 0.0
-12.1872 33.4833 70.768 0.0 0.0
-12.2672 33.5578 70.6537 0.0 0.0
-12.3317 33.6407 70.5269 0.0 0.0
-12.3798 33.7303 70.3904 0.0 0.0
-12.4103 33.8247 70.2472 0.0 0.0
-12.4226 33.9221 70.1002 0.0 0.0
-12.4067 34.0779 69.8667 0.0 0.0
-12.1688 34.9658 68.5644 0.0 0.0
-11.9397 35.8836 67.2648 0.0 0.0
-11.7189 36.8306 65.966 0.0 0.0
-11.5061 37.806 64.6654 0.0 0.0
-11.3008 38.8097 63.3613 0.0 0.0
-11.1026 39.8416 62.0518 0.0 0.0
-10.9111 40.9017 60.7346 0.0 0.0
-10.726 41.9908 59.4077 0.0 0.0
-10.547 43.109 58.0695 0.0 0.0
-10.3739 44.2575 56.7176 0.0 0.0
-10.2063 45.4374 55.3499 0.0 0.0
-10.0439 46.6501 53.964 0.0 0.0
-9.8866 47.8974 52.5572 0.0 0.0
-9.7341 49.1814 51.1269 0.0 0.0
-9.5862 50.5046 49.6699 0.0 0.0
-9.4427 51.87 48.1827 0.0 0.0
-9.4211 52.0652 47.9713 0.0 0.0
-9.3975 52.2165 47.8079 0.0 0.0
-9.3608 52.3608 47.6519 0.0 0.0
-9.312 52.4957 47.5064 0.0 0.0
-9.2522 52.6175 47.3751 0.0 0.0
-9.1824 52.7241 47.2603 0.0 0.0
-9.1044 52.8127 47.1649 0.0 0.0
-9.0195 52.8815 47.0908 0.0 0.0
-8.9298 52.9293 47.0394 0.0 0.0
-8.8369 52.9545 47.0123 0.0 0.0
-8.6882 52.9501 47.017 0.0 0.0
-7.8454 52.7435 47.2394 0.0 0.0
-6.9991 52.5586 47.4385 0.0 0.0
-6.1498 52.3955 47.6145 0.0 0.0
-5.2978 52.2539 47.7674 0.0 0.0
-4.4434 52.1337 47.8972 0.0 0.0
-3.587 52.0349 48.0042 0.0 0.0
-2.729 51.9573 48.0882 0.0 0.0
-1.8698 51.9009 48.1493 0.0 0.0
-1.0098 51.8656 48.1876 0.0 0.0
-0.1494 51.8516 48.2026 0.0 0.0
0.7111 51.8585 48.1952 0.0 0.0
1.5714 51.8865 48.1649 0.0 0.0
2.4309 51.9356 48.1117 0.0 0.0
3.2894 52.0058 48.0356 0.0 0.0
4.1464 52.0973 47.9366 0.0 0.0
5.0015 52.2101 47.8148 0.0 0.0
5.8544 52.3442 47.6698 0.0 0.0
6.7047 52.4999 47.5019 0.0 0.0
7.552 52.6771 47.3108 0.0 0.0
8.396 52.8762 47.0966 0.0 0.0
8.5199 52.9047 47.0659 0.0 0.0
8.6138 52.9148 47.0551 0.0 0.0
8.7076 52.9019 47.0689 0.0 0.0
8.7992 52.8667 47.1068 0.0 0.0
8.887 52.8093 47.1686 0.0 0.0
8.969 52.7313 47.2526 0.0 0.0
9.0435 52.6343 47.357 0.0 0.0
9.1092 52.5207 47.4793 0.0 0.0
9.1642 52.3931 47.6171 0.0 0.0
9.2076 52.2534 47.7678 0.0 0.0
9.252 52.0156 48.0252 0.0 0.0
9.3924 50.6448 49.5164 0.0 0.0
9.5371 49.3169 50.9769 0.0 0.0
9.6863 48.0283 52.4106 0.0 0.0
9.8402 46.7766 53.8204 0.0 0.0
9.999 45.5597 55.2091 0.0 0.0
10.1629 44.3761 56.5792 0.0 0.0
10.3323 43.2238 57.9334 0.0 0.0
10.5076 42.1019 59.2737 0.0 0.0
10.6886 41.0094 60.6024 0.0 0.0
10.8759 39.9456 61.9212 0.0 0.0
11.0697 38.9105 63.2322 0.0 0.0
11.2706 37.9033 64.5377 0.0 0.0
11.4787 36.9243 65.8394 0.0 0.0
11.6946 35.974 67.1392 0.0 0.0
11.9186 35.0525 68.4396 0.0 0.0
12.1513 34.1609 69.7426 0.0 0.0
12.1827 34.0376 69.9269 0.0 0.0
12.1985 33.94 70.0732 0.0 0.0
12.1961 33.8424 70.2206 0.0 0.0
12.1755 33.7462 70.3663 0.0 0.0
12.1369 33.6538 70.5069 0.0 0.0
12.0812 33.5671 70.6394 0.0 0.0
12.0093 33.4878 70.761 0.0 0.0
11.923 33.4178 70.8689 0.0 0.0
11.8238 33.3584 70.9608 0.0 0.0
11.714 33.3108 71.0345 0.0 0.0
11.5226 33.2602 71.1131 0.0 0.0
10.393 33.0969 71.3683 0.0 0.0
9.2551 32.9514 71.5977 0.0 0.0
8.1099 32.8234 71.8008 0.0 0.0
6.9581 32.7129 71.9775 0.0 0.0
5.8005 32.6198 72.1275 0.0 0.0
4.6383 32.5438 72.2502 0.0 0.0
3.4723 32.485 72.3458 0.0 0.0
2.3031 32.4431 72.4138 0.0 0.0
1.1323 32.4183 72.4544 0.0 0.0
-0.0397 32.4102 72.4675 0.0 0.0
-1.2115 32.4193 72.4528 0.0 0.0
-2.3822 32.4453 72.4105 0.0 0.0
-3.5512 32.4882 72.3404 0.0 0.0
-4.717 32.5482 72.243 0.0 0.0
-5.8789 32.6253 72.1184 0.0 0.0
-7.0362 32.7197 71.9667 0.0 0.0
-8.1875 32.8314 71.7883 0.0 0.0
-9.3323 32.9605 71.5833 0.0 0.0
-10.4697 33.1072 71.3521 0.0 0.0
-11.5987 33.2717 71.0952 0.0 0.0
-11.3791 33.7097 70.4216 0.0 0.0
-11.1639 34.1566 69.7491 0.0 0.0
-10.7508 34.3801 69.4178 0.0 0.0
-10.9678 34.2617 69.5928 0.0 0.0
-9.905 34.1058 69.825 0.0 0.0
-8.8354 33.9664 70.0337 0.0 0.0
-7.7594 33.8435 70.2188 0.0 0.0
-6.678 33.737 70.3802 0.0 0.0
-5.5917 33.6468 70.5175 0.0 0.0
-4.5014 33.5728 70.6306 0.0 0.0
-3.4079 33.515 70.7193 0.0 0.0
-2.3118 33.4732 70.7835 0.0 0.0
-1.2141 33.4475 70.8231 0.0 0.0
-0.1154 33.4378 70.838 0.0 0.0
0.9833 33.4441 70.8282 0.0 0.0
2.0813 33.4665 70.7939 0.0 0.0
3.1778 33.5049 70.7349 0.0 0.0
4.272 33.5593 70.6512 0.0 0.0
5.363 33.6299 70.5433 0.0 0.0
6.4502 33.7167 70.411 0.0 0.0
7.5327 33.8198 70.2547 0.0 0.0
8.6099 33.9392 70.0745 0.0 0.0
9.6809 34.0751 69.8707 0.0 0.0
10.7452 34.2276 69.6435 0.0 0.0
10.5493 35.0813 68.3982 0.0 0.0
10.3603 35.9622 67.1555 0.0 0.0
10.1779 36.8692 65.9136 0.0 0.0
10.0018 37.8023 64.6702 0.0 0.0
9.8316 38.7611 63.4239 0.0 0.0
9.6671 39.7451 62.1729 0.0 0.0
9.5079 40.7551 60.9152 0.0 0.0
9.3538 41.791 59.6492 0.0 0.0
9.2046 42.8535 58.3733 0.0 0.0
9.06 43.9432 57.0855 0.0 0.0
8.9199 45.0608 55.7842 0.0 0.0
8.784 46.2081 54.4669 0.0 0.0
8.6522 47.3861 53.1316 0.0 0.0
8.5242 48.5964 51.7765 0.0 0.0
8.3999 49.8414 50.3981 0.0 0.0
8.2792 51.1233 48.994 0.0 0.0
7.4475 50.9411 49.1927 0.0 0.0
6.6127 50.7788 49.37 0.0 0.0
5.7751 50.6362 49.5259 0.0 0.0
4.9348 50.5132 49.6605 0.0 0.0
4.0925 50.4097 49.7737 0.0 0.0
3.2484 50.3258 49.8658 0.0 0.0
2.403 50.2612 49.9365 0.0 0.0
1.5565 50.2161 49.9862 0.0 0.0
0.7093 50.1902 50.0145 0.0 0.0
-0.1384 50.1837 50.0216 0.0 0.0
-0.9858 50.1965 50.0075 0.0 0.0
-1.8328 50.2287 49.9723 0.0 0.0
-2.6667 50.2793 49.9168 0.0 0.0
-3.4992 50.3487 49.8407 0.0 0.0
-4.3305 50.437 49.7439 0.0 0.0
-5.1599 50.5442 49.6265 0.0 0.0
-5.9871 50.6704 49.4885 0.0 0.0
-6.8117 50.8156 49.3297 0.0 0.0
-7.6336 50.9801 49.1502 0.0 0.0
-8.4524 51.1639 48.9498 0.0 0.0
-8.5756 49.8813 50.3541 0.0 0.0
-8.7024 48.6358 51.7326 0.0 0.0
-8.8329 47.425 53.0878 0.0 0.0
-8.9675 46.2465 54.4229 0.0 0.0
-9.1061 45.0989 55.7402 0.0 0.0
-9.249 43.9809 57.0413 0.0 0.0
-9.3965 42.8908 58.3288 0.0 0.0
-9.5487 41.828 59.6044 0.0 0.0
-9.7059 40.7918 60.87 0.0 0.0
-9.8683 39.7815 62.1272 0.0 0.0
-10.0361 38.7971 63.3775 0.0 0.0
-10.2097 37.8381 64.6233 0.0 0.0
-10.3893 36.9046 65.8659 0.0 0.0
-10.5753 35.9972 67.1069 0.0 0.0
-10.768 35.1159 68.3486 0.0 0.0
-10.9678 34.2617 69.5928 0.0 0.0
-10.7508 34.3801 69.4178 0.0 0.0
-11.149 34.1646 69.7373 0.0 0.0
-11.368 34.0484 69.9107 0.0 0.0
-10.2678 33.8831 70.159 0.0 0.0
-9.16 33.7355 70.3825 0.0 0.0
-8.0452 33.6054 70.5808 0.0 0.0
-6.9242 33.4927 70.7536 0.0 0.0
-5.7979 33.3972 70.9007 0.0 0.0
-4.6671 33.3189 71.0218 0.0 0.0
-3.5326 33.2578 71.1169 0.0 0.0
-2.3954 33.2136 71.1856 0.0 0.0
-1.2562 33.1865 71.2281 0.0 0.0
-0.1161 33.1763 71.244 0.0 0.0
1.0241 33.183 71.2334 0.0 0.0
2.1636 33.2067 71.1964 0.0 0.0
3.3013 33.2474 71.133 0.0 0.0
4.4364 33.3051 71.0433 0.0 0.0
5.568 33.3799 70.9275 0.0 0.0
6.6953 33.4718 70.7856 0.0 0.0
7.8174 33.581 70.618 0.0 0.0
8.9335 33.7076 70.4249 0.0 0.0
10.0429 33.8516 70.2065 0.0 0.0
11.1446 34.0133 69.9633 0.0 0.0
10.9326 34.893 68.6692 0.0 0.0
10.7285 35.8023 67.3783 0.0 0.0
10.5317 36.7403 66.0881 0.0 0.0
10.3419 37.7061 64.797 0.0 0.0
10.1588 38.6997 63.5029 0.0 0.0
9.982 39.721 62.2033 0.0 0.0
9.8112 40.7699 60.897 0.0 0.0
9.6461 41.8468 59.5817 0.0 0.0
9.4864 42.9524 58.2554 0.0 0.0
9.3319 44.0876 56.9162 0.0 0.0
9.1822 45.2536 55.5616 0.0 0.0
9.0373 46.4513 54.1897 0.0 0.0
8.8968 47.6826 52.798 0.0 0.0
8.7605 48.9498 51.3835 0.0 0.0
8.6284 50.2547 49.9437 0.0 0.0
8.5002 51.6005 48.475 0.0 0.0
7.6516 51.4064 48.6859 0.0 0.0
6.7997 51.2334 48.8742 0.0 0.0
5.9447 51.0813 49.0399 0.0 0.0
5.0869 50.9499 49.1831 0.0 0.0
4.227 50.8393 49.3038 0.0 0.0
3.3652 50.7494 49.4021 0.0 0.0
2.5018 50.6799 49.4779 0.0 0.0
1.6373 50.631 49.5315 0.0 0.0
0.7721 50.6026 49.5626 0.0 0.0
-0.0937 50.5946 49.5714 0.0 0.0
-0.9593 50.607 49.5578 0.0 0.0
-1.8244 50.6399 49.5218 0.0 0.0
-2.6873 50.6931 49.4636 0.0 0.0
-3.5489 50.7668 49.383 0.0 0.0
-4.4092 50.861 49.2801 0.0 0.0
-5.2672 50.9758 49.1549 0.0 0.0
-6.123 51.1112 49.0072 0.0 0.0
-6.9759 51.2674 48.8372 0.0 0.0
-7.826 51.4445 48.6445 0.0 0.0
-8.6724 51.6426 48.4294 0.0 0.0
-8.8032 50.2962 49.8983 0.0 0.0
-8.9379 48.9906 51.3382 0.0 0.0
-9.0768 47.7229 52.7529 0.0 0.0
-9.22 46.4911 54.1445 0.0 0.0
-9.3678 45.2929 55.5162 0.0 0.0
-9.5204 44.1265 56.8706 0.0 0.0
-9.6779 42.991 58.2096 0.0 0.0
-9.8407 41.885 59.5355 0.0 0.0
-10.009 40.8077 60.8503 0.0 0.0
-10.1831 39.7585 62.1561 0.0 0.0
-10.3633 38.7368 63.455 0.0 0.0
-10.55 37.743 64.7485 0.0 0.0
-10.7433 36.7767 66.0387 0.0 0.0
-10.9439 35.8383 67.328 0.0 0.0
-11.152 34.9286 68.6178 0.0 0.0
-11.368 34.0484 69.9107 0.0 0.0
-11.2005 34.022 69.9502 0.0 0.0
-10.7508 34.3801 69.4178 0.0 0.0
-10.591 34.4681 69.2881 0.0 0.0
-9.5093 34.3135 69.5163 0.0 0.0
-8.4209 34.1761 69.72 0.0 0.0
-7.3262 34.056 69.8993 0.0 0.0
-6.2262 33.953 70.0538 0.0 0.0
-5.1214 33.867 70.1833 0.0 0.0
-4.013 33.798 70.2877 0.0 0.0
-2.9014 33.7458 70.3668 0.0 0.0
-1.7875 33.7105 70.4204 0.0 0.0
-0.6726 33.692 70.4486 0.0 0.0
0.4431 33.6903 70.4513 0.0 0.0
1.5583 33.7053 70.4283 0.0 0.0
2.6724 33.7372 70.3799 0.0 0.0
3.7846 33.7859 70.3061 0.0 0.0
4.8937 33.8514 70.2068 0.0 0.0
5.9993 33.9339 70.0825 0.0 0.0
7.1003 34.0334 69.9331 0.0 0.0
8.1962 34.15 69.7589 0.0 0.0
9.286 34.2838 69.5601 0.0 0.0
10.3692 34.4349 69.337 0.0 0.0
10.176 35.3193 68.0586 0.0 0.0
9.9898 36.2322 66.782 0.0 0.0
9.8103 37.1726 65.5058 0.0 0.0
9.637 38.1401 64.2277 0.0 0.0
9.4697 39.1348 62.9455 0.0 0.0
9.3081 40.1563 61.6579 0.0 0.0
9.1518 41.2049 60.3627 0.0 0.0
9.0007 42.2813 59.0577 0.0 0.0
8.8544 43.3858 57.7416 0.0 0.0
8.7128 44.5195 56.4121 0.0 0.0
8.5756 45.6838 55.0667 0.0 0.0
8.4426 46.8795 53.7038 0.0 0.0
8.3136 48.1086 52.3206 0.0 0.0
8.1885 49.3736 50.9143 0.0 0.0
8.0671 50.6761 49.4821 0.0 0.0
7.2518 50.5048 49.6696 0.0 0.0
6.4333 50.3522 49.8368 0.0 0.0
5.6123 50.2183 49.9838 0.0 0.0
4.7888 50.1029 50.1105 0.0 0.0
3.9635 50.006 50.217 0.0 0.0
3.1366 49.9275 50.3032 0.0 0.0
2.3082 49.8674 50.3694 0.0 0.0
1.479 49.8257 50.4154 0.0 0.0
0.649 49.8022 50.4412 0.0 0.0
-0.1811 49.7971 50.4469 0.0 0.0
-1.0113 49.8102 50.4324 0.0 0.0
-1.8409 49.8416 50.3978 0.0 0.0
-2.6469 49.8898 50.3448 0.0 0.0
-3.4516 49.9552 50.2727 0.0 0.0
-4.2551 50.0381 50.1817 0.0 0.0
-5.057 50.1384 50.0715 0.0 0.0
-5.8567 50.2562 49.9422 0.0 0.0
-6.6543 50.3915 49.7937 0.0 0.0
-7.4492 50.5445 49.6261 0.0 0.0
-8.2413 50.7153 49.4394 0.0 0.0
-8.3653 49.4121 50.8716 0.0 0.0
-8.493 48.1467 52.2781 0.0 0.0
-8.6246 46.917 53.6612 0.0 0.0
-8.7604 45.7209 55.0241 0.0 0.0
-8.9005 44.5563 56.3693 0.0 0.0
-9.045 43.4222 57.6986 0.0 0.0
-9.1944 42.3174 59.0144 0.0 0.0
-9.3487 41.2406 60.319 0.0 0.0
-9.5081 40.1917 61.6138 0.0 0.0
-9.6731 39.1699 62.9008 0.0 0.0
-9.8439 38.1749 64.1824 0.0 0.0
-10.0207 37.2071 65.4598 0.0 0.0
-10.2039 36.2663 66.7352 0.0 0.0
-10.3939 35.353 68.0108 0.0 0.0
-10.591 34.4681 69.2881 0.0 0.0
-10.3861 35.3372 68.0332 0.0 0.0
-10.1885 36.2334 66.7804 0.0 0.0
-9.9977 37.1566 65.5274 0.0 0.0
-9.8135 38.106 64.2724 0.0 0.0
-9.6356 39.0812 63.0138 0.0 0.0
-9.4635 40.0828 61.7497 0.0 0.0
-9.2971 41.1106 60.4781 0.0 0.0
-9.1362 42.1649 59.1978 0.0 0.0
-8.9803 43.2466 57.9062 0.0 0.0
-8.8292 44.3565 56.602 0.0 0.0
-8.6828 45.4953 55.2832 0.0 0.0
-8.5408 46.6648 53.9473 0.0 0.0
-8.403 47.8663 52.5921 0.0 0.0
-8.2693 49.1014 51.2154 0.0 0.0
-8.1395 50.373 49.8141 0.0 0.0
-8.0597 50.4658 49.7123 0.0 0.0
-7.6889 50.3861 49.7996 0.0 0.0
-8.1929 49.8015 50.4421 0.0 0.0
-8.247 49.2377 51.0646 0.0 0.0
-7.7793 49.7678 50.479 0.0 0.0
-7.3173 50.3103 49.8828 0.0 0.0
-6.9452 50.2383 49.9617 0.0 0.0
-7.6174 49.4466 50.8334 0.0 0.0
-8.3018 48.6811 51.6821 0.0 0.0
-8.3573 48.1312 52.2953 0.0 0.0
-7.7528 48.7914 51.5595 0.0 0.0
-7.158 49.4707 50.8068 0.0 0.0
-6.5725 50.1702 50.0364 0.0 0.0
-6.1991 50.1059 50.107 0.0 0.0
-6.7404 49.451 50.8287 0.0 0.0
-7.2899 48.8135 51.5348 0.0 0.0
-7.8475 48.1929 52.2264 0.0 0.0
-8.4136 47.5885 52.9039 0.0 0.0
-8.4706 47.0523 53.5082 0.0 0.0
-7.7914 47.7654 52.7051 0.0 0.0
-7.1243 48.5013 51.8823 0.0 0.0
-6.4689 49.2611 51.0386 0.0 0.0
-5.8253 50.0455 50.1735 0.0 0.0
-5.4511 49.9889 50.2357 0.0 0.0
-6.046 49.2542 51.0462 0.0 0.0
-6.6511 48.5408 51.8383 0.0 0.0
-7.2663 47.8483 52.6122 0.0 0.0
-7.8921 47.1756 53.369 0.0 0.0
-8.5284 46.5224 54.1089 0.0 0.0
-8.587 45.999 54.7055 0.0 0.0
-7.8576 46.7348 53.8678 0.0 0.0
-7.1421 47.4956 53.0083 0.0 0.0
-6.4399 48.2821 52.1267 0.0 0.0
-5.7514 49.0953 51.2222 0.0 0.0
-5.0762 49.9361 50.2938 0.0 0.0
-4.701 49.8871 50.3477 0.0 0.0
-5.329 49.0949 51.2226 0.0 0.0
-5.9685 48.3267 52.0771 0.0 0.0
-6.62 47.5819 52.9114 0.0 0.0
-7.2834 46.8601 53.7259 0.0 0.0
-7.9587 46.1603 54.5214 0.0 0.0
-8.6464 45.4818 55.2987 0.0 0.0
-8.7066 44.9704 55.8888 0.0 0.0
-8.0477 45.6065 55.1555 0.0 0.0
-7.4002 46.2614 54.406 0.0 0.0
-6.7635 46.9362 53.6395 0.0 0.0
-6.138 47.6309 52.8562 0.0 0.0
-5.5231 48.3465 52.055 0.0 0.0
-4.9191 49.0831 51.2358 0.0 0.0
-4.3255 49.8419 50.3974 0.0 0.0
-3.9495 49.8005 50.443 0.0 0.0
-4.5987 48.9629 51.3691 0.0 0.0
-5.2604 48.1519 52.2723 0.0 0.0
-5.9353 47.3663 53.154 0.0 0.0
-6.6231 46.6057 54.0144 0.0 0.0
-7.3245 45.8689 54.8546 0.0 0.0
-8.0391 45.1557 55.6746 0.0 0.0
-8.7677 44.4652 56.4754 0.0 0.0
-8.8296 43.9657 57.0591 0.0 0.0
-8.1295 44.615 56.3011 0.0 0.0
-7.442 45.2847 55.5256 0.0 0.0
-6.767 45.9755 54.7326 0.0 0.0
-6.1042 46.6876 53.9213 0.0 0.0
-5.4537 47.4215 53.0917 0.0 0.0
-4.8151 48.1784 52.2427 0.0 0.0
-4.1883 48.9586 51.3739 0.0 0.0
-3.5731 49.7629 50.4844 0.0 0.0
-3.1965 49.7291 50.5217 0.0 0.0
-3.8591 48.8541 51.4899 0.0 0.0
-4.5353 48.0073 52.4341 0.0 0.0
-5.2254 47.1878 53.3552 0.0 0.0
-5.9299 46.3948 54.2542 0.0 0.0
-6.6485 45.627 55.1318 0.0 0.0
-7.3816 44.8845 55.9883 0.0 0.0
-8.1295 44.1662 56.8243 0.0 0.0
-8.8924 43.4717 57.6402 0.0 0.0
-8.956 42.9835 58.2185 0.0 0.0
-8.2205 43.6388 57.4432 0.0 0.0
-7.4989 44.3155 56.6498 0.0 0.0
-6.7907 45.0144 55.838 0.0 0.0
-6.0962 45.7354 55.0075 0.0 0.0
-5.4151 46.4794 54.1578 0.0 0.0
-4.7471 47.247 53.2885 0.0 0.0
-4.0918 48.0391 52.3984 0.0 0.0
-3.4495 48.8561 51.4876 0.0 0.0
-2.8196 49.6991 50.5548 0.0 0.0
-2.4423 49.6728 50.5837 0.0 0.0
-3.0456 48.8547 51.4892 0.0 0.0
-3.6604 48.0608 52.3742 0.0 0.0
-4.2871 47.2903 53.2395 0.0 0.0
-4.9258 46.5426 54.0861 0.0 0.0
-5.5768 45.8171 54.9139 0.0 0.0
-6.2401 45.1128 55.7241 0.0 0.0
-6.916 44.4295 56.5169 0.0 0.0
-7.6046 43.7667 57.2928 0.0 0.0
-8.3061 43.1239 58.0518 0.0 0.0
-9.0206 42.5009 58.7944 0.0 0.0
-9.0861 42.0237 59.368 0.0 0.0
-8.3189 42.68 58.5801 0.0 0.0
-7.5668 43.3586 57.7738 0.0 0.0
-6.8294 44.0598 56.9488 0.0 0.0
-6.1067 44.7841 56.1047 0.0 0.0
-5.3982 45.532 55.241 0.0 0.0
-4.7041 46.3042 54.3573 0.0 0.0
-4.0239 47.1013 53.453 0.0 0.0
-3.3575 47.9241 52.5273 0.0 0.0
-2.7047 48.7734 51.5794 0.0 0.0
-2.065 49.6504 50.6086 0.0 0.0
-1.6875 49.6317 50.6292 0.0 0.0
-2.3011 48.779 51.5733 0.0 0.0
-2.927 47.9524 52.4956 0.0 0.0
-3.5656 47.1504 53.3974 0.0 0.0
-4.217 46.3725 54.2794 0.0 0.0
-4.8814 45.618 55.1421 0.0 0.0
-5.5589 44.8865 55.9859 0.0 0.0
-6.25 44.1769 56.8117 0.0 0.0
-6.9548 43.4891 57.6197 0.0 0.0
-7.6734 42.8225 58.4102 0.0 0.0
-8.4058 42.1769 59.1833 0.0 0.0
-9.1526 41.5517 59.9397 0.0 0.0
-9.22 41.0852 60.5092 0.0 0.0
-8.4238 41.7391 59.7121 0.0 0.0
-7.6439 42.4156 58.8965 0.0 0.0
-6.8796 43.1156 58.0617 0.0 0.0
-6.131 43.8389 57.2078 0.0 0.0
-5.398 44.5866 56.334 0.0 0.0
-4.6801 45.3588 55.4404 0.0 0.0
-3.9773 46.1565 54.5256 0.0 0.0
-3.289 46.9801 53.5899 0.0 0.0
-2.6151 47.8308 52.6317 0.0 0.0
-1.9555 48.7092 51.6509 0.0 0.0
-1.3097 49.6167 50.6456 0.0 0.0
-0.9319 49.6056 50.658 0.0 0.0
-1.5524 48.7217 51.6369 0.0 0.0
-2.1858 47.8651 52.5935 0.0 0.0
-2.8325 47.0346 53.5283 0.0 0.0
-3.4927 46.2295 54.4425 0.0 0.0
-4.1666 45.4489 55.3366 0.0 0.0
-4.8545 44.6922 56.2114 0.0 0.0
-5.5568 43.9587 57.0672 0.0 0.0
-6.2734 43.248 57.9046 0.0 0.0
-7.0047 42.5596 58.7241 0.0 0.0
-7.7508 41.893 59.5258 0.0 0.0
-8.512 41.2479 60.31 0.0 0.0
-9.2884 40.624 61.077 0.0 0.0
-9.3579 40.1679 61.6435 0.0 0.0
-8.5974 40.7657 60.9021 0.0 0.0
-7.8514 41.3836 60.1443 0.0 0.0
-7.12 42.0214 59.3706 0.0 0.0
-6.4028 42.6797 58.5806 0.0 0.0
-5.6994 43.3588 57.7735 0.0 0.0
-5.0102 44.059 56.9497 0.0 0.0
-4.3345 44.7807 56.1085 0.0 0.0
-3.6723 45.5245 55.2495 0.0 0.0
-3.0231 46.2913 54.3721 0.0 0.0
-2.387 47.081 53.4758 0.0 0.0
-1.7637 47.8948 52.56 0.0 0.0
-1.1527 48.7337 51.6235 0.0 0.0
-0.5541 49.5982 50.6662 0.0 0.0
-0.176 49.5945 50.6701 0.0 0.0
-0.8007 48.682 51.6812 0.0 0.0
-1.4387 47.7976 52.6691 0.0 0.0
-2.0908 46.9409 53.6344 0.0 0.0
-2.7567 46.1103 54.5785 0.0 0.0
-3.4372 45.3056 55.5017 0.0 0.0
-4.1321 44.5255 56.4052 0.0 0.0
-4.8421 43.7698 57.289 0.0 0.0
-5.5671 43.0376 58.1542 0.0 0.0
-6.3076 42.3288 59.0007 0.0 0.0
-7.0637 41.6425 59.8292 0.0 0.0
-7.8358 40.9789 60.6398 0.0 0.0
-8.6239 40.337 61.4328 0.0 0.0
-9.4284 39.7171 62.2081 0.0 0.0
-9.4999 39.2716 62.7715 0.0 0.0
-8.7109 39.8664 62.0206 0.0 0.0
-7.9376 40.4816 61.2533 0.0 0.0
-7.1797 41.1176 60.4696 0.0 0.0
-6.4371 41.7745 59.6692 0.0 0.0
-5.7095 42.4528 58.852 0.0 0.0
-4.9967 43.1526 58.0176 0.0 0.0
-4.2985 43.8746 57.1659 0.0 0.0
-3.6145 44.6191 56.2963 0.0 0.0
-2.9447 45.3866 55.4082 0.0 0.0
-2.2887 46.1778 54.5013 0.0 0.0
-1.6464 46.9934 53.5748 0.0 0.0
-1.0173 47.8341 52.628 0.0 0.0
-0.4013 48.7009 51.6601 0.0 0.0
0.2019 49.5947 50.6701 0.0 0.0
0.5798 49.5985 50.6657 0.0 0.0
-0.0468 48.6588 51.7069 0.0 0.0
-0.6872 47.7489 52.7237 0.0 0.0
-1.3421 46.8672 53.7177 0.0 0.0
-2.0114 46.0132 54.6895 0.0 0.0
-2.6958 45.1854 55.6402 0.0 0.0
-3.3951 44.3837 56.5703 0.0 0.0
-4.1102 43.6068 57.4808 0.0 0.0
-4.8411 42.8545 58.3721 0.0 0.0
-5.5879 42.1263 59.2442 0.0 0.0
-6.3512 41.4215 60.0982 0.0 0.0
-7.1309 40.74 60.9337 0.0 0.0
-7.9277 40.0812 61.7516 0.0 0.0
-8.7413 39.4451 62.5516 0.0 0.0
-9.5725 38.831 63.3341 0.0 0.0
-9.6463 38.3958 63.8953 0.0 0.0
-8.8299 38.9854 63.1362 0.0 0.0
-8.0303 39.5959 62.3609 0.0 0.0
-7.2473 40.2278 61.5687 0.0 0.0
-6.4804 40.8812 60.7598 0.0 0.0
-5.7294 41.5564 59.934 0.0 0.0
-4.9942 42.2534 59.0913 0.0 0.0
-4.2745 42.9731 58.2308 0.0 0.0
-3.5702 43.7158 57.3526 0.0 0.0
-2.8807 44.4818 56.4561 0.0 0.0
-2.2059 45.2715 55.541 0.0 0.0
-1.5455 46.086 54.6061 0.0 0.0
-0.8992 46.9259 53.6512 0.0 0.0
-0.2669 47.792 52.6754 0.0 0.0
0.3521 48.6848 51.6779 0.0 0.0
0.9578 49.6062 50.6573 0.0 0.0
1.3355 49.6176 50.6446 0.0 0.0
0.7484 48.712 51.6477 0.0 0.0
0.1488 47.8332 52.6291 0.0 0.0
-0.4638 46.9804 53.5897 0.0 0.0
-1.0894 46.1529 54.5299 0.0 0.0
-1.7286 45.3497 55.4509 0.0 0.0
-2.3814 44.5698 56.3536 0.0 0.0
-3.0483 43.8129 57.2384 0.0 0.0
-3.7295 43.0787 58.1055 0.0 0.0
-4.425 42.3664 58.9556 0.0 0.0
-5.1354 41.6754 59.7893 0.0 0.0
-5.8607 41.0057 60.6069 0.0 0.0
-6.6015 40.357 61.4079 0.0 0.0
-7.3575 39.729 62.1933 0.0 0.0
-8.1295 39.1211 62.9631 0.0 0.0
-8.9171 38.5333 63.7174 0.0 0.0
-9.7211 37.9657 64.4557 0.0 0.0
-9.7971 37.5407 65.0158 0.0 0.0
-8.9545 38.1233 64.2498 0.0 0.0
-8.1295 38.7275 63.4671 0.0 0.0
-7.322 39.3534 62.6678 0.0 0.0
-6.5314 40.0014 61.8514 0.0 0.0
-5.758 40.6715 61.0184 0.0 0.0
-5.0013 41.364 60.1682 0.0 0.0
-4.261 42.0794 59.3008 0.0 0.0
-3.5368 42.818 58.4156 0.0 0.0
-2.8285 43.5802 57.5121 0.0 0.0
-2.1356 44.3666 56.5902 0.0 0.0
-1.458 45.1778 55.649 0.0 0.0
-0.7953 46.0144 54.688 0.0 0.0
-0.1469 46.8775 53.7061 0.0 0.0
0.4869 47.7674 52.7029 0.0 0.0
1.1069 48.6855 51.6773 0.0 0.0
1.7132 49.6328 50.6279 0.0 0.0
2.0908 49.6518 50.607 0.0 0.0
1.5027 48.7195 51.6394 0.0 0.0
0.9018 47.8156 52.6488 0.0 0.0
0.2874 46.9385 53.6371 0.0 0.0
-0.3406 46.0874 54.6046 0.0 0.0
-0.9825 45.2617 55.5522 0.0 0.0
-1.6384 44.4603 56.4811 0.0 0.0
-2.309 43.6826 57.3916 0.0 0.0
-2.9945 42.9284 58.284 0.0 0.0
-3.6948 42.1967 59.1594 0.0 0.0
-4.4106 41.4876 60.0178 0.0 0.0
-5.1422 40.8001 60.8597 0.0 0.0
-5.8895 40.1342 61.6853 0.0 0.0
-6.6531 39.4899 62.4947 0.0 0.0
-7.4332 38.8665 63.2885 0.0 0.0
-8.23 38.264 64.0665 0.0 0.0
-9.0435 37.6823 64.8285 0.0 0.0
-9.8743 37.121 65.5751 0.0 0.0
-9.9528 36.7065 66.134 0.0 0.0
-9.0843 37.2806 65.3616 0.0 0.0
-8.2343 37.8769 64.5723 0.0 0.0
-7.403 38.4953 63.7666 0.0 0.0
-6.5896 39.1362 62.9438 0.0 0.0
-5.7943 39.7996 62.1045 0.0 0.0
-5.0165 40.4858 61.2481 0.0 0.0
-4.2561 41.1955 60.3743 0.0 0.0
-3.5126 41.9284 59.4831 0.0 0.0
-2.7859 42.6854 58.5737 0.0 0.0
-2.0754 43.4665 57.6462 0.0 0.0
-1.3811 44.2728 56.6996 0.0 0.0
-0.7022 45.1044 55.7338 0.0 0.0
-0.0389 45.9622 54.7477 0.0 0.0
0.6096 46.8473 53.7403 0.0 0.0
1.2432 47.7601 52.7111 0.0 0.0
1.8627 48.7023 51.6586 0.0 0.0
2.4681 49.6745 50.5819 0.0 0.0
2.8452 49.701 50.5527 0.0 0.0
2.2576 48.7434 51.6128 0.0 0.0
1.6567 47.815 52.6495 0.0 0.0
1.0421 46.9146 53.6641 0.0 0.0
0.4136 46.0411 54.6576 0.0 0.0
-0.2291 45.1939 55.6305 0.0 0.0
-0.8866 44.3717 56.5844 0.0 0.0
-1.559 43.574 57.5195 0.0 0.0
-2.2468 42.8004 58.4366 0.0 0.0
-2.9502 42.0501 59.336 0.0 0.0
-3.6694 41.3229 60.2184 0.0 0.0
-4.405 40.6183 61.084 0.0 0.0
-5.157 39.936 61.9333 0.0 0.0
-5.926 39.2757 62.7663 0.0 0.0
-6.7118 38.6374 63.5831 0.0 0.0
-7.5152 38.0204 64.3843 0.0 0.0
-8.3363 37.4247 65.1696 0.0 0.0
-9.1753 36.8503 65.9391 0.0 0.0
-10.0324 36.297 66.6929 0.0 0.0
-10.1134 35.8931 67.2517 0.0 0.0
-9.2658 36.427 66.5147 0.0 0.0
-8.4361 36.9814 65.7624 0.0 0.0
-7.6236 37.556 64.9955 0.0 0.0
-6.8286 38.1513 64.2133 0.0 0.0
-6.0503 38.7669 63.4163 0.0 0.0
-5.289 39.4037 62.604 0.0 0.0
-4.5439 40.0612 61.7767 0.0 0.0
-3.8152 40.7401 60.9336 0.0 0.0
-3.1021 41.4404 60.0752 0.0 0.0
-2.4048 42.1627 59.2003 0.0 0.0
-1.7226 42.9071 58.3095 0.0 0.0
-1.0555 43.6743 57.4014 0.0 0.0
-0.4029 44.4644 56.4762 0.0 0.0
0.2352 45.2785 55.5328 0.0 0.0
0.8595 46.1168 54.5711 0.0 0.0
1.4699 46.9805 53.5896 0.0 0.0
2.067 47.8699 52.5879 0.0 0.0
2.6509 48.7867 51.5648 0.0 0.0
3.2222 49.7313 50.5193 0.0 0.0
3.5988 49.7654 50.4818 0.0 0.0
3.013 48.7833 51.5684 0.0 0.0
2.4136 47.8315 52.6311 0.0 0.0
1.8003 46.9085 53.6709 0.0 0.0
1.1724 46.0134 54.6892 0.0 0.0
0.5301 45.1448 55.6871 0.0 0.0
-0.1273 44.3025 56.665 0.0 0.0
-0.8 43.4855 57.6238 0.0 0.0
-1.4884 42.6932 58.5644 0.0 0.0
-2.193 41.925 59.4872 0.0 0.0
-2.9141 41.1804 60.3926 0.0 0.0
-3.6518 40.4591 61.2812 0.0 0.0
-4.4066 39.7607 62.1533 0.0 0.0
-5.1788 39.085 63.0091 0.0 0.0
-5.9688 38.4316 63.8489 0.0 0.0
-6.7769 37.8003 64.6731 0.0 0.0
-7.6035 37.1911 65.481 0.0 0.0
-8.4486 36.6039 66.2734 0.0 0.0
-9.3125 36.0383 67.0498 0.0 0.0
-10.1956 35.4945 67.8105 0.0 0.0
-10.2792 35.1011 68.37 0.0 0.0
-9.4053 35.626 67.6252 0.0 0.0
-8.5502 36.1718 66.8653 0.0 0.0
-7.7134 36.7385 66.0905 0.0 0.0
-6.8949 37.3263 65.3007 0.0 0.0
-6.094 37.9353 64.4956 0.0 0.0
-5.3111 38.5655 63.6757 0.0 0.0
-4.5455 39.2171 62.8407 0.0 0.0
-3.797 39.8904 61.9904 0.0 0.0
-3.0652 40.5856 61.1246 0.0 0.0
-2.3499 41.3029 60.2429 0.0 0.0
-1.6506 42.0427 59.3451 0.0 0.0
-0.967 42.8054 58.4306 0.0 0.0
-0.2989 43.5914 57.4991 0.0 0.0
0.3541 44.4013 56.5499 0.0 0.0
0.9926 45.2359 55.5821 0.0 0.0
1.6166 46.0954 54.5955 0.0 0.0
2.2264 46.9809 53.5891 0.0 0.0
2.8226 47.8933 52.5618 0.0 0.0
3.4053 48.8337 51.5126 0.0 0.0
3.9751 49.8032 50.44 0.0 0.0
4.3512 49.8449 50.3942 0.0 0.0
3.7682 48.839 51.5065 0.0 0.0
3.1715 47.8643 52.5941 0.0 0.0
2.5603 46.9194 53.6585 0.0 0.0
1.9347 46.0029 54.7011 0.0 0.0
1.2941 45.1143 55.7224 0.0 0.0
0.6382 44.2524 56.7235 0.0 0.0
-0.0334 43.4165 57.7054 0.0 0.0
-0.7213 42.6059 58.6688 0.0 0.0
-1.4255 41.82 59.6141 0.0 0.0
-2.1466 41.0584 60.5421 0.0 0.0
-2.8849 40.3205 61.4534 0.0 0.0
-3.6408 39.6063 62.3478 0.0 0.0
-4.415 38.9154 63.2259 0.0 0.0
-5.2072 38.2474 64.088 0.0 0.0
-6.0181 37.6022 64.9342 0.0 0.0
-6.848 36.9797 65.7648 0.0 0.0
-7.6973 36.3795 66.5799 0.0 0.0
-8.5664 35.8018 67.3789 0.0 0.0
-9.4552 35.2465 68.1623 0.0 0.0
-10.3641 34.7133 68.9297 0.0 0.0
-10.0897 34.5332 69.1926 0.0 0.0
-9.2142 35.0461 68.4487 0.0 0.0
-8.3575 35.5797 67.6903 0.0 0.0
-7.5194 36.134 66.9176 0.0 0.0
-6.6998 36.7091 66.1304 0.0 0.0
-5.8982 37.3051 65.329 0.0 0.0
-5.1143 37.9222 64.5128 0.0 0.0
-4.3481 38.5603 63.6825 0.0 0.0
-3.599 39.2196 62.8375 0.0 0.0
-2.8669 39.9005 61.9779 0.0 0.0
-2.1513 40.603 61.1031 0.0 0.0
-1.4519 41.3275 60.2129 0.0 0.0
-0.7684 42.0743 59.3069 0.0 0.0
-0.1004 42.8438 58.3848 0.0 0.0
0.5524 43.6365 57.446 0.0 0.0
1.1905 44.4528 56.4898 0.0 0.0
1.8142 45.2937 55.5153 0.0 0.0
2.4236 46.1594 54.5225 0.0 0.0
3.0192 47.0508 53.5099 0.0 0.0
3.6014 47.9691 52.4768 0.0 0.0
4.1704 48.9152 51.422 0.0 0.0
4.7267 49.8903 50.3441 0.0 0.0
5.1018 49.9396 50.29 0.0 0.0
4.5501 48.9579 51.3746 0.0 0.0
3.9857 48.0055 52.4361 0.0 0.0
3.4082 47.0811 53.4758 0.0 0.0
2.8173 46.1835 54.4949 0.0 0.0
2.2126 45.3119 55.4944 0.0 0.0
1.5936 44.4651 56.4753 0.0 0.0
0.9604 43.643 57.4381 0.0 0.0
0.3123 42.8447 58.3837 0.0 0.0
-0.351 42.0696 59.3126 0.0 0.0
-1.0297 41.3172 60.2253 0.0 0.0
-1.7244 40.5873 61.1225 0.0 0.0
-2.4352 39.8794 62.0044 0.0 0.0
-3.1627 39.1932 62.8712 0.0 0.0
-3.9071 38.5286 63.7235 0.0 0.0
-4.6687 37.8853 64.5613 0.0 0.0
-5.4481 37.263 65.385 0.0 0.0
-6.2453 36.662 66.1944 0.0 0.0
-7.0606 36.0819 66.9895 0.0 0.0
-7.8944 35.5227 67.7706 0.0 0.0
-8.747 34.9844 68.5376 0.0 0.0
-9.6187 34.4668 69.2902 0.0 0.0
-9.1461 34.4036 69.3831 0.0 0.0
-8.2785 34.9259 68.6218 0.0 0.0
-7.4301 35.4691 67.8464 0.0 0.0
-6.6006 36.0331 67.057 0.0 0.0
-5.7898 36.6182 66.2538 0.0 0.0
-4.9972 37.2243 65.4367 0.0 0.0
-4.2223 37.8517 64.6053 0.0 0.0
-3.4654 38.5003 63.7601 0.0 0.0
-2.7258 39.1702 62.9006 0.0 0.0
-2.0031 39.8617 62.0265 0.0 0.0
-1.297 40.575 61.1376 0.0 0.0
-0.6072 41.3105 60.2336 0.0 0.0
0.0667 42.0684 59.314 0.0 0.0
0.7251 42.8491 58.3784 0.0 0.0
1.3684 43.6532 57.4262 0.0 0.0
1.9968 44.4811 56.4568 0.0 0.0
2.611 45.3337 55.4692 0.0 0.0
3.2109 46.2113 54.4632 0.0 0.0
3.7971 47.115 53.4375 0.0 0.0
4.3699 48.0456 52.3911 0.0 0.0
4.9296 49.0044 51.3229 0.0 0.0
5.4767 49.9927 50.2316 0.0 0.0
5.8509 50.0495 50.1691 0.0 0.0
5.3085 49.0547 51.2672 0.0 0.0
4.7535 48.0895 52.3421 0.0 0.0
4.1854 47.1525 53.395 0.0 0.0
3.6041 46.2428 54.4274 0.0 0.0
3.009 45.3591 55.4399 0.0 0.0
2.3996 44.5006 56.4341 0.0 0.0
1.7761 43.6669 57.4101 0.0 0.0
1.1377 42.8571 58.3689 0.0 0.0
0.4842 42.0707 59.3112 0.0 0.0
-0.1848 41.3072 60.2376 0.0 0.0
-0.8697 40.5663 61.1485 0.0 0.0
-1.5709 39.8475 62.0443 0.0 0.0
-2.2887 39.1506 62.9255 0.0 0.0
-3.0235 38.4754 63.7923 0.0 0.0
-3.7757 37.8216 64.6449 0.0 0.0
-4.5458 37.189 65.4839 0.0 0.0
-5.3337 36.5778 66.3088 0.0 0.0
-6.14 35.9877 67.12 0.0 0.0
-6.9651 35.4188 67.9176 0.0 0.0
-7.8091 34.8708 68.7014 0.0 0.0
-8.6724 34.3438 69.4715 0.0 0.0
-8.1976 34.2872 69.5551 0.0 0.0
-7.3386 34.8189 68.7764 0.0 0.0
-6.4991 35.3718 67.9842 0.0 0.0
-5.6786 35.9457 67.1785 0.0 0.0
-4.877 36.5408 66.3594 0.0 0.0
-4.0938 37.1571 65.5267 0.0 0.0
-3.3286 37.7949 64.6802 0.0 0.0
-2.5813 38.4539 63.8201 0.0 0.0
-1.8514 39.1344 62.9461 0.0 0.0
-1.1386 39.8367 62.0578 0.0 0.0
-0.4423 40.5609 61.155 0.0 0.0
0.2376 41.3074 60.2373 0.0 0.0
0.9016 42.0765 59.3042 0.0 0.0
1.5502 42.8686 58.3552 0.0 0.0
2.1836 43.6841 57.3898 0.0 0.0
2.8022 44.5237 56.4073 0.0 0.0
3.4066 45.3882 55.4065 0.0 0.0
3.9969 46.2778 54.3873 0.0 0.0
4.5734 47.1938 53.3485 0.0 0.0
5.1367 48.137 52.2888 0.0 0.0
5.687 49.1087 51.2073 0.0 0.0
6.2246 50.1102 50.1024 0.0 0.0
6.5978 50.1747 50.0315 0.0 0.0
6.0649 49.1666 51.1433 0.0 0.0
5.5194 48.1883 52.2315 0.0 0.0
4.961 47.2387 53.2977 0.0 0.0
4.3893 46.3166 54.3432 0.0 0.0
3.804 45.4208 55.3689 0.0 0.0
3.2047 44.5504 56.3762 0.0 0.0
2.5911 43.7049 57.3653 0.0 0.0
1.9627 42.8836 58.3373 0.0 0.0
1.3192 42.0859 59.293 0.0 0.0
0.6602 41.3111 60.2327 0.0 0.0
-0.0149 40.5591 61.1573 0.0 0.0
-0.7061 39.8294 62.0671 0.0 0.0
-1.4139 39.1217 62.9624 0.0 0.0
-2.1388 38.4358 63.8436 0.0 0.0
-2.8811 37.7715 64.7109 0.0 0.0
-3.6412 37.1285 65.565 0.0 0.0
-4.4195 36.5071 66.4054 0.0 0.0
-5.2163 35.9069 67.2324 0.0 0.0
-6.032 35.328 68.0462 0.0 0.0
-6.8669 34.7704 68.8468 0.0 0.0
-7.7214 34.2339 69.6341 0.0 0.0
-7.2444 34.1839 69.7084 0.0 0.0
-6.3945 34.7251 68.9125 0.0 0.0
-5.5643 35.2877 68.1036 0.0 0.0
-4.7535 35.8715 67.2817 0.0 0.0
-3.9616 36.4767 66.4468 0.0 0.0
-3.1883 37.1033 65.5988 0.0 0.0
-2.433 37.7515 64.7373 0.0 0.0
-1.6958 38.4211 63.8626 0.0 0.0
-0.976 39.1123 62.9742 0.0 0.0
-0.2733 39.8255 62.072 0.0 0.0
0.4127 40.5607 61.1553 0.0 0.0
1.0825 41.3183 60.224 0.0 0.0
1.7364 42.0987 59.2775 0.0 0.0
2.3748 42.9022 58.3153 0.0 0.0
2.9981 43.7293 57.3366 0.0 0.0
3.6067 44.5806 56.3409 0.0 0.0
4.2011 45.4571 55.3272 0.0 0.0
4.7815 46.359 54.2949 0.0 0.0
5.3482 47.2874 53.2429 0.0 0.0
5.9018 48.2434 52.17 0.0 0.0
6.4424 49.2282 51.0751 0.0 0.0
6.9706 50.2431 49.9564 0.0 0.0
7.3427 50.3154 49.8773 0.0 0.0
6.8193 49.2936 51.0027 0.0 0.0
6.2835 48.3022 52.1044 0.0 0.0
5.7348 47.3397 53.1839 0.0 0.0
5.173 46.405 54.2425 0.0 0.0
4.5977 45.497 55.2813 0.0 0.0
4.0083 44.6145 56.3016 0.0 0.0
3.4048 43.7572 57.3038 0.0 0.0
2.7866 42.9243 58.289 0.0 0.0
2.1534 42.115 59.2578 0.0 0.0
1.5047 41.329 60.211 0.0 0.0
0.8401 40.5658 61.1491 0.0 0.0
0.1593 39.825 62.0725 0.0 0.0
-0.5382 39.1064 62.9818 0.0 0.0
-1.2528 38.4098 63.8772 0.0 0.0
-1.9848 37.7349 64.7592 0.0 0.0
-2.7349 37.0814 65.6281 0.0 0.0
-3.5031 36.4497 66.4837 0.0 0.0
-4.29 35.8394 67.3264 0.0 0.0
-5.0959 35.2506 68.1564 0.0 0.0
-5.9212 34.6832 68.9736 0.0 0.0
-6.7663 34.1372 69.7781 0.0 0.0
-6.2871 34.0937 69.843 0.0 0.0
-5.4469 34.6444 69.03 0.0 0.0
-4.6266 35.2168 68.2046 0.0 0.0
-3.8258 35.8106 67.3666 0.0 0.0
-3.0441 36.426 66.5161 0.0 0.0
-2.2811 37.0629 65.6529 0.0 0.0
-1.5364 37.7216 64.7766 0.0 0.0
-0.8096 38.4019 63.8875 0.0 0.0
-0.1003 39.1039 62.9849 0.0 0.0
0.5919 39.828 62.0688 0.0 0.0
1.2674 40.5743 61.1385 0.0 0.0
1.9269 41.3432 60.1938 0.0 0.0
2.5704 42.1349 59.2339 0.0 0.0
3.1984 42.9499 58.2585 0.0 0.0
3.8114 43.7887 57.2667 0.0 0.0
4.4097 44.652 56.2581 0.0 0.0
4.9938 45.5405 55.2312 0.0 0.0
5.5641 46.4547 54.1859 0.0 0.0
6.1209 47.3958 53.1208 0.0 0.0
6.6646 48.3647 52.0346 0.0 0.0
7.1955 49.3628 50.9262 0.0 0.0
7.7141 50.3914 49.7938 0.0 0.0
7.9726 50.2403 49.9596 0.0 0.0
7.4359 49.1722 51.1371 0.0 0.0
6.8857 48.1369 52.2891 0.0 0.0
6.3217 47.1328 53.4174 0.0 0.0
5.7436 46.1584 54.5236 0.0 0.0
5.1506 45.2128 55.6085 0.0 0.0
4.5427 44.2951 56.6737 0.0 0.0
3.9193 43.4041 57.72 0.0 0.0
3.2799 42.5393 58.7484 0.0 0.0
2.6241 41.7 59.7596 0.0 0.0
1.9515 40.8854 60.7547 0.0 0.0
1.2615 40.0955 61.7337 0.0 0.0
0.5536 39.3299 62.6975 0.0 0.0
-0.1725 38.5881 63.6465 0.0 0.0
-0.9173 37.8701 64.5813 0.0 0.0
-1.6815 37.1756 65.5019 0.0 0.0
-2.4655 36.5045 66.4089 0.0 0.0
-3.2695 35.8566 67.3026 0.0 0.0
-4.0942 35.2322 68.1827 0.0 0.0
-4.9399 34.6311 69.0495 0.0 0.0
-5.8072 34.0534 69.9031 0.0 0.0
-5.3265 34.0164 69.9585 0.0 0.0
-4.4902 34.5813 69.1224 0.0 0.0
-3.6743 35.1682 68.274 0.0 0.0
-2.8783 35.7771 67.4134 0.0 0.0
-2.1019 36.4082 66.5406 0.0 0.0
-1.3445 37.0612 65.6551 0.0 0.0
-0.6057 37.7364 64.7571 0.0 0.0
0.1149 38.4338 63.8461 0.0 0.0
0.8177 39.1535 62.9218 0.0 0.0
1.5032 39.8957 61.9839 0.0 0.0
2.1719 40.6608 61.0315 0.0 0.0
2.8243 41.4488 60.0648 0.0 0.0
3.4606 42.2603 59.0831 0.0 0.0
4.0812 43.0955 58.0854 0.0 0.0
4.6868 43.9553 57.0713 0.0 0.0
5.2776 44.84 56.0398 0.0 0.0
5.8541 45.7506 54.9901 0.0 0.0
6.4168 46.6878 53.9211 0.0 0.0
6.9658 47.6526 52.8317 0.0 0.0
7.5018 48.6464 51.7208 0.0 0.0
8.025 49.6703 50.5866 0.0 0.0
8.0781 49.1079 51.2082 0.0 0.0
7.5414 48.0763 52.3568 0.0 0.0
6.9913 47.0754 53.4823 0.0 0.0
6.4274 46.1038 54.5859 0.0 0.0
5.8491 45.1604 55.6692 0.0 0.0
5.2562 44.244 56.7334 0.0 0.0
4.6482 43.3542 57.779 0.0 0.0
4.0245 42.4901 58.8074 0.0 0.0
3.3849 41.651 59.819 0.0 0.0
2.7287 40.8365 60.8149 0.0 0.0
2.0554 40.046 61.7955 0.0 0.0
1.3648 39.2794 62.7615 0.0 0.0
0.6563 38.5363 63.7134 0.0 0.0
-0.0705 37.8166 64.6516 0.0 0.0
-0.8163 37.12 65.5764 0.0 0.0
-1.5814 36.4463 66.4884 0.0 0.0
-2.3663 35.7958 67.3874 0.0 0.0
-3.1715 35.1683 68.2737 0.0 0.0
-3.9976 34.564 69.1477 0.0 0.0
-4.8448 33.9827 70.0092 0.0 0.0
-4.3627 33.9522 70.0551 0.0 0.0
-3.5477 34.5192 69.2131 0.0 0.0
-2.7526 35.1082 68.3596 0.0 0.0
-1.9771 35.7188 67.4951 0.0 0.0
-1.2206 36.3512 66.6186 0.0 0.0
-0.483 37.0051 65.7307 0.0 0.0
0.2367 37.6808 64.8304 0.0 0.0
0.9383 38.3782 63.9182 0.0 0.0
1.6227 39.0976 62.9931 0.0 0.0
2.2903 39.8388 62.0551 0.0 0.0
2.9414 40.6026 61.1035 0.0 0.0
3.5766 41.3887 60.1381 0.0 0.0
4.1961 42.198 59.1579 0.0 0.0
4.8004 43.0304 58.1628 0.0 0.0
5.3902 43.8869 57.1514 0.0 0.0
5.9655 44.7677 56.1236 0.0 0.0
6.527 45.674 55.078 0.0 0.0
7.0749 46.6061 54.0139 0.0 0.0
7.6098 47.5655 52.9298 0.0 0.0
8.1318 48.5527 51.825 0.0 0.0
8.1863 48.0042 52.4374 0.0 0.0
7.6504 47.0083 53.558 0.0 0.0
7.1011 46.0411 54.6575 0.0 0.0
6.5378 45.1017 55.7368 0.0 0.0
5.9605 44.1888 56.7977 0.0 0.0
5.3682 43.3018 57.8411 0.0 0.0
4.7608 42.4398 58.8675 0.0 0.0
4.1378 41.6025 59.878 0.0 0.0
3.4987 40.7891 60.8731 0.0 0.0
2.8431 39.9995 61.8538 0.0 0.0
2.1707 39.2334 62.82 0.0 0.0
1.4806 38.4902 63.7731 0.0 0.0
0.7725 37.7699 64.7131 0.0 0.0
0.046 37.0723 65.6403 0.0 0.0
-0.6994 36.3974 66.5553 0.0 0.0
-1.464 35.7452 67.4582 0.0 0.0
-2.2488 35.1158 68.3489 0.0 0.0
-3.0539 34.5089 69.2283 0.0 0.0
-3.8799 33.9249 70.0962 0.0 0.0
-3.3964 33.9008 70.1325 0.0 0.0
-2.558 34.5033 69.2366 0.0 0.0
-1.7413 35.1299 68.3286 0.0 0.0
-0.9461 35.7803 67.4091 0.0 0.0
-0.1718 36.4546 66.477 0.0 0.0
0.5825 37.1525 65.5329 0.0 0.0
1.3169 37.8741 64.5759 0.0 0.0
2.0321 38.6199 63.6055 0.0 0.0
2.7288 39.3896 62.6219 0.0 0.0
3.4071 40.1836 61.6237 0.0 0.0
4.0681 41.0021 60.6113 0.0 0.0
4.7117 41.8456 59.5831 0.0 0.0
5.3387 42.7143 58.5391 0.0 0.0
5.9497 43.609 57.4783 0.0 0.0
6.5449 44.5304 56.3993 0.0 0.0
7.125 45.4791 55.3019 0.0 0.0
7.6905 46.4564 54.1841 0.0 0.0
8.2415 47.4628 53.0453 0.0 0.0
8.2975 46.9279 53.6489 0.0 0.0
7.7632 45.9673 54.742 0.0 0.0
7.2156 45.0338 55.8154 0.0 0.0
6.654 44.1261 56.8711 0.0 0.0
6.0783 43.2437 57.9098 0.0 0.0
5.4877 42.386 58.932 0.0 0.0
4.882 41.5521 59.9392 0.0 0.0
4.2608 40.7417 60.9317 0.0 0.0
3.6235 39.9547 61.9099 0.0 0.0
2.9698 39.1902 62.875 0.0 0.0
2.299 38.4486 63.827 0.0 0.0
1.6109 37.7291 64.7668 0.0 0.0
0.9046 37.0319 65.6946 0.0 0.0
0.1799 36.3571 66.6104 0.0 0.0
-0.5635 35.7043 67.5152 0.0 0.0
-1.3265 35.0738 68.409 0.0 0.0
-2.1092 34.4657 69.2916 0.0 0.0
-2.9126 33.8799 70.1639 0.0 0.0
-2.4283 33.8623 70.1906 0.0 0.0
-1.6126 34.4671 69.2896 0.0 0.0
-0.8183 35.0956 68.3779 0.0 0.0
-0.0448 35.7474 67.4549 0.0 0.0
0.7084 36.4227 66.5206 0.0 0.0
1.4418 37.1213 65.5746 0.0 0.0
2.156 37.8432 64.6165 0.0 0.0
2.8515 38.5886 63.6459 0.0 0.0
3.5288 39.3576 62.6625 0.0 0.0
4.1887 40.1505 61.6651 0.0 0.0
4.8313 40.9672 60.654 0.0 0.0
5.4572 41.8084 59.6282 0.0 0.0
6.067 42.6743 58.5869 0.0 0.0
6.6611 43.5657 57.5293 0.0 0.0
7.24 44.4831 56.4545 0.0 0.0
7.8043 45.4273 55.3614 0.0 0.0
8.3542 46.3992 54.249 0.0 0.0
8.4117 45.8771 54.8452 0.0 0.0
7.8801 44.952 55.9102 0.0 0.0
7.335 44.0519 56.9581 0.0 0.0
6.7764 43.1764 57.9896 0.0 0.0
6.2033 42.3249 59.0053 0.0 0.0
5.6158 41.4968 60.0064 0.0 0.0
5.013 40.6914 60.9938 0.0 0.0
4.395 39.9087 61.9676 0.0 0.0
3.7608 39.1479 62.9288 0.0 0.0
3.1103 38.4092 63.8779 0.0 0.0
2.443 37.6925 64.8149 0.0 0.0
1.7581 36.9976 65.7408 0.0 0.0
1.0555 36.3241 66.6558 0.0 0.0
0.3344 35.6722 67.5603 0.0 0.0
-0.4054 35.0423 68.4542 0.0 0.0
-1.1647 34.4342 69.3381 0.0 0.0
-1.9436 33.8478 70.2123 0.0 0.0
-1.4587 33.8366 70.2294 0.0 0.0
-0.6672 34.4426 69.3258 0.0 0.0
0.1033 35.0715 68.4124 0.0 0.0
0.8538 35.7235 67.4884 0.0 0.0
1.5846 36.3984 66.5538 0.0 0.0
2.2959 37.0962 65.6083 0.0 0.0
2.9889 37.8165 64.6516 0.0 0.0
3.6637 38.56 63.6829 0.0 0.0
4.3207 39.3264 62.7019 0.0 0.0
4.9608 40.1161 61.7081 0.0 0.0
5.5844 40.9289 60.701 0.0 0.0
6.1917 41.7658 59.6798 0.0 0.0
6.7835 42.6269 58.6436 0.0 0.0
7.3602 43.5127 57.5917 0.0 0.0
7.9221 44.4237 56.5237 0.0 0.0
8.47 45.361 55.4377 0.0 0.0
8.5291 44.851 56.0271 0.0 0.0
7.963 43.8988 57.1376 0.0 0.0
7.3818 42.9739 58.2298 0.0 0.0
6.7848 42.0753 59.3057 0.0 0.0
6.1717 41.2027 60.3653 0.0 0.0
5.5417 40.3552 61.4102 0.0 0.0
4.8945 39.5328 62.4406 0.0 0.0
4.2294 38.7348 63.4577 0.0 0.0
3.5461 37.9612 64.4618 0.0 0.0
2.8435 37.212 65.4533 0.0 0.0
2.1216 36.4867 66.4331 0.0 0.0
1.3794 35.7858 67.4012 0.0 0.0
0.6167 35.109 68.3587 0.0 0.0
-0.1674 34.4566 69.3051 0.0 0.0
-0.9737 33.8285 70.2414 0.0 0.0
-0.4885 33.8237 70.2487 0.0 0.0
0.277 34.4292 69.3455 0.0 0.0
1.0224 35.0572 68.4329 0.0 0.0
1.7482 35.7075 67.5108 0.0 0.0
2.4549 36.3802 66.5789 0.0 0.0
3.1432 37.075 65.6367 0.0 0.0
3.8135 37.792 64.6839 0.0 0.0
4.4663 38.5312 63.72 0.0 0.0
5.1022 39.2928 62.7445 0.0 0.0
5.7217 40.0769 61.7569 0.0 0.0
6.3252 40.8838 60.7566 0.0 0.0
6.9132 41.7137 59.7428 0.0 0.0
7.4862 42.5672 58.715 0.0 0.0
8.0446 43.4446 57.6722 0.0 0.0
8.589 44.3466 56.6136 0.0 0.0
8.6497 43.8482 57.1969 0.0 0.0
8.0866 42.9308 58.2812 0.0 0.0
7.5082 42.0388 59.3498 0.0 0.0
6.9143 41.1721 60.4028 0.0 0.0
6.3041 40.3298 61.4417 0.0 0.0
5.6775 39.512 62.4668 0.0 0.0
5.0336 38.7179 63.4793 0.0 0.0
4.3718 37.9478 64.4794 0.0 0.0
3.6919 37.201 65.4678 0.0 0.0
2.9931 36.478 66.445 0.0 0.0
2.2746 35.7784 67.4117 0.0 0.0
1.5363 35.1025 68.3678 0.0 0.0
0.7772 34.4503 69.3145 0.0 0.0
-0.003 33.8221 70.2512 0.0 0.0
0.4823 33.8237 70.2488 0.0 0.0
1.2197 34.4267 69.349 0.0 0.0
1.9379 35.0518 68.4407 0.0 0.0
2.6375 35.6983 67.5237 0.0 0.0
3.3186 36.3664 66.5978 0.0 0.0
3.982 37.0561 65.6621 0.0 0.0
4.6282 37.7671 64.7168 0.0 0.0
5.258 38.4995 63.761 0.0 0.0
5.8713 39.2535 62.7945 0.0 0.0
6.4688 40.0295 61.8164 0.0 0.0
7.0512 40.8271 60.8263 0.0 0.0
7.6189 41.6471 59.8238 0.0 0.0
8.1721 42.4899 58.8075 0.0 0.0
8.7113 43.3555 57.7774 0.0 0.0
8.7739 42.8682 58.3557 0.0 0.0
8.2151 41.9864 59.413 0.0 0.0
7.6415 41.1288 60.4558 0.0 0.0
7.0523 40.295 61.485 0.0 0.0
6.4472 39.4847 62.5014 0.0 0.0
5.8257 38.6975 63.5056 0.0 0.0
5.1871 37.9333 64.4983 0.0 0.0
4.531 37.1919 65.48 0.0 0.0
3.8568 36.4734 66.4514 0.0 0.0
3.1639 35.7776 67.4127 0.0 0.0
2.4518 35.1048 68.3646 0.0 0.0
1.7198 34.455 69.3074 0.0 0.0
0.9675 33.8285 70.2416 0.0 0.0
1.4528 33.8365 70.2295 0.0 0.0
2.2232 34.4903 69.2556 0.0 0.0
2.9721 35.1689 68.2729 0.0 0.0
3.6996 35.8724 67.2805 0.0 0.0
4.407 36.6003 66.2783 0.0 0.0
5.0943 37.3528 65.2653 0.0 0.0
5.7626 38.1296 64.2415 0.0 0.0
6.4122 38.9311 63.2057 0.0 0.0
7.0441 39.7572 62.1578 0.0 0.0
7.6583 40.6083 61.0964 0.0 0.0
8.256 41.4845 60.0214 0.0 0.0
8.8372 42.3866 58.9313 0.0 0.0
8.9015 41.9104 59.5047 0.0 0.0
8.3493 41.0661 60.5327 0.0 0.0
7.7827 40.2448 61.5475 0.0 0.0
7.2006 39.4457 62.5507 0.0 0.0
6.6029 38.6689 63.5425 0.0 0.0
5.9893 37.9141 64.5234 0.0 0.0
5.3588 37.1815 65.494 0.0 0.0
4.7113 36.4706 66.4552 0.0 0.0
4.0458 35.7816 67.4072 0.0 0.0
3.3621 35.1146 68.3505 0.0 0.0
2.6597 34.4701 69.2854 0.0 0.0
1.9376 33.8476 70.2125 0.0 0.0
2.4222 33.862 70.1908 0.0 0.0
3.1627 34.5126 69.2228 0.0 0.0
3.8824 35.1873 68.2467 0.0 0.0
4.582 35.8858 67.2617 0.0 0.0
5.2621 36.6081 66.2677 0.0 0.0
5.9233 37.3539 65.2637 0.0 0.0
6.5662 38.1234 64.2496 0.0 0.0
7.1914 38.9165 63.2245 0.0 0.0
7.7996 39.7334 62.1877 0.0 0.0
8.3912 40.5743 61.1386 0.0 0.0
8.9668 41.4395 60.0763 0.0 0.0
9.033 40.974 60.6457 0.0 0.0
8.4902 40.1699 61.6409 0.0 0.0
7.9332 39.3871 62.6249 0.0 0.0
7.3617 38.6255 63.5984 0.0 0.0
6.7748 37.8848 64.562 0.0 0.0
6.1722 37.1651 65.5159 0.0 0.0
5.5535 36.466 66.4613 0.0 0.0
4.918 35.7878 67.3984 0.0 0.0
4.2656 35.1306 68.3277 0.0 0.0
3.5953 34.4945 69.2495 0.0 0.0
2.9066 33.8797 70.1643 0.0 0.0
3.3904 33.9005 70.1329 0.0 0.0
4.0977 34.5443 69.1763 0.0 0.0
4.7853 35.2112 68.2124 0.0 0.0
5.454 35.9011 67.2404 0.0 0.0
6.1043 36.6134 66.2603 0.0 0.0
6.737 37.3483 65.2712 0.0 0.0
7.3522 38.1057 64.2727 0.0 0.0
7.9508 38.8858 63.2638 0.0 0.0
8.5333 39.6884 62.2444 0.0 0.0
9.1001 40.5138 61.2134 0.0 0.0
9.1683 40.0586 61.7798 0.0 0.0
8.5716 39.205 62.8562 0.0 0.0
7.9576 38.3763 63.9206 0.0 0.0
7.3257 37.5724 64.9738 0.0 0.0
6.6751 36.7931 66.0166 0.0 0.0
6.0054 36.0385 67.0495 0.0 0.0
5.3157 35.3088 68.0736 0.0 0.0
4.6054 34.604 69.089 0.0 0.0
3.8738 33.9245 70.0966 0.0 0.0
4.3568 33.9518 70.0556 0.0 0.0
5.0267 34.5842 69.1181 0.0 0.0
5.6782 35.2382 68.1741 0.0 0.0
6.3123 35.9136 67.223 0.0 0.0
6.9294 36.6102 66.2647 0.0 0.0
7.5299 37.3281 65.2982 0.0 0.0
8.1143 38.0672 64.3231 0.0 0.0
8.6834 38.8274 63.3387 0.0 0.0
9.2375 39.6089 62.3445 0.0 0.0
9.3077 39.1643 62.9079 0.0 0.0
8.7227 38.3537 63.95 0.0 0.0
8.1207 37.5666 64.9815 0.0 0.0
7.5016 36.8026 66.0036 0.0 0.0
6.8643 36.0622 67.0167 0.0 0.0
6.2087 35.3451 68.0219 0.0 0.0
5.5336 34.6518 69.0192 0.0 0.0
4.8389 33.9823 70.0098 0.0 0.0
5.3204 34.016 69.9592 0.0 0.0
5.947 34.6296 69.0516 0.0 0.0
6.5574 35.2634 68.1382 0.0 0.0
7.1516 35.9166 67.2188 0.0 0.0
7.7305 36.5896 66.2927 0.0 0.0
8.2943 37.2819 65.3599 0.0 0.0
8.8438 37.9937 64.4191 0.0 0.0
9.379 38.7247 63.4705 0.0 0.0
9.4514 38.2905 64.032 0.0 0.0
8.8845 37.5302 65.0295 0.0 0.0
8.3016 36.7913 66.0191 0.0 0.0
7.7025 36.0741 67.0004 0.0 0.0
7.0866 35.3784 67.9747 0.0 0.0
6.4529 34.7047 68.9422 0.0 0.0
5.8013 34.053 69.9039 0.0 0.0
6.2812 34.0932 69.8438 0.0 0.0
6.9696 34.7967 68.8086 0.0 0.0
7.6375 35.5255 67.7666 0.0 0.0
8.2853 36.2794 66.7172 0.0 0.0
8.9143 37.0581 65.6595 0.0 0.0
9.5249 37.8615 64.5926 0.0 0.0
9.5996 37.4374 65.1529 0.0 0.0
9.0612 36.7386 66.0903 0.0 0.0
8.5088 36.0592 67.0209 0.0 0.0
7.9413 35.3988 67.9457 0.0 0.0
7.3588 34.758 68.8647 0.0 0.0
6.7602 34.1366 69.7789 0.0 0.0
7.2385 34.1833 69.7093 0.0 0.0
7.8742 34.8584 68.7194 0.0 0.0
8.4919 35.5561 67.7235 0.0 0.0
9.092 36.2762 66.7217 0.0 0.0
9.6754 37.0187 65.7124 0.0 0.0
9.7524 36.6052 66.2716 0.0 0.0
9.2616 35.9884 67.1192 0.0 0.0
8.7585 35.3874 67.9619 0.0 0.0
8.2434 34.8022 68.8005 0.0 0.0
7.7156 34.2333 69.6351 0.0 0.0
8.1916 34.2865 69.5561 0.0 0.0
8.7523 34.9047 68.6525 0.0 0.0
9.2986 35.5416 67.744 0.0 0.0
9.8306 36.1968 66.8309 0.0 0.0
9.9101 35.7939 67.3901 0.0 0.0
9.2978 35.0562 68.4342 0.0 0.0
8.6666 34.3431 69.4725 0.0 0.0
9.1403 34.4029 69.3843 0.0 0.0
9.5699 34.8938 68.6681 0.0 0.0
9.9908 35.3963 67.9494 0.0 0.0
10.073 35.004 68.5093 0.0 0.0
9.6127 34.466 69.2914 0.0 0.0
10.084 34.5324 69.1938 0.0 0.0
10.1564 34.6173 69.0695 0.0 0.0
10.1402 34.615 69.0731 0.0 0.0
10.1402 34.1826 68.7219 0.0 0.0
9.0664 34.0148 68.9611 0.0 0.0
7.9855 33.8645 69.1769 0.0 0.0
6.8979 33.7318 69.3685 0.0 0.0
5.8045 33.6165 69.5358 0.0 0.0
4.706 33.5185 69.6786 0.0 0.0
3.6033 33.4375 69.797 0.0 0.0
2.497 33.3739 69.8904 0.0 0.0
1.3881 33.3274 69.9588 0.0 0.0
0.2773 33.2979 70.0021 0.0 0.0
-0.8347 33.2854 70.0206 0.0 0.0
-1.9467 33.29 70.0137 0.0 0.0
-3.0581 33.3117 69.9817 0.0 0.0
-4.168 33.3505 69.9247 0.0 0.0
-5.2756 33.4062 69.8429 0.0 0.0
-6.38 33.4792 69.736 0.0 0.0
-7.4805 33.5693 69.6043 0.0 0.0
-8.5763 33.6768 69.4481 0.0 0.0
-9.6667 33.8014 69.2678 0.0 0.0
-10.7508 33.9436 69.0631 0.0 0.0
-10.844 33.8038 69.2644 0.0 0.0
-9.7374 33.641 69.5 0.0 0.0
-8.6234 33.4965 69.7107 0.0 0.0
-7.5028 33.3701 69.896 0.0 0.0
-6.3764 33.2616 70.0556 0.0 0.0
-5.245 33.1711 70.1895 0.0 0.0
-4.1095 33.0985 70.2975 0.0 0.0
-2.9707 33.0436 70.3792 0.0 0.0
-1.8296 33.0065 70.4347 0.0 0.0
-0.6871 32.987 70.4637 0.0 0.0
0.4563 32.9852 70.4664 0.0 0.0
1.599 33.0011 70.4427 0.0 0.0
2.7405 33.0347 70.3925 0.0 0.0
3.8798 33.086 70.3161 0.0 0.0
5.016 33.155 70.2134 0.0 0.0
6.1483 33.2419 70.0848 0.0 0.0
7.2758 33.3467 69.9302 0.0 0.0
8.3977 33.4695 69.7501 0.0 0.0
9.5131 33.6104 69.5446 0.0 0.0
10.6212 33.7694 69.3139 0.0 0.0
10.4275 34.6374 68.0805 0.0 0.0
10.2406 35.5316 66.849 0.0 0.0
10.0603 36.4511 65.6176 0.0 0.0
9.8861 37.3959 64.3842 0.0 0.0
9.7178 38.3656 63.1471 0.0 0.0
9.5551 39.36 61.9051 0.0 0.0
9.3977 40.3796 60.6559 0.0 0.0
9.2453 41.4247 59.398 0.0 0.0
9.0978 42.4958 58.1298 0.0 0.0
8.9548 43.5936 56.8494 0.0 0.0
8.8163 44.7188 55.5552 0.0 0.0
8.6819 45.8733 54.2448 0.0 0.0
8.5516 47.058 52.916 0.0 0.0
8.4251 48.2746 51.5672 0.0 0.0
8.3022 49.5256 50.1951 0.0 0.0
8.1828 50.8131 48.7971 0.0 0.0
7.367 50.6357 48.9888 0.0 0.0
6.5479 50.4775 49.1602 0.0 0.0
5.7264 50.3383 49.3109 0.0 0.0
4.9023 50.2181 49.4414 0.0 0.0
4.0763 50.1168 49.5515 0.0 0.0
3.2484 50.0342 49.6411 0.0 0.0
2.4192 49.9705 49.7105 0.0 0.0
1.5892 49.9254 49.7595 0.0 0.0
0.7583 49.899 49.7882 0.0 0.0
-0.0727 49.8913 49.7965 0.0 0.0
-0.9039 49.9023 49.7846 0.0 0.0
-1.7345 49.9319 49.7523 0.0 0.0
-2.5685 49.9805 49.6995 0.0 0.0
-3.4014 50.0481 49.6262 0.0 0.0
-4.2326 50.1345 49.5322 0.0 0.0
-5.0623 50.24 49.4178 0.0 0.0
-5.8898 50.3645 49.2827 0.0 0.0
-6.7149 50.5082 49.127 0.0 0.0
-7.537 50.6711 48.9507 0.0 0.0
-8.3561 50.8533 48.7535 0.0 0.0
-8.478 49.5653 50.1518 0.0 0.0
-8.6033 48.3138 51.5241 0.0 0.0
-8.7324 47.0967 52.873 0.0 0.0
-8.8655 45.9115 54.2016 0.0 0.0
-9.0026 44.7567 55.5119 0.0 0.0
-9.144 43.6311 56.8059 0.0 0.0
-9.2898 42.5329 58.0861 0.0 0.0
-9.4404 41.4616 59.354 0.0 0.0
-9.5958 40.4162 60.6115 0.0 0.0
-9.7564 39.3963 61.8603 0.0 0.0
-9.9224 38.4016 63.1017 0.0 0.0
-10.0941 37.4316 64.338 0.0 0.0
-10.2718 36.4865 65.5708 0.0 0.0
-10.4558 35.5667 66.8013 0.0 0.0
-10.6464 34.6722 68.032 0.0 0.0
-10.844 33.8038 69.2644 0.0 0.0
-10.6273 33.9245 69.0905 0.0 0.0
-11.025 33.7046 69.4078 0.0 0.0
-11.2438 33.5861 69.58 0.0 0.0
-10.1554 33.4216 69.8203 0.0 0.0
-9.0593 33.2746 70.0366 0.0 0.0
-7.9566 33.145 70.2284 0.0 0.0
-6.8478 33.0326 70.3955 0.0 0.0
-5.734 32.9375 70.5378 0.0 0.0
-4.6159 32.8595 70.655 0.0 0.0
-3.494 32.7984 70.7469 0.0 0.0
-2.3697 32.7544 70.8134 0.0 0.0
-1.2432 32.7273 70.8544 0.0 0.0
-0.1161 32.7171 70.8698 0.0 0.0
1.0111 32.7238 70.8597 0.0 0.0
2.1378 32.7474 70.8239 0.0 0.0
3.2626 32.788 70.7627 0.0 0.0
4.3851 32.8455 70.676 0.0 0.0
5.5041 32.92 70.564 0.0 0.0
6.6188 33.0116 70.4269 0.0 0.0
7.7288 33.1204 70.2648 0.0 0.0
8.8327 33.2465 70.0781 0.0 0.0
9.9302 33.3899 69.8668 0.0 0.0
11.0203 33.5508 69.6315 0.0 0.0
10.8106 34.4455 68.3498 0.0 0.0
10.6086 35.3687 67.0706 0.0 0.0
10.4139 36.3198 65.7914 0.0 0.0
10.2262 37.2979 64.5107 0.0 0.0
10.045 38.3029 63.2263 0.0 0.0
9.8701 39.335 61.9361 0.0 0.0
9.7011 40.3939 60.6386 0.0 0.0
9.5378 41.4803 59.3316 0.0 0.0
9.3798 42.5948 58.0134 0.0 0.0
9.227 43.7384 56.6819 0.0 0.0
9.0789 44.9122 55.3346 0.0 0.0
8.9356 46.1173 53.9698 0.0 0.0
8.7966 47.3555 52.5849 0.0 0.0
8.6619 48.6292 51.177 0.0 0.0
8.5312 49.9401 49.7435 0.0 0.0
8.4044 51.2915 48.2811 0.0 0.0
7.5715 51.1024 48.4848 0.0 0.0
6.7353 50.9336 48.6669 0.0 0.0
5.8963 50.7851 48.8273 0.0 0.0
5.0546 50.6567 48.9663 0.0 0.0
4.2109 50.5482 49.0835 0.0 0.0
3.3652 50.4597 49.1793 0.0 0.0
2.518 50.3911 49.2537 0.0 0.0
1.6699 50.3423 49.3066 0.0 0.0
0.8208 50.3133 49.338 0.0 0.0
-0.0284 50.3041 49.3481 0.0 0.0
-0.8777 50.3147 49.3367 0.0 0.0
-1.7265 50.345 49.3038 0.0 0.0
-2.5895 50.3961 49.2483 0.0 0.0
-3.4515 50.4679 49.1706 0.0 0.0
-4.3118 50.5601 49.0706 0.0 0.0
-5.1701 50.6731 48.9485 0.0 0.0
-6.0261 50.8067 48.8039 0.0 0.0
-6.8796 50.9613 48.6371 0.0 0.0
-7.7298 51.1367 48.4478 0.0 0.0
-8.5767 51.3332 48.236 0.0 0.0
-8.706 49.9812 49.6988 0.0 0.0
-8.8393 48.6697 51.1324 0.0 0.0
-8.9767 47.3955 52.5404 0.0 0.0
-9.1184 46.1568 53.9253 0.0 0.0
-9.2646 44.9513 55.2899 0.0 0.0
-9.4156 43.7771 56.637 0.0 0.0
-9.5715 42.6333 57.9684 0.0 0.0
-9.7325 41.5184 59.2863 0.0 0.0
-9.8991 40.4317 60.5927 0.0 0.0
-10.0713 39.3724 61.8897 0.0 0.0
-10.2497 38.3401 63.1794 0.0 0.0
-10.4343 37.3347 64.4631 0.0 0.0
-10.6257 36.3563 65.743 0.0 0.0
-10.8242 35.4049 67.0213 0.0 0.0
-11.0301 34.4813 68.2996 0.0 0.0
-11.2438 33.5861 69.58 0.0 0.0
-11.0762 33.5595 69.6187 0.0 0.0
-10.6273 33.9245 69.0905 0.0 0.0
-10.4677 34.0143 68.9618 0.0 0.0
-9.3983 33.8607 69.1823 0.0 0.0
-8.3223 33.7243 69.3792 0.0 0.0
-7.2404 33.6049 69.5524 0.0 0.0
-6.1532 33.5026 69.7018 0.0 0.0
-5.0615 33.4171 69.827 0.0 0.0
-3.9662 33.3484 69.9278 0.0 0.0
-2.868 33.2965 70.0042 0.0 0.0
-1.7676 33.2614 70.056 0.0 0.0
-0.6659 33.243 70.0833 0.0 0.0
0.4365 33.2412 70.0858 0.0 0.0
1.5383 33.2562 70.0638 0.0 0.0
2.639 33.2878 70.017 0.0 0.0
3.7378 33.3362 69.9457 0.0 0.0
4.8338 33.4014 69.85 0.0 0.0
5.9262 33.4834 69.7299 0.0 0.0
7.0144 33.5822 69.5855 0.0 0.0
8.0975 33.6981 69.4173 0.0 0.0
9.1748 33.8309 69.2252 0.0 0.0
10.2456 33.9809 69.0096 0.0 0.0
10.0547 34.8797 67.7432 0.0 0.0
9.8706 35.8061 66.478 0.0 0.0
9.6932 36.759 65.2123 0.0 0.0
9.5219 37.7383 63.9443 0.0 0.0
9.3565 38.744 62.6715 0.0 0.0
9.1968 39.7758 61.3929 0.0 0.0
9.0423 40.8341 60.1062 0.0 0.0
8.8929 41.9197 58.8094 0.0 0.0
8.7483 43.0328 57.5011 0.0 0.0
8.6083 44.1746 56.179 0.0 0.0
8.4727 45.3464 54.8408 0.0 0.0
8.3413 46.5493 53.4848 0.0 0.0
8.2139 47.7851 52.1082 0.0 0.0
8.0902 49.0563 50.7082 0.0 0.0
7.9702 50.3647 49.2824 0.0 0.0
7.0978 50.1838 49.4788 0.0 0.0
6.222 50.0243 49.6519 0.0 0.0
5.3433 49.8863 49.8021 0.0 0.0
4.4621 49.7695 49.9292 0.0 0.0
3.5788 49.6739 50.0333 0.0 0.0
2.6939 49.5995 50.1144 0.0 0.0
1.8076 49.5462 50.1727 0.0 0.0
0.9204 49.5139 50.2079 0.0 0.0
0.0327 49.5026 50.2202 0.0 0.0
-0.855 49.5123 50.2096 0.0 0.0
-1.7422 49.5431 50.1761 0.0 0.0
-2.5483 49.5893 50.1256 0.0 0.0
-3.3531 49.6529 50.0562 0.0 0.0
-4.1568 49.734 49.9678 0.0 0.0
-4.9588 49.8327 49.8605 0.0 0.0
-5.7589 49.9488 49.734 0.0 0.0
-6.5568 50.0827 49.5885 0.0 0.0
-7.352 50.2342 49.424 0.0 0.0
-8.1445 50.4035 49.2403 0.0 0.0
-8.267 49.0945 50.6663 0.0 0.0
-8.3933 47.8229 52.0664 0.0 0.0
-8.5234 46.5866 53.443 0.0 0.0
-8.6576 45.3833 54.7989 0.0 0.0
-8.7961 44.2111 56.137 0.0 0.0
-8.9391 43.069 57.4588 0.0 0.0
-9.0867 41.9556 58.7669 0.0 0.0
-9.2393 40.8697 60.0633 0.0 0.0
-9.3969 39.8111 61.3495 0.0 0.0
-9.5601 38.7791 62.6277 0.0 0.0
-9.7289 37.7731 63.8998 0.0 0.0
-9.9038 36.7935 65.1672 0.0 0.0
-10.0849 35.8402 66.432 0.0 0.0
-10.2728 34.9135 67.6964 0.0 0.0
-10.4677 34.0143 68.9618 0.0 0.0
-9.779 34.0545 68.9045 0.0 0.0
-10.1829 34.5368 68.2215 0.0 0.0
-10.0999 34.9347 67.667 0.0 0.0
-9.7073 34.4569 68.3339 0.0 0.0
-9.307 33.9891 68.998 0.0 0.0
-8.8336 33.927 69.087 0.0 0.0
-9.4344 34.6215 68.1029 0.0 0.0
-10.0182 35.3376 67.113 0.0 0.0
-9.9378 35.7458 66.5592 0.0 0.0
-9.4249 35.1031 67.4347 0.0 0.0
-8.8988 34.4772 68.3052 0.0 0.0
-8.3592 33.8683 69.1713 0.0 0.0
-7.8836 33.813 69.2511 0.0 0.0
-8.395 34.3774 68.4459 0.0 0.0
-8.8944 34.9566 67.6368 0.0 0.0
-9.3822 35.5507 66.823 0.0 0.0
-9.8586 36.1592 66.005 0.0 0.0
-9.7807 36.5776 65.4508 0.0 0.0
-9.2121 35.8419 66.4297 0.0 0.0
-8.6271 35.1272 67.4014 0.0 0.0
-8.0256 34.4336 68.3667 0.0 0.0
-7.4067 33.7609 69.3263 0.0 0.0
-6.9289 33.7122 69.3968 0.0 0.0
-7.5132 34.3334 68.5081 0.0 0.0
-8.0826 34.9732 67.6139 0.0 0.0
-8.6371 35.631 66.7143 0.0 0.0
-9.1775 36.3071 65.8084 0.0 0.0
-9.704 37.001 64.8962 0.0 0.0
-9.6286 37.4294 64.3409 0.0 0.0
-9.0297 36.6298 65.3821 0.0 0.0
-8.4132 35.8537 66.4138 0.0 0.0
-7.7781 35.1009 67.4376 0.0 0.0
-7.1242 34.372 68.4534 0.0 0.0
-6.4503 33.6668 69.4626 0.0 0.0
-5.9704 33.6247 69.5237 0.0 0.0
-6.6096 34.2792 68.5847 0.0 0.0
-7.2314 34.9549 67.6392 0.0 0.0
-7.8361 35.651 66.6871 0.0 0.0
-8.4244 36.3678 65.7278 0.0 0.0
-8.997 37.1053 64.7603 0.0 0.0
-9.5542 37.8631 63.7847 0.0 0.0
-9.481 38.3016 63.2279 0.0 0.0
-8.9541 37.5723 64.1571 0.0 0.0
-8.4135 36.8612 65.0784 0.0 0.0
-7.8589 36.169 65.992 0.0 0.0
-7.2896 35.495 66.8987 0.0 0.0
-6.7054 34.8399 67.7985 0.0 0.0
-6.1056 34.2033 68.6923 0.0 0.0
-5.49 33.5859 69.5801 0.0 0.0
-5.0088 33.5504 69.6319 0.0 0.0
-5.6922 34.2248 68.6619 0.0 0.0
-6.3565 34.9221 67.6844 0.0 0.0
-7.0019 35.6419 66.6995 0.0 0.0
-7.6294 36.3843 65.706 0.0 0.0
-8.2392 37.1488 64.7039 0.0 0.0
-8.8323 37.9359 63.692 0.0 0.0
-9.4088 38.7452 62.6701 0.0 0.0
-9.3378 39.194 62.1108 0.0 0.0
-8.7911 38.4132 63.0871 0.0 0.0
-8.2299 37.6527 64.0539 0.0 0.0
-7.6533 36.9127 65.0113 0.0 0.0
-7.0613 36.193 65.96 0.0 0.0
-6.4532 35.4936 66.9005 0.0 0.0
-5.8283 34.8144 67.8338 0.0 0.0
-5.1863 34.156 68.7598 0.0 0.0
-4.5266 33.5182 69.6789 0.0 0.0
-4.0441 33.4893 69.7212 0.0 0.0
-4.7652 34.1752 68.7323 0.0 0.0
-5.4657 34.8855 67.7351 0.0 0.0
-6.1459 35.6196 66.7296 0.0 0.0
-6.8068 36.3778 65.7146 0.0 0.0
-7.4486 37.1595 64.6901 0.0 0.0
-8.0723 37.9649 63.6551 0.0 0.0
-8.6786 38.7943 62.6085 0.0 0.0
-9.2678 39.6476 61.5504 0.0 0.0
-9.1989 40.1063 60.9885 0.0 0.0
-8.6385 39.2808 62.0032 0.0 0.0
-8.0631 38.4775 63.006 0.0 0.0
-7.4716 37.6959 63.9985 0.0 0.0
-6.8639 36.9361 64.9808 0.0 0.0
-6.2394 36.1981 65.9532 0.0 0.0
-5.5974 35.4816 66.9169 0.0 0.0
-4.9373 34.7869 67.8721 0.0 0.0
-4.2588 34.1143 68.819 0.0 0.0
-3.561 33.4637 69.7587 0.0 0.0
-3.0771 33.4413 69.7914 0.0 0.0
-3.757 34.063 68.8922 0.0 0.0
-4.419 34.7052 67.9858 0.0 0.0
-5.0634 35.3676 67.0722 0.0 0.0
-5.6912 36.0503 66.1503 0.0 0.0
-6.3026 36.7532 65.22 0.0 0.0
-6.8981 37.4762 64.2808 0.0 0.0
-7.4782 38.2192 63.3321 0.0 0.0
-8.0433 38.9823 62.3739 0.0 0.0
-8.5941 39.766 61.4049 0.0 0.0
-9.1309 40.5703 60.4247 0.0 0.0
-9.0639 41.0393 59.8594 0.0 0.0
-8.4943 40.1736 60.9064 0.0 0.0
-7.9089 39.3315 61.9403 0.0 0.0
-7.3073 38.5127 62.9619 0.0 0.0
-6.6889 37.7168 63.9717 0.0 0.0
-6.0531 36.9438 64.9706 0.0 0.0
-5.3995 36.1939 65.9589 0.0 0.0
-4.7273 35.4665 66.9375 0.0 0.0
-4.0358 34.7619 67.9068 0.0 0.0
-3.3246 34.0805 68.8673 0.0 0.0
-2.593 33.4222 69.8194 0.0 0.0
-2.1085 33.4064 69.8426 0.0 0.0
-2.8222 34.0364 68.9303 0.0 0.0
-3.5169 34.6882 68.0097 0.0 0.0
-4.1929 35.3612 67.081 0.0 0.0
-4.851 36.0554 66.1434 0.0 0.0
-5.4916 36.7709 65.1967 0.0 0.0
-6.1154 37.5078 64.2399 0.0 0.0
-6.7227 38.2658 63.2733 0.0 0.0
-7.3141 39.0451 62.2958 0.0 0.0
-7.8901 39.8459 61.3069 0.0 0.0
-8.4513 40.6687 60.3057 0.0 0.0
-8.998 41.5135 59.2921 0.0 0.0
-8.9329 41.9932 58.7225 0.0 0.0
-8.357 41.0905 59.798 0.0 0.0
-7.7652 40.2128 60.8588 0.0 0.0
-7.1566 39.3593 61.9059 0.0 0.0
-6.5311 38.5303 62.9396 0.0 0.0
-5.888 37.7253 63.961 0.0 0.0
-5.2265 36.944 64.9705 0.0 0.0
-4.5462 36.1864 65.9688 0.0 0.0
-3.8464 35.4525 66.9565 0.0 0.0
-3.1263 34.7422 67.9344 0.0 0.0
-2.3856 34.0559 68.9023 0.0 0.0
-1.6236 33.3938 69.861 0.0 0.0
-1.1386 33.3845 69.8746 0.0 0.0
-1.8831 34.0195 68.9545 0.0 0.0
-2.6075 34.6769 68.0255 0.0 0.0
-3.3123 35.3566 67.0872 0.0 0.0
-3.9982 36.0585 66.1394 0.0 0.0
-4.6658 36.7825 65.1815 0.0 0.0
-5.3155 37.5284 64.2134 0.0 0.0
-5.9477 38.2967 63.2341 0.0 0.0
-6.5634 39.0873 62.2432 0.0 0.0
-7.1628 39.9004 61.2401 0.0 0.0
-7.7466 40.7363 60.2241 0.0 0.0
-8.3151 41.5953 59.1946 0.0 0.0
-8.8688 42.4779 58.1507 0.0 0.0
-8.8056 42.9681 57.5766 0.0 0.0
-8.2709 42.1016 58.5942 0.0 0.0
-7.7225 41.2576 59.5976 0.0 0.0
-7.1599 40.4357 60.5879 0.0 0.0
-6.5828 39.6354 61.5654 0.0 0.0
-5.9906 38.8565 62.531 0.0 0.0
-5.3829 38.0986 63.485 0.0 0.0
-4.759 37.3615 64.4285 0.0 0.0
-4.1188 36.6455 65.3614 0.0 0.0
-3.4617 35.9503 66.2842 0.0 0.0
-2.7871 35.2759 67.1975 0.0 0.0
-2.0945 34.6224 68.1016 0.0 0.0
-1.3835 33.9899 68.9968 0.0 0.0
-0.6534 33.3785 69.8835 0.0 0.0
-0.1679 33.3757 69.8875 0.0 0.0
-0.9406 34.0128 68.9641 0.0 0.0
-1.6926 34.6732 68.0305 0.0 0.0
-2.424 35.3565 67.0874 0.0 0.0
-3.1356 36.0627 66.1338 0.0 0.0
-3.8282 36.792 65.1691 0.0 0.0
-4.502 37.5439 64.1935 0.0 0.0
-5.1577 38.3188 63.2062 0.0 0.0
-5.7959 39.1168 62.2065 0.0 0.0
-6.4174 39.9384 61.1938 0.0 0.0
-7.0222 40.7832 60.1675 0.0 0.0
-7.6111 41.6521 59.1271 0.0 0.0
-8.1847 42.5456 58.0712 0.0 0.0
-8.7432 43.464 56.9996 0.0 0.0
-8.6818 43.9652 56.42 0.0 0.0
-8.1418 43.0625 57.4665 0.0 0.0
-7.5877 42.1835 58.4975 0.0 0.0
-7.0194 41.3281 59.5133 0.0 0.0
-6.4362 40.4955 60.5154 0.0 0.0
-5.8378 39.6855 61.5037 0.0 0.0
-5.2235 38.8975 62.4797 0.0 0.0
-4.5931 38.1317 63.4432 0.0 0.0
-3.9458 37.3873 64.3952 0.0 0.0
-3.2815 36.6649 65.336 0.0 0.0
-2.5993 35.9637 66.2661 0.0 0.0
-1.8989 35.2844 67.1858 0.0 0.0
-1.1796 34.6265 68.0958 0.0 0.0
-0.4412 33.9904 68.9962 0.0 0.0
0.3173 33.3763 69.8869 0.0 0.0
0.8026 33.38 69.8813 0.0 0.0
0.0036 34.0172 68.9577 0.0 0.0
-0.7737 34.6782 68.0236 0.0 0.0
-1.5299 35.3628 67.0787 0.0 0.0
-2.2656 36.071 66.1227 0.0 0.0
-2.9814 36.8027 65.1552 0.0 0.0
-3.6779 37.5578 64.1756 0.0 0.0
-4.3557 38.3366 63.1837 0.0 0.0
-5.0152 39.1392 62.1788 0.0 0.0
-5.6572 39.9657 61.1603 0.0 0.0
-6.2821 40.8165 60.1275 0.0 0.0
-6.8904 41.692 59.0797 0.0 0.0
-7.4827 42.5926 58.016 0.0 0.0
-8.0595 43.5191 56.9356 0.0 0.0
-8.6212 44.4721 55.8375 0.0 0.0
-8.5614 44.985 55.2515 0.0 0.0
-8.0176 44.0468 56.3259 0.0 0.0
-7.4598 43.1344 57.3826 0.0 0.0
-6.8874 42.2465 58.4231 0.0 0.0
-6.3 41.3828 59.448 0.0 0.0
-5.6974 40.543 60.4578 0.0 0.0
-5.0787 39.7262 61.4538 0.0 0.0
-4.4436 38.9323 62.4364 0.0 0.0
-3.7918 38.1612 63.4058 0.0 0.0
-3.1225 37.4123 64.3631 0.0 0.0
-2.4352 36.6857 65.3086 0.0 0.0
-1.7297 35.9815 66.2424 0.0 0.0
-1.005 35.2993 67.1654 0.0 0.0
-0.2608 34.6395 68.0778 0.0 0.0
0.5031 34.0021 68.9793 0.0 0.0
1.2879 33.387 69.8709 0.0 0.0
1.7728 33.3973 69.8558 0.0 0.0
1.0002 33.9926 68.9929 0.0 0.0
0.2474 34.609 68.1202 0.0 0.0
-0.4865 35.2469 67.2372 0.0 0.0
-1.2018 35.9059 66.3438 0.0 0.0
-1.8987 36.5858 65.4399 0.0 0.0
-2.5781 37.2871 64.5248 0.0 0.0
-3.2404 38.0095 63.5983 0.0 0.0
-3.8857 38.7532 62.66 0.0 0.0
-4.5151 39.5182 61.7097 0.0 0.0
-5.1286 40.3051 60.7464 0.0 0.0
-5.7268 41.114 59.7698 0.0 0.0
-6.3099 41.945 58.7795 0.0 0.0
-6.8787 42.799 57.7742 0.0 0.0
-7.4335 43.6764 56.7535 0.0 0.0
-7.9745 44.5775 55.7168 0.0 0.0
-8.5025 45.5036 54.6625 0.0 0.0
-8.4443 46.0282 54.07 0.0 0.0
-7.8982 45.0556 55.1713 0.0 0.0
-7.3379 44.1098 56.2536 0.0 0.0
-6.7628 43.1904 57.3174 0.0 0.0
-6.1729 42.2966 58.3641 0.0 0.0
-5.5676 41.4276 59.3945 0.0 0.0
-4.9462 40.5829 60.4095 0.0 0.0
-4.3082 39.7618 61.4101 0.0 0.0
-3.6535 38.9644 62.3962 0.0 0.0
-2.9813 38.1903 63.3689 0.0 0.0
-2.2911 37.4391 64.3285 0.0 0.0
-1.5822 36.7106 65.2759 0.0 0.0
-0.8545 36.0051 66.2109 0.0 0.0
-0.1072 35.3223 67.134 0.0 0.0
0.6601 34.6623 68.0457 0.0 0.0
1.4484 34.025 68.9465 0.0 0.0
2.2575 33.4109 69.836 0.0 0.0
2.7418 33.4277 69.8113 0.0 0.0
1.9448 34.0226 68.9499 0.0 0.0
1.1679 34.6394 68.0778 0.0 0.0
0.4108 35.2779 67.1947 0.0 0.0
-0.3272 35.9382 66.3005 0.0 0.0
-1.0461 36.62 65.3948 0.0 0.0
-1.7471 37.3236 64.4775 0.0 0.0
-2.4302 38.049 63.5482 0.0 0.0
-3.0961 38.7962 62.6063 0.0 0.0
-3.7452 39.5652 61.6518 0.0 0.0
-4.378 40.3568 60.6836 0.0 0.0
-4.9948 41.171 59.7014 0.0 0.0
-5.5962 42.0082 58.7046 0.0 0.0
-6.1825 42.8689 57.6925 0.0 0.0
-6.7544 43.7536 56.6642 0.0 0.0
-7.3121 44.663 55.6189 0.0 0.0
-7.8562 45.598 54.5558 0.0 0.0
-8.3869 46.5593 53.4735 0.0 0.0
-8.3304 47.0964 52.8732 0.0 0.0
-7.7827 46.0891 54.0016 0.0 0.0
-7.2211 45.1108 55.1083 0.0 0.0
-6.6447 44.1601 56.1955 0.0 0.0
-6.0533 43.2363 57.264 0.0 0.0
-5.4464 42.3386 58.3147 0.0 0.0
-4.8238 41.4665 59.3482 0.0 0.0
-4.1844 40.619 60.366 0.0 0.0
-3.5281 39.7958 61.3683 0.0 0.0
-2.8546 38.997 62.3557 0.0 0.0
-2.1629 38.2216 63.3292 0.0 0.0
-1.4527 37.4697 64.2891 0.0 0.0
-0.7236 36.7414 65.2355 0.0 0.0
0.0251 36.0361 66.1693 0.0 0.0
0.794 35.3541 67.0907 0.0 0.0
1.5834 34.6953 67.9998 0.0 0.0
2.3938 34.0599 68.8965 0.0 0.0
3.226 33.4478 69.7818 0.0 0.0
3.7095 33.4712 69.7477 0.0 0.0
2.8896 34.0645 68.8901 0.0 0.0
2.0903 34.6801 68.021 0.0 0.0
1.3112 35.3178 67.1402 0.0 0.0
0.5519 35.9777 66.2474 0.0 0.0
-0.1885 36.66 65.3424 0.0 0.0
-0.9098 37.3642 64.4251 0.0 0.0
-1.6129 38.0907 63.4952 0.0 0.0
-2.2982 38.8395 62.552 0.0 0.0
-2.9661 39.611 61.5954 0.0 0.0
-3.6172 40.4053 60.6248 0.0 0.0
-4.252 41.2228 59.6395 0.0 0.0
-4.8708 42.0638 58.6389 0.0 0.0
-5.4742 42.9289 57.6224 0.0 0.0
-6.0627 43.8189 56.5888 0.0 0.0
-6.6365 44.734 55.5379 0.0 0.0
-7.1961 45.6752 54.4684 0.0 0.0
-7.742 46.6435 53.3791 0.0 0.0
-8.2745 47.64 52.2689 0.0 0.0
-8.2194 48.1906 51.66 0.0 0.0
-7.7004 47.2025 52.7551 0.0 0.0
-7.1689 46.2424 53.8292 0.0 0.0
-6.6243 45.3085 54.8838 0.0 0.0
-6.0664 44.4002 55.9199 0.0 0.0
-5.4946 43.5169 56.9381 0.0 0.0
-4.9088 42.6574 57.94 0.0 0.0
-4.3082 41.8216 58.9257 0.0 0.0
-3.6926 41.0084 59.8965 0.0 0.0
-3.0617 40.2177 60.8527 0.0 0.0
-2.4148 39.4494 61.7947 0.0 0.0
-1.7518 38.7026 62.7234 0.0 0.0
-1.0719 37.9774 63.639 0.0 0.0
-0.3748 37.2739 64.5418 0.0 0.0
0.3397 36.5914 65.4324 0.0 0.0
1.0724 35.9304 66.3108 0.0 0.0
1.8235 35.2904 67.1776 0.0 0.0
2.5937 34.6716 68.0329 0.0 0.0
3.3831 34.0741 68.8763 0.0 0.0
4.1925 33.4978 69.7086 0.0 0.0
4.6751 33.5278 69.665 0.0 0.0
3.8336 34.1184 68.8132 0.0 0.0
3.013 34.7318 67.9488 0.0 0.0
2.2132 35.3676 67.0722 0.0 0.0
1.4336 36.0259 66.1829 0.0 0.0
0.6736 36.7068 65.2808 0.0 0.0
-0.0674 37.4105 64.3653 0.0 0.0
-0.7894 38.1367 63.4368 0.0 0.0
-1.4933 38.8857 62.4944 0.0 0.0
-2.1793 39.6577 61.5379 0.0 0.0
-2.8483 40.4533 60.5664 0.0 0.0
-3.5003 41.2724 59.5801 0.0 0.0
-4.1359 42.1154 58.5778 0.0 0.0
-4.7556 42.9831 57.5591 0.0 0.0
-5.3601 43.8762 56.5227 0.0 0.0
-5.9493 44.7949 55.4684 0.0 0.0
-6.524 45.7403 54.3948 0.0 0.0
-7.0846 46.7134 53.3009 0.0 0.0
-7.6315 47.7157 52.1852 0.0 0.0
-8.165 48.7477 51.0466 0.0 0.0
-8.1114 49.312 50.4285 0.0 0.0
-7.5911 48.2876 51.5529 0.0 0.0
-7.0582 47.293 52.6545 0.0 0.0
-6.5123 46.3266 53.7344 0.0 0.0
-5.953 45.3875 54.7942 0.0 0.0
-5.3799 44.4745 55.8346 0.0 0.0
-4.7926 43.5869 56.857 0.0 0.0
-4.1907 42.7239 57.8621 0.0 0.0
-3.5738 41.8848 58.8507 0.0 0.0
-2.9415 41.0692 59.8235 0.0 0.0
-2.2933 40.2765 60.7811 0.0 0.0
-1.6288 39.5065 61.7242 0.0 0.0
-0.9476 38.7587 62.6531 0.0 0.0
-0.2493 38.033 63.5684 0.0 0.0
0.4667 37.3292 64.4703 0.0 0.0
1.2007 36.6471 65.3593 0.0 0.0
1.9532 35.9867 66.2355 0.0 0.0
2.7247 35.3478 67.0991 0.0 0.0
3.5155 34.7306 67.9505 0.0 0.0
4.326 34.135 68.7896 0.0 0.0
5.1568 33.561 69.6165 0.0 0.0
5.6378 33.5975 69.5633 0.0 0.0
4.776 34.1846 68.719 0.0 0.0
3.9356 34.7946 67.8614 0.0 0.0
3.1162 35.4275 66.9906 0.0 0.0
2.3173 36.0832 66.1064 0.0 0.0
1.5384 36.7621 65.2084 0.0 0.0
0.779 37.4637 64.2969 0.0 0.0
0.0388 38.1884 63.3713 0.0 0.0
-0.6829 38.9363 62.4314 0.0 0.0
-1.3864 39.7076 61.4766 0.0 0.0
-2.0722 40.5027 60.5066 0.0 0.0
-2.741 41.3219 59.5209 0.0 0.0
-3.3928 42.1655 58.5186 0.0 0.0
-4.0284 43.0342 57.4994 0.0 0.0
-4.6481 43.9286 56.4623 0.0 0.0
-5.2525 44.8493 55.4063 0.0 0.0
-5.8419 45.7974 54.3303 0.0 0.0
-6.4167 46.7736 53.2337 0.0 0.0
-6.9775 47.7791 52.1149 0.0 0.0
-7.5246 48.8153 50.9725 0.0 0.0
-8.0584 49.8837 49.8048 0.0 0.0
-7.8448 50.1277 49.5395 0.0 0.0
-7.3279 49.0917 50.6694 0.0 0.0
-6.7987 48.0862 51.7753 0.0 0.0
-6.2568 47.1096 52.8585 0.0 0.0
-5.7017 46.1608 53.9208 0.0 0.0
-5.1333 45.2387 54.963 0.0 0.0
-4.5509 44.3423 55.9864 0.0 0.0
-3.9544 43.4708 56.9917 0.0 0.0
-3.3432 42.6235 57.9798 0.0 0.0
-2.7171 41.7998 58.9516 0.0 0.0
-2.0755 40.9992 59.9075 0.0 0.0
-1.4179 40.2211 60.8487 0.0 0.0
-0.7442 39.4655 61.7748 0.0 0.0
-0.0539 38.7319 62.6867 0.0 0.0
0.6535 38.0201 63.5848 0.0 0.0
1.3784 37.3299 64.4694 0.0 0.0
2.1212 36.6611 65.3407 0.0 0.0
2.8824 36.0138 66.1992 0.0 0.0
3.6622 35.3877 67.0447 0.0 0.0
4.4612 34.783 67.8776 0.0 0.0
5.2798 34.1995 68.6978 0.0 0.0
6.1182 33.6373 69.5054 0.0 0.0
6.5975 33.6804 69.4428 0.0 0.0
5.7541 34.2377 68.6436 0.0 0.0
4.9306 34.8161 67.8315 0.0 0.0
4.1264 35.4157 67.0065 0.0 0.0
3.3414 36.0366 66.1686 0.0 0.0
2.575 36.6787 65.3178 0.0 0.0
1.8269 37.3421 64.4537 0.0 0.0
1.0967 38.0269 63.5762 0.0 0.0
0.384 38.7332 62.6851 0.0 0.0
-0.3116 39.4612 61.78 0.0 0.0
-0.9906 40.2112 60.8606 0.0 0.0
-1.6535 40.9837 59.9262 0.0 0.0
-2.3004 41.7785 58.9768 0.0 0.0
-2.9318 42.5964 58.0116 0.0 0.0
-3.5482 43.4378 57.0299 0.0 0.0
-4.1499 44.3033 56.0311 0.0 0.0
-4.7373 45.1936 55.0142 0.0 0.0
-5.3108 46.1095 53.9785 0.0 0.0
-5.8709 47.052 52.9229 0.0 0.0
-6.4178 48.022 51.8461 0.0 0.0
-6.9519 49.0208 50.747 0.0 0.0
-7.4736 50.0499 49.624 0.0 0.0
-7.1017 49.976 49.7044 0.0 0.0
-6.5753 48.9538 50.8205 0.0 0.0
-6.0363 47.9616 51.9129 0.0 0.0
-5.4845 46.998 52.983 0.0 0.0
-4.9194 46.0619 54.0321 0.0 0.0
-4.3409 45.1522 55.0614 0.0 0.0
-3.7484 44.2679 56.0716 0.0 0.0
-3.1415 43.4084 57.064 0.0 0.0
-2.52 42.5729 58.0392 0.0 0.0
-1.8835 41.7608 58.9978 0.0 0.0
-1.2314 40.9717 59.9407 0.0 0.0
-0.5633 40.2049 60.8684 0.0 0.0
0.1209 39.4605 61.781 0.0 0.0
0.8218 38.7379 62.6791 0.0 0.0
1.5398 38.0371 63.5632 0.0 0.0
2.2752 37.3577 64.4335 0.0 0.0
3.0284 36.6996 65.2902 0.0 0.0
3.7999 36.0628 66.1336 0.0 0.0
4.5901 35.4471 66.9637 0.0 0.0
5.3992 34.8526 67.7808 0.0 0.0
6.2277 34.2792 68.5848 0.0 0.0
7.0759 33.7268 69.3756 0.0 0.0
7.5535 33.7766 69.3037 0.0 0.0
6.7007 34.324 68.5213 0.0 0.0
5.8674 34.8925 67.7256 0.0 0.0
5.0533 35.4819 66.9165 0.0 0.0
4.2582 36.0924 66.0941 0.0 0.0
3.4817 36.724 65.2583 0.0 0.0
2.7234 37.3767 64.4089 0.0 0.0
1.9828 38.0507 63.5458 0.0 0.0
1.2598 38.7462 62.6689 0.0 0.0
0.5537 39.4632 61.7777 0.0 0.0
-0.1356 40.202 60.8718 0.0 0.0
-0.8089 40.9632 59.9509 0.0 0.0
-1.4661 41.7466 59.0147 0.0 0.0
-2.1078 42.5529 58.0626 0.0 0.0
-2.7344 43.3826 57.094 0.0 0.0
-3.3463 44.2362 56.1082 0.0 0.0
-3.9438 45.1144 55.1044 0.0 0.0
-4.5274 46.0179 54.0816 0.0 0.0
-5.0974 46.9478 53.0391 0.0 0.0
-5.6541 47.9049 51.9756 0.0 0.0
-6.1979 48.8905 50.8899 0.0 0.0
-6.7291 49.9059 49.7806 0.0 0.0
-6.3561 49.8398 49.8527 0.0 0.0
-5.8201 48.8311 50.9552 0.0 0.0
-5.2715 47.852 52.0341 0.0 0.0
-4.71 46.9013 53.091 0.0 0.0
-4.1351 45.9777 54.127 0.0 0.0
-3.5466 45.0802 55.1432 0.0 0.0
-2.9441 44.208 56.1405 0.0 0.0
-2.3272 43.3604 57.1199 0.0 0.0
-1.6956 42.5365 58.0819 0.0 0.0
-1.0488 41.736 59.0274 0.0 0.0
-0.3866 40.9582 59.9568 0.0 0.0
0.2918 40.2027 60.8711 0.0 0.0
0.9863 39.4694 61.77 0.0 0.0
1.6974 38.7578 62.6542 0.0 0.0
2.4255 38.0678 63.5241 0.0 0.0
3.171 37.3992 64.38 0.0 0.0
3.9343 36.7517 65.2219 0.0 0.0
4.7158 36.1254 66.0501 0.0 0.0
5.5157 35.52 66.8647 0.0 0.0
6.3345 34.9356 67.6657 0.0 0.0
7.1725 34.3722 68.4532 0.0 0.0
8.0299 33.8296 69.2271 0.0 0.0
8.5051 33.886 69.1459 0.0 0.0
7.6433 34.4237 68.3806 0.0 0.0
6.8008 34.9822 67.6014 0.0 0.0
5.9774 35.5615 66.8084 0.0 0.0
5.1727 36.1617 66.0016 0.0 0.0
4.3865 36.7829 65.1811 0.0 0.0
3.6183 37.4251 64.3466 0.0 0.0
2.8678 38.0884 63.4981 0.0 0.0
2.1347 38.773 62.6354 0.0 0.0
1.4187 39.479 61.7581 0.0 0.0
0.7192 40.2068 60.8661 0.0 0.0
0.0358 40.9568 59.9586 0.0 0.0
-0.6314 41.7289 59.0359 0.0 0.0
-1.2832 42.5237 58.097 0.0 0.0
-1.9198 43.3417 57.1415 0.0 0.0
-2.5416 44.1835 56.1687 0.0 0.0
-3.1491 45.0497 55.1779 0.0 0.0
-3.7424 45.9411 54.1683 0.0 0.0
-4.3221 46.8585 53.1389 0.0 0.0
-4.8885 47.8029 52.0886 0.0 0.0
-5.4419 48.7754 51.0162 0.0 0.0
-5.9826 49.7774 49.9205 0.0 0.0
-5.6084 49.7189 49.9842 0.0 0.0
-5.063 48.7235 51.0732 0.0 0.0
-4.5049 47.7574 52.1388 0.0 0.0
-3.9337 46.8194 53.1826 0.0 0.0
-3.3492 45.9081 54.2053 0.0 0.0
-2.751 45.0228 55.2084 0.0 0.0
-2.1387 44.1626 56.1928 0.0 0.0
-1.512 43.3267 57.159 0.0 0.0
-0.8705 42.5144 58.1079 0.0 0.0
-0.2138 41.7253 59.0401 0.0 0.0
0.4584 40.9588 59.9561 0.0 0.0
1.1468 40.2144 60.8567 0.0 0.0
1.8511 39.4922 61.7419 0.0 0.0
2.5721 38.7915 62.612 0.0 0.0
3.31 38.1123 63.4676 0.0 0.0
4.0653 37.4544 64.3089 0.0 0.0
4.8383 36.8175 65.1358 0.0 0.0
5.6292 36.2015 65.9487 0.0 0.0
6.4385 35.6064 66.7475 0.0 0.0
7.2664 35.0321 67.5324 0.0 0.0
8.1133 34.4786 68.3033 0.0 0.0
8.9794 33.9457 69.06 0.0 0.0
9.4522 34.0088 68.9697 0.0 0.0
8.582 34.5368 68.2215 0.0 0.0
7.7309 35.0854 67.459 0.0 0.0
6.8986 35.6547 66.6823 0.0 0.0
6.0848 36.2446 65.8912 0.0 0.0
5.2892 36.8554 65.0861 0.0 0.0
4.5116 37.4871 64.2667 0.0 0.0
3.7516 38.1398 63.4329 0.0 0.0
3.0089 38.8136 62.5845 0.0 0.0
2.2831 39.5088 61.7214 0.0 0.0
1.574 40.2255 60.8432 0.0 0.0
0.8808 40.9644 59.9494 0.0 0.0
0.2037 41.7252 59.0401 0.0 0.0
-0.4578 42.5087 58.1146 0.0 0.0
-1.1042 43.3152 57.1723 0.0 0.0
-1.7358 44.1453 56.2127 0.0 0.0
-2.3529 44.9996 55.2349 0.0 0.0
-2.9559 45.8789 54.2384 0.0 0.0
-3.5452 46.784 53.2221 0.0 0.0
-4.121 47.7158 52.185 0.0 0.0
-4.6838 48.6755 51.126 0.0 0.0
-5.2338 49.6643 50.0439 0.0 0.0
-4.8589 49.6135 50.0993 0.0 0.0
-4.3042 48.6312 51.1747 0.0 0.0
-3.7368 47.6779 52.227 0.0 0.0
-3.1563 46.7523 53.2575 0.0 0.0
-2.5623 45.8533 54.2672 0.0 0.0
-1.9545 44.98 55.2572 0.0 0.0
-1.3327 44.1316 56.2284 0.0 0.0
-0.6963 43.3073 57.1815 0.0 0.0
-0.0451 42.5065 58.1171 0.0 0.0
0.6212 41.7287 59.0359 0.0 0.0
1.3031 40.9735 59.9385 0.0 0.0
2.001 40.2402 60.8255 0.0 0.0
2.7149 39.5289 61.6966 0.0 0.0
3.4454 38.8391 62.5526 0.0 0.0
4.1928 38.1706 63.3937 0.0 0.0
4.9574 37.5232 64.2201 0.0 0.0
5.7396 36.8968 65.032 0.0 0.0
6.5396 36.2912 65.8294 0.0 0.0
7.3577 35.7063 66.6125 0.0 0.0
8.1943 35.142 67.381 0.0 0.0
9.0496 34.5984 68.1352 0.0 0.0
9.9238 34.0752 68.8748 0.0 0.0
9.9883 34.3807 68.4412 0.0 0.0
9.0956 34.923 67.6832 0.0 0.0
8.2228 35.4868 66.9099 0.0 0.0
7.3692 36.0723 66.1209 0.0 0.0
6.535 36.6794 65.3167 0.0 0.0
5.7195 37.3086 64.4969 0.0 0.0
4.9225 37.9597 63.6616 0.0 0.0
4.1439 38.6327 62.811 0.0 0.0
3.383 39.3283 61.9443 0.0 0.0
2.6399 40.0462 61.0618 0.0 0.0
1.9137 40.7872 60.1627 0.0 0.0
1.2043 41.5514 59.247 0.0 0.0
0.5116 42.3389 58.3142 0.0 0.0
-0.1652 43.1508 57.3636 0.0 0.0
-0.8261 43.987 56.3949 0.0 0.0
-1.4719 44.8487 55.4069 0.0 0.0
-2.1028 45.7365 54.3992 0.0 0.0
-2.7188 46.6508 53.371 0.0 0.0
-3.3208 47.5933 52.3207 0.0 0.0
-3.9087 48.5646 51.248 0.0 0.0
-4.4833 49.5664 50.1505 0.0 0.0
-4.1075 49.5232 50.1976 0.0 0.0
-3.5461 48.5581 51.255 0.0 0.0
-2.9722 47.6212 52.2899 0.0 0.0
-2.385 46.7114 53.3032 0.0 0.0
-1.7846 45.8281 54.2958 0.0 0.0
-1.1704 44.9698 55.269 0.0 0.0
-0.5423 44.1362 56.2232 0.0 0.0
0.1004 43.3264 57.1594 0.0 0.0
0.7575 42.5395 58.0784 0.0 0.0
1.4299 41.7756 58.9804 0.0 0.0
2.1174 41.0336 59.8663 0.0 0.0
2.8208 40.3135 60.7362 0.0 0.0
3.5402 39.6152 61.5903 0.0 0.0
4.2757 38.9378 62.4293 0.0 0.0
5.028 38.2817 63.2531 0.0 0.0
5.797 37.6464 64.0619 0.0 0.0
6.5835 37.0316 64.8563 0.0 0.0
7.3873 36.4374 65.6356 0.0 0.0
8.209 35.8635 66.4006 0.0 0.0
9.0486 35.3099 67.151 0.0 0.0
9.9065 34.7767 67.8862 0.0 0.0
9.8261 35.1779 67.3318 0.0 0.0
8.9596 35.7297 66.581 0.0 0.0
8.1115 36.3026 65.8143 0.0 0.0
7.2821 36.8965 65.0325 0.0 0.0
6.4706 37.5117 64.235 0.0 0.0
5.6772 38.1482 63.4223 0.0 0.0
4.9012 38.8063 62.5936 0.0 0.0
4.1427 39.486 61.7495 0.0 0.0
3.401 40.1876 60.8894 0.0 0.0
2.6761 40.9117 60.0127 0.0 0.0
1.9674 41.6582 59.1198 0.0 0.0
1.2749 42.4278 58.2096 0.0 0.0
0.5978 43.2207 57.2822 0.0 0.0
-0.0638 44.0375 56.3367 0.0 0.0
-0.7106 44.8791 55.3722 0.0 0.0
-1.3425 45.7458 54.3887 0.0 0.0
-1.9604 46.6388 53.3845 0.0 0.0
-2.5642 47.5585 52.3594 0.0 0.0
-3.1545 48.5067 51.3117 0.0 0.0
-3.7314 49.4839 50.2407 0.0 0.0
-3.3549 49.4483 50.2795 0.0 0.0
-2.7609 48.457 51.3664 0.0 0.0
-2.1531 47.4963 52.4284 0.0 0.0
-1.531 46.5646 53.4676 0.0 0.0
-0.8942 45.6608 54.4846 0.0 0.0
-0.2426 44.7844 55.4804 0.0 0.0
0.4242 43.9338 56.4561 0.0 0.0
1.1069 43.1088 57.4125 0.0 0.0
1.8055 42.3088 58.3497 0.0 0.0
2.5203 41.5328 59.269 0.0 0.0
3.2521 40.7807 60.1706 0.0 0.0
4.0009 40.0522 61.0545 0.0 0.0
4.7671 39.3466 61.9217 0.0 0.0
5.5508 38.6637 62.7722 0.0 0.0
6.3528 38.0036 63.6058 0.0 0.0
7.1732 37.3656 64.4233 0.0 0.0
8.0122 36.7498 65.2244 0.0 0.0
8.8699 36.1562 66.0091 0.0 0.0
9.747 35.5843 66.7776 0.0 0.0
9.6691 35.996 66.223 0.0 0.0
8.8286 36.556 65.4791 0.0 0.0
8.0058 37.1365 64.7198 0.0 0.0
7.2004 37.7374 63.9454 0.0 0.0
6.4124 38.3592 63.1551 0.0 0.0
5.641 39.0019 62.3495 0.0 0.0
4.8864 39.6657 61.5281 0.0 0.0
4.1482 40.3506 60.6911 0.0 0.0
3.426 41.0573 59.8378 0.0 0.0
2.7196 41.786 58.9681 0.0 0.0
2.0289 42.5369 58.0814 0.0 0.0
1.3532 43.3106 57.1776 0.0 0.0
0.6924 44.1073 56.2563 0.0 0.0
0.0461 44.9281 55.3164 0.0 0.0
-0.586 45.7734 54.3574 0.0 0.0
-1.2041 46.644 53.3787 0.0 0.0
-1.8085 47.5404 52.3794 0.0 0.0
-2.3997 48.4643 51.3582 0.0 0.0
-2.978 49.4165 50.3141 0.0 0.0
-2.601 49.3886 50.3448 0.0 0.0
-2.0053 48.4221 51.4048 0.0 0.0
-1.3961 47.4852 52.4407 0.0 0.0
-0.7731 46.5764 53.4544 0.0 0.0
-0.1357 45.6946 54.4464 0.0 0.0
0.5162 44.8391 55.4178 0.0 0.0
1.1831 44.0093 56.3691 0.0 0.0
1.865 43.204 57.3016 0.0 0.0
2.5626 42.4228 58.2155 0.0 0.0
3.2762 41.6655 59.1112 0.0 0.0
4.0059 40.9311 59.9896 0.0 0.0
4.752 40.2194 60.8507 0.0 0.0
5.515 39.5304 61.6947 0.0 0.0
6.2952 38.8634 62.5223 0.0 0.0
7.0929 38.2183 63.3334 0.0 0.0
7.9079 37.5948 64.1282 0.0 0.0
8.7411 36.9931 64.9064 0.0 0.0
9.5925 36.4126 65.6685 0.0 0.0
9.517 36.8343 65.1138 0.0 0.0
8.7031 37.4011 64.3775 0.0 0.0
7.9059 37.9878 63.626 0.0 0.0
7.125 38.5945 62.8591 0.0 0.0
6.3604 39.2214 62.0768 0.0 0.0
5.6117 39.8687 61.279 0.0 0.0
4.8788 40.5367 60.4655 0.0 0.0
4.1613 41.2256 59.6361 0.0 0.0
3.4591 41.9357 58.7904 0.0 0.0
2.7717 42.6672 57.9285 0.0 0.0
2.099 43.421 57.0495 0.0 0.0
1.4407 44.1972 56.1529 0.0 0.0
0.7965 44.9965 55.2384 0.0 0.0
0.166 45.8195 54.3054 0.0 0.0
-0.4509 46.6669 53.353 0.0 0.0
-1.0547 47.5395 52.3805 0.0 0.0
-1.6455 48.4383 51.3869 0.0 0.0
-2.2237 49.3644 50.3712 0.0 0.0
-1.8461 49.344 50.3934 0.0 0.0
-1.2503 48.4035 51.4253 0.0 0.0
-0.6411 47.491 52.4343 0.0 0.0
-0.0186 46.6061 53.4211 0.0 0.0
0.618 45.7471 54.3871 0.0 0.0
1.2685 44.9138 55.3328 0.0 0.0
1.9337 44.105 56.2589 0.0 0.0
2.6135 43.3201 57.1667 0.0 0.0
3.3082 42.5587 58.0559 0.0 0.0
4.0186 41.8202 58.9273 0.0 0.0
4.7443 41.104 59.7818 0.0 0.0
5.4862 40.41 60.6189 0.0 0.0
6.244 39.7379 61.4395 0.0 0.0
7.0185 39.087 62.2437 0.0 0.0
7.8095 38.4575 63.0314 0.0 0.0
8.6177 37.8489 63.803 0.0 0.0
9.4427 37.2613 64.5582 0.0 0.0
9.3696 37.693 64.0021 0.0 0.0
8.531 38.3038 63.2253 0.0 0.0
7.7101 38.9364 62.431 0.0 0.0
6.9068 39.5913 61.6196 0.0 0.0
6.1206 40.2687 60.7908 0.0 0.0
5.3515 40.9687 59.9442 0.0 0.0
4.5992 41.6919 59.0798 0.0 0.0
3.8634 42.4385 58.1972 0.0 0.0
3.1437 43.2092 57.2955 0.0 0.0
2.4398 44.0042 56.3751 0.0 0.0
1.7515 44.8241 55.4349 0.0 0.0
1.0784 45.6698 54.4745 0.0 0.0
0.42 46.542 53.4928 0.0 0.0
-0.2237 47.4416 52.4892 0.0 0.0
-0.8531 48.3697 51.4625 0.0 0.0
-1.4685 49.3274 50.4116 0.0 0.0
-1.0908 49.3146 50.4256 0.0 0.0
-0.4962 48.4008 51.4281 0.0 0.0
0.111 47.5146 52.4081 0.0 0.0
0.7315 46.6543 53.367 0.0 0.0
1.3654 45.8193 54.3056 0.0 0.0
2.013 45.009 55.2243 0.0 0.0
2.6743 44.2222 56.1243 0.0 0.0
3.35 43.4585 57.0059 0.0 0.0
4.0402 42.7176 57.8694 0.0 0.0
4.7451 41.9987 58.7159 0.0 0.0
5.4649 41.3014 59.5453 0.0 0.0
6.2 40.6257 60.3578 0.0 0.0
6.9507 39.9708 61.154 0.0 0.0
7.717 39.3366 61.934 0.0 0.0
8.4991 38.7232 62.6976 0.0 0.0
9.2975 38.1299 63.4455 0.0 0.0
9.2266 38.5719 62.8874 0.0 0.0
8.4141 39.189 62.1169 0.0 0.0
7.6187 39.8274 61.3296 0.0 0.0
6.8395 40.4877 60.5248 0.0 0.0
6.0767 41.1698 59.7028 0.0 0.0
5.33 41.8745 58.863 0.0 0.0
4.5991 42.6017 58.0055 0.0 0.0
3.8836 43.3522 57.1293 0.0 0.0
3.1836 44.1264 56.2344 0.0 0.0
2.4983 44.9245 55.3204 0.0 0.0
1.828 45.7478 54.3863 0.0 0.0
1.1719 46.5964 53.4319 0.0 0.0
0.5299 47.4717 52.4557 0.0 0.0
-0.0982 48.3742 51.4574 0.0 0.0
-0.7128 49.3055 50.4354 0.0 0.0
-0.335 49.3003 50.4412 0.0 0.0
0.2564 48.4152 51.4123 0.0 0.0
0.86 47.5562 52.362 0.0 0.0
1.4763 46.7222 53.291 0.0 0.0
2.1056 45.9125 54.2005 0.0 0.0
2.7478 45.1262 55.0908 0.0 0.0
3.4034 44.3627 55.9628 0.0 0.0
4.0725 43.6215 56.8171 0.0 0.0
4.7555 42.9017 57.6541 0.0 0.0
5.4526 42.2034 58.4739 0.0 0.0
6.164 41.526 59.2771 0.0 0.0
6.89 40.8692 60.064 0.0 0.0
7.6306 40.2325 60.8347 0.0 0.0
8.3861 39.6158 61.5895 0.0 0.0
9.1567 39.0188 62.3285 0.0 0.0
9.0879 39.4707 61.7683 0.0 0.0
8.3028 40.0922 61.0058 0.0 0.0
7.5334 40.7346 60.2263 0.0 0.0
6.7796 41.3982 59.4297 0.0 0.0
6.0408 42.0835 58.6156 0.0 0.0
5.3174 42.7905 57.7841 0.0 0.0
4.6088 43.5199 56.9348 0.0 0.0
3.9148 44.272 56.0671 0.0 0.0
3.2351 45.0474 55.1806 0.0 0.0
2.5696 45.8467 54.2746 0.0 0.0
1.9177 46.6709 53.3484 0.0 0.0
1.2795 47.5203 52.4018 0.0 0.0
0.6547 48.396 51.4334 0.0 0.0
0.0429 49.2991 50.4425 0.0 0.0
0.4208 49.3014 50.4399 0.0 0.0
1.056 48.3768 51.4547 0.0 0.0
1.7052 47.4811 52.4454 0.0 0.0
2.3684 46.6129 53.4134 0.0 0.0
3.0461 45.7719 54.3591 0.0 0.0
3.7386 44.9569 55.2835 0.0 0.0
4.446 44.1672 56.1874 0.0 0.0
5.1686 43.4019 57.0716 0.0 0.0
5.907 42.6609 57.936 0.0 0.0
6.6609 41.9434 58.7814 0.0 0.0
7.4309 41.2488 59.6084 0.0 0.0
8.2173 40.5772 60.4165 0.0 0.0
9.02 39.9279 61.2064 0.0 0.0
8.9532 40.39 60.6433 0.0 0.0
8.1967 41.0138 59.8901 0.0 0.0
7.455 41.6576 59.1205 0.0 0.0
6.7276 42.3223 58.3338 0.0 0.0
6.0147 43.0078 57.5302 0.0 0.0
5.3157 43.7149 56.7091 0.0 0.0
4.6305 44.4435 55.8703 0.0 0.0
3.9592 45.1947 55.0131 0.0 0.0
3.3011 45.9685 54.1374 0.0 0.0
2.6564 46.7661 53.242 0.0 0.0
2.0245 47.5877 52.3269 0.0 0.0
1.4054 48.4347 51.3908 0.0 0.0
0.7987 49.3075 50.4332 0.0 0.0
1.1767 49.3174 50.4224 0.0 0.0
1.8074 48.4222 51.4047 0.0 0.0
2.4514 47.5546 52.3638 0.0 0.0
3.109 46.7136 53.3007 0.0 0.0
3.7804 45.8984 54.2163 0.0 0.0
4.4659 45.1082 55.1114 0.0 0.0
5.1655 44.3424 55.9862 0.0 0.0
5.8799 43.6001 56.8419 0.0 0.0
6.6091 42.8808 57.6785 0.0 0.0
7.3532 42.1842 58.4967 0.0 0.0
8.1126 41.5098 59.2965 0.0 0.0
8.8874 40.8573 60.0784 0.0 0.0
8.8225 41.3299 59.5112 0.0 0.0
8.0967 41.9528 58.7701 0.0 0.0
7.3844 42.5954 58.0129 0.0 0.0
6.6856 43.2578 57.2389 0.0 0.0
5.9999 43.9406 56.4484 0.0 0.0
5.3273 44.6441 55.6407 0.0 0.0
4.6674 45.3687 54.8154 0.0 0.0
4.0203 46.1151 53.9722 0.0 0.0
3.3857 46.8839 53.1105 0.0 0.0
2.7633 47.6756 52.2296 0.0 0.0
2.1529 48.491 51.3288 0.0 0.0
1.5544 49.3311 50.4075 0.0 0.0
1.9319 49.3486 50.3885 0.0 0.0
2.555 48.4857 51.3348 0.0 0.0
3.1908 47.649 52.259 0.0 0.0
3.8394 46.8376 53.1621 0.0 0.0
4.5011 46.0507 54.0447 0.0 0.0
5.1762 45.2875 54.9076 0.0 0.0
5.8649 44.5474 55.7511 0.0 0.0
6.5672 43.8299 56.5761 0.0 0.0
7.2835 43.1343 57.3827 0.0 0.0
8.0138 42.4604 58.1714 0.0 0.0
8.7585 41.8076 58.9424 0.0 0.0
8.6955 42.2906 58.3713 0.0 0.0
7.9268 42.9789 57.564 0.0 0.0
7.1734 43.6904 56.7373 0.0 0.0
6.4351 44.4256 55.8908 0.0 0.0
5.7116 45.185 55.024 0.0 0.0
5.003 45.969 54.1368 0.0 0.0
4.3086 46.7788 53.2279 0.0 0.0
3.6284 47.6149 52.2969 0.0 0.0
2.9621 48.4782 51.343 0.0 0.0
2.3095 49.3698 50.3652 0.0 0.0
2.6867 49.3948 50.3378 0.0 0.0
3.2982 48.5682 51.244 0.0 0.0
3.9215 47.766 52.1293 0.0 0.0
4.5571 46.9874 52.9948 0.0 0.0
5.2048 46.232 53.8407 0.0 0.0
5.8649 45.4989 54.6678 0.0 0.0
6.5376 44.7876 55.4766 0.0 0.0
7.2233 44.0973 56.2679 0.0 0.0
7.9218 43.4279 57.0414 0.0 0.0
8.6333 42.7789 57.7978 0.0 0.0
8.572 43.2729 57.2214 0.0 0.0
7.8355 43.9592 56.427 0.0 0.0
7.113 44.6678 55.6134 0.0 0.0
6.4045 45.3992 54.7809 0.0 0.0
5.7097 46.1543 53.9281 0.0 0.0
5.0285 46.9336 53.055 0.0 0.0
4.3605 47.7377 52.1608 0.0 0.0
3.7056 48.5672 51.245 0.0 0.0
3.0636 49.4237 50.3064 0.0 0.0
3.4405 49.4563 50.2707 0.0 0.0
4.0351 48.671 51.1309 0.0 0.0
4.6405 47.9086 51.9716 0.0 0.0
5.2572 47.1678 52.7938 0.0 0.0
5.8849 46.4485 53.5977 0.0 0.0
6.5242 45.7496 54.3842 0.0 0.0
7.175 45.0709 55.1537 0.0 0.0
7.8373 44.4121 55.9063 0.0 0.0
8.5116 43.7723 56.6427 0.0 0.0
8.452 44.2772 56.061 0.0 0.0
7.7524 44.9553 55.2853 0.0 0.0
7.0655 45.6548 54.4914 0.0 0.0
6.3912 46.3762 53.6789 0.0 0.0
5.7295 47.1197 52.8473 0.0 0.0
5.0799 47.8866 51.9958 0.0 0.0
4.4424 48.6773 51.1239 0.0 0.0
3.8169 49.4928 50.231 0.0 0.0
4.1929 49.533 50.187 0.0 0.0
4.859 48.6763 51.125 0.0 0.0
5.5384 47.8472 52.0395 0.0 0.0
6.2313 47.0446 52.9311 0.0 0.0
6.9381 46.2678 53.8006 0.0 0.0
7.6586 45.5158 54.6487 0.0 0.0
8.3933 44.7882 55.476 0.0 0.0
8.3353 45.3047 54.888 0.0 0.0
7.6798 45.9655 54.1406 0.0 0.0
7.0358 46.6459 53.3765 0.0 0.0
6.4026 47.3468 52.5945 0.0 0.0
5.7804 48.0684 51.7949 0.0 0.0
5.1693 48.8118 50.9764 0.0 0.0
4.5686 49.577 50.1389 0.0 0.0
4.9441 49.6249 50.0867 0.0 0.0
5.5865 48.8169 50.9706 0.0 0.0
6.2409 48.0339 51.8329 0.0 0.0
6.9075 47.2751 52.6742 0.0 0.0
7.5866 46.5398 53.4953 0.0 0.0
8.2782 45.8273 54.2965 0.0 0.0
8.2218 46.3562 53.7011 0.0 0.0
7.6225 46.9843 52.9982 0.0 0.0
7.0327 47.6298 52.2804 0.0 0.0
6.4524 48.2935 51.5465 0.0 0.0
5.8811 48.9754 50.7969 0.0 0.0
5.319 49.6766 50.0303 0.0 0.0
5.6934 49.7322 49.9699 0.0 0.0
6.2959 48.9902 50.7806 0.0 0.0
6.9089 48.2699 51.5724 0.0 0.0
7.5321 47.5702 52.3464 0.0 0.0
8.1661 46.8912 53.1023 0.0 0.0
8.1112 47.4326 52.4993 0.0 0.0
7.4173 48.1934 51.6569 0.0 0.0
6.7362 48.9793 50.7927 0.0 0.0
6.0675 49.7915 49.9051 0.0 0.0
6.4409 49.8547 49.8363 0.0 0.0
6.9719 49.2139 50.5358 0.0 0.0
7.5104 48.5891 51.2209 0.0 0.0
8.0571 47.9808 51.8916 0.0 0.0
8.0036 48.5356 51.2799 0.0 0.0
7.404 49.2185 50.5306 0.0 0.0
6.8138 49.9218 49.7634 0.0 0.0
7.1863 49.9928 49.6863 0.0 0.0
7.5666 49.5408 50.1784 0.0 0.0
7.9509 49.0974 50.6633 0.0 0.0
7.8988 49.6666 50.0413 0.0 0.0
7.558 50.0676 49.605 0.0 0.0
7.5597 50.0474 49.6269 0.0 0.0
7.5597 49.7569 49.4009 0.0 0.0
6.9713 48.8101 50.4242 0.0 0.0
6.37 47.892 51.4238 0.0 0.0
5.7558 47.0009 52.4011 0.0 0.0
5.1281 46.1358 53.357 0.0 0.0
4.4869 45.2964 54.2921 0.0 0.0
3.8316 44.481 55.2076 0.0 0.0
3.1623 43.6895 56.1041 0.0 0.0
2.4784 42.9214 56.9818 0.0 0.0
1.7799 42.1756 57.8416 0.0 0.0
1.0662 41.452 58.684 0.0 0.0
0.3374 40.7503 59.5087 0.0 0.0
-0.4069 40.0698 60.3168 0.0 0.0
-1.1671 39.4104 61.1082 0.0 0.0
-1.9432 38.772 61.8828 0.0 0.0
-2.7357 38.154 62.6413 0.0 0.0
-3.5444 37.5564 63.3835 0.0 0.0
-4.3698 36.9793 64.1092 0.0 0.0
-5.2119 36.4219 64.8187 0.0 0.0
-6.071 35.8846 65.5119 0.0 0.0
-6.947 35.3672 66.1883 0.0 0.0
-7.8403 34.8694 66.8484 0.0 0.0
-8.7505 34.3912 67.4917 0.0 0.0
-9.6781 33.9327 68.1175 0.0 0.0
-10.6227 33.4934 68.7264 0.0 0.0
-10.6583 33.3363 68.9464 0.0 0.0
-9.5701 33.1765 69.1715 0.0 0.0
-8.4747 33.0345 69.3728 0.0 0.0
-7.3732 32.9103 69.5498 0.0 0.0
-6.2662 32.8037 69.7022 0.0 0.0
-5.1546 32.7148 69.8302 0.0 0.0
-4.0387 32.6433 69.9332 0.0 0.0
-2.9201 32.5893 70.0112 0.0 0.0
-1.7992 32.5527 70.0641 0.0 0.0
-0.6769 32.5336 70.092 0.0 0.0
0.4461 32.5318 70.0946 0.0 0.0
1.5686 32.5474 70.072 0.0 0.0
2.6898 32.5804 70.0242 0.0 0.0
3.809 32.6308 69.9513 0.0 0.0
4.9255 32.6987 69.8534 0.0 0.0
6.0381 32.784 69.7305 0.0 0.0
7.1461 32.887 69.5831 0.0 0.0
8.2487 33.0076 69.4112 0.0 0.0
9.3455 33.1459 69.2149 0.0 0.0
10.4352 33.302 68.9946 0.0 0.0
10.2447 34.1842 67.7729 0.0 0.0
10.0609 35.0917 66.5524 0.0 0.0
9.8836 36.0237 65.3315 0.0 0.0
9.7124 36.9802 64.1079 0.0 0.0
9.5469 37.9609 62.8803 0.0 0.0
9.387 38.9656 61.6471 0.0 0.0
9.2322 39.9949 60.4063 0.0 0.0
9.0825 41.0491 59.1565 0.0 0.0
8.9374 42.1287 57.896 0.0 0.0
8.7969 43.2345 56.6229 0.0 0.0
8.6608 44.3674 55.3358 0.0 0.0
8.5287 45.5289 54.0322 0.0 0.0
8.4006 46.7204 52.7102 0.0 0.0
8.2762 47.9432 51.3678 0.0 0.0
8.1555 49.2 50.0019 0.0 0.0
8.0382 50.493 48.61 0.0 0.0
7.1737 50.3086 48.8078 0.0 0.0
6.3059 50.1457 48.9826 0.0 0.0
5.4354 50.0043 49.1346 0.0 0.0
4.5621 49.8841 49.2639 0.0 0.0
3.6868 49.7852 49.3704 0.0 0.0
2.8097 49.7074 49.4542 0.0 0.0
1.9313 49.6507 49.5153 0.0 0.0
1.052 49.615 49.5537 0.0 0.0
0.1724 49.6004 49.5695 0.0 0.0
-0.7075 49.6068 49.5626 0.0 0.0
-1.5871 49.6342 49.533 0.0 0.0
-2.4212 49.6797 49.484 0.0 0.0
-3.2541 49.7442 49.4146 0.0 0.0
-4.0858 49.8276 49.3247 0.0 0.0
-4.9158 49.9302 49.2143 0.0 0.0
-5.7437 50.0519 49.0834 0.0 0.0
-6.5691 50.1928 48.9321 0.0 0.0
-7.3919 50.353 48.76 0.0 0.0
-8.2116 50.5327 48.5675 0.0 0.0
-8.3314 49.2392 49.9596 0.0 0.0
-8.4547 47.9819 51.3256 0.0 0.0
-8.5816 46.7586 52.6681 0.0 0.0
-8.7124 45.5667 53.99 0.0 0.0
-8.8472 44.4048 55.2936 0.0 0.0
-8.9862 43.2717 56.5806 0.0 0.0
-9.1297 42.1655 57.8533 0.0 0.0
-9.2777 41.0856 59.1135 0.0 0.0
-9.4306 40.0312 60.363 0.0 0.0
-9.5885 39.0016 61.6033 0.0 0.0
-9.7518 37.9967 62.836 0.0 0.0
-9.9207 37.0157 64.0629 0.0 0.0
-10.0954 36.059 65.286 0.0 0.0
-10.2764 35.1267 66.506 0.0 0.0
-10.4639 34.2189 67.7257 0.0 0.0
-10.6583 33.3363 68.9464 0.0 0.0
-10.4419 33.4596 68.7735 0.0 0.0
-10.839 33.235 69.0889 0.0 0.0
-11.0574 33.1139 69.2602 0.0 0.0
-9.9863 32.9521 69.4901 0.0 0.0
-8.9082 32.8075 69.6968 0.0 0.0
-7.8236 32.68 69.8802 0.0 0.0
-6.7333 32.5694 70.04 0.0 0.0
-5.6382 32.4757 70.176 0.0 0.0
-4.5388 32.3988 70.288 0.0 0.0
-3.4362 32.3387 70.3758 0.0 0.0
-2.3309 32.2953 70.4394 0.0 0.0
-1.224 32.2685 70.4785 0.0 0.0
-0.1161 32.2585 70.4934 0.0 0.0
0.9919 32.265 70.4836 0.0 0.0
2.0991 32.2883 70.4496 0.0 0.0
3.2048 32.3282 70.3911 0.0 0.0
4.308 32.3848 70.3084 0.0 0.0
5.4081 32.4582 70.2015 0.0 0.0
6.5042 32.5484 70.0705 0.0 0.0
7.5956 32.6554 69.9157 0.0 0.0
8.6814 32.7794 69.7372 0.0 0.0
9.761 32.9204 69.5353 0.0 0.0
10.8336 33.0786 69.3103 0.0 0.0
10.6272 33.9883 68.041 0.0 0.0
10.4285 34.9256 66.7735 0.0 0.0
10.237 35.8898 65.5052 0.0 0.0
10.0523 36.8801 64.2348 0.0 0.0
9.8741 37.8965 62.96 0.0 0.0
9.7021 38.9393 61.679 0.0 0.0
9.5359 40.0083 60.3902 0.0 0.0
9.3752 41.1042 59.0917 0.0 0.0
9.2199 42.2276 57.7815 0.0 0.0
9.0695 43.3794 56.4575 0.0 0.0
8.9239 44.561 55.1175 0.0 0.0
8.7829 45.7733 53.7598 0.0 0.0
8.6463 47.0184 52.3818 0.0 0.0
8.5138 48.2984 50.9804 0.0 0.0
8.3852 49.6153 49.5535 0.0 0.0
8.2605 50.9721 48.0973 0.0 0.0
7.4512 50.7909 48.2911 0.0 0.0
6.6386 50.6288 48.4645 0.0 0.0
5.8234 50.4859 48.6176 0.0 0.0
5.006 50.3621 48.7504 0.0 0.0
4.1864 50.2571 48.8629 0.0 0.0
3.3652 50.1711 48.9553 0.0 0.0
2.5424 50.1039 49.0276 0.0 0.0
1.7188 50.0555 49.0796 0.0 0.0
0.8945 50.0258 49.1115 0.0 0.0
0.0696 50.0148 49.1232 0.0 0.0
-0.7553 50.0226 49.1149 0.0 0.0
-1.5797 50.0491 49.0864 0.0 0.0
-2.4429 50.097 49.0349 0.0 0.0
-3.305 50.1655 48.9613 0.0 0.0
-4.1657 50.2547 48.8655 0.0 0.0
-5.0244 50.3646 48.7476 0.0 0.0
-5.8808 50.4953 48.6074 0.0 0.0
-6.7346 50.647 48.4451 0.0 0.0
-7.5855 50.8196 48.2604 0.0 0.0
-8.433 51.0134 48.0533 0.0 0.0
-8.5602 49.6559 49.5098 0.0 0.0
-8.6913 48.3384 50.9368 0.0 0.0
-8.8265 47.0579 52.3383 0.0 0.0
-8.9659 45.8124 53.7163 0.0 0.0
-9.1098 44.5997 55.0739 0.0 0.0
-9.2583 43.4177 56.4137 0.0 0.0
-9.4117 42.2656 57.7374 0.0 0.0
-9.5701 41.1419 59.0474 0.0 0.0
-9.734 40.0458 60.3455 0.0 0.0
-9.9035 38.9765 61.6338 0.0 0.0
-10.079 37.9334 62.9142 0.0 0.0
-10.2607 36.9167 64.1883 0.0 0.0
-10.4491 35.9261 65.4579 0.0 0.0
-10.6444 34.9616 66.7254 0.0 0.0
-10.847 34.024 67.992 0.0 0.0
-11.0574 33.1139 69.2602 0.0 0.0
-10.8896 33.0873 69.2978 0.0 0.0
-10.4419 33.4596 68.7735 0.0 0.0
-10.2825 33.5513 68.6455 0.0 0.0
-9.173 33.3929 68.8671 0.0 0.0
-8.0566 33.2531 69.0634 0.0 0.0
-6.9337 33.1319 69.2346 0.0 0.0
-5.8057 33.0293 69.3803 0.0 0.0
-4.6731 32.9451 69.5002 0.0 0.0
-3.5369 32.8792 69.5942 0.0 0.0
-2.3976 32.8317 69.6622 0.0 0.0
-1.2567 32.8025 69.7042 0.0 0.0
-0.1147 32.7915 69.7199 0.0 0.0
1.0273 32.7988 69.7094 0.0 0.0
2.1685 32.8243 69.6727 0.0 0.0
3.3082 32.8682 69.61 0.0 0.0
4.4451 32.9304 69.5212 0.0 0.0
5.5784 33.0109 69.4064 0.0 0.0
6.7075 33.1098 69.2659 0.0 0.0
7.8315 33.2273 69.0999 0.0 0.0
8.9493 33.3633 68.9085 0.0 0.0
10.0602 33.518 68.6921 0.0 0.0
9.8726 34.4312 67.4375 0.0 0.0
9.6917 35.3709 66.1834 0.0 0.0
9.5173 36.3364 64.9283 0.0 0.0
9.3491 37.3275 63.6702 0.0 0.0
9.1866 38.3442 62.4069 0.0 0.0
9.0296 39.3864 61.1373 0.0 0.0
8.8779 40.4544 59.8591 0.0 0.0
8.7311 41.5491 58.5704 0.0 0.0
8.5891 42.6707 57.2698 0.0 0.0
8.4516 43.8205 55.9552 0.0 0.0
8.3183 44.9999 54.6242 0.0 0.0
8.1893 46.2098 53.275 0.0 0.0
8.0641 47.4523 51.9052 0.0 0.0
7.9426 48.7296 50.5117 0.0 0.0
7.8248 50.0438 49.0922 0.0 0.0
6.9784 49.8707 49.2783 0.0 0.0
6.1287 49.7179 49.4428 0.0 0.0
5.2765 49.5853 49.5858 0.0 0.0
4.422 49.4729 49.7072 0.0 0.0
3.5655 49.3804 49.807 0.0 0.0
2.7072 49.3079 49.8854 0.0 0.0
1.8479 49.2553 49.9422 0.0 0.0
0.9877 49.2226 49.9776 0.0 0.0
0.1271 49.2097 49.9915 0.0 0.0
-0.7337 49.2167 49.9839 0.0 0.0
-1.5941 49.2436 49.9549 0.0 0.0
-2.4003 49.2868 49.9081 0.0 0.0
-3.2054 49.3475 49.8425 0.0 0.0
-4.0093 49.4258 49.758 0.0 0.0
-4.8118 49.5216 49.6545 0.0 0.0
-5.6121 49.6351 49.5321 0.0 0.0
-6.4104 49.7663 49.3908 0.0 0.0
-7.2061 49.9152 49.2304 0.0 0.0
-7.9992 50.0821 49.0511 0.0 0.0
-8.1196 48.7673 50.4706 0.0 0.0
-8.2437 47.4895 51.8642 0.0 0.0
-8.3715 46.2466 53.2341 0.0 0.0
-8.5034 45.0363 54.5832 0.0 0.0
-8.6395 43.8566 55.9141 0.0 0.0
-8.78 42.7065 57.2286 0.0 0.0
-8.9251 41.5846 58.5289 0.0 0.0
-9.075 40.4896 59.8172 0.0 0.0
-9.23 39.4214 61.095 0.0 0.0
-9.3903 38.379 62.3642 0.0 0.0
-9.5563 37.362 63.6269 0.0 0.0
-9.7282 36.3707 64.8844 0.0 0.0
-9.9062 35.4049 66.1387 0.0 0.0
-10.0909 34.4648 67.3919 0.0 0.0
-10.2825 33.5513 68.6455 0.0 0.0
-10.0656 34.451 67.4106 0.0 0.0
-9.8561 35.3767 66.176 0.0 0.0
-9.6543 36.3274 64.9399 0.0 0.0
-9.4594 37.3032 63.7008 0.0 0.0
-9.271 38.3038 62.4567 0.0 0.0
-9.089 39.3297 61.2057 0.0 0.0
-8.913 40.3806 59.9467 0.0 0.0
-8.7425 41.4573 58.6776 0.0 0.0
-8.5776 42.5606 57.3968 0.0 0.0
-8.4179 43.6915 56.1019 0.0 0.0
-8.263 44.8506 54.7917 0.0 0.0
-8.1129 46.0397 53.4638 0.0 0.0
-7.9674 47.2603 52.1158 0.0 0.0
-7.826 48.5146 50.7451 0.0 0.0
-7.6889 49.8046 49.3496 0.0 0.0
-7.914 49.5379 49.6369 0.0 0.0
-7.9661 48.9642 50.2573 0.0 0.0
-7.3173 49.728 49.432 0.0 0.0
-6.9452 49.6554 49.5103 0.0 0.0
-7.478 49.0184 50.1984 0.0 0.0
-8.0188 48.3976 50.8724 0.0 0.0
-8.0722 47.838 51.4827 0.0 0.0
-7.5656 48.407 50.8623 0.0 0.0
-7.0657 48.9897 50.2296 0.0 0.0
-6.5725 49.5866 49.5843 0.0 0.0
-6.1991 49.5218 49.6544 0.0 0.0
-6.8303 48.7533 50.486 0.0 0.0
-7.4728 48.0078 51.2974 0.0 0.0
-8.1264 47.285 52.0887 0.0 0.0
-8.1813 46.7388 52.69 0.0 0.0
-7.5781 47.391 51.9724 0.0 0.0
-6.9845 48.0619 51.2382 0.0 0.0
-6.4001 48.7515 50.4878 0.0 0.0
-5.8253 49.4607 49.7202 0.0 0.0
-5.4511 49.4036 49.7819 0.0 0.0
-6.1276 48.5627 50.6929 0.0 0.0
-6.8174 47.7487 51.5804 0.0 0.0
-7.5205 46.961 52.445 0.0 0.0
-8.2369 46.1989 53.287 0.0 0.0
-8.2933 45.6651 53.8804 0.0 0.0
-7.6269 46.3584 53.1103 0.0 0.0
-6.9721 47.073 52.3218 0.0 0.0
-6.3288 47.8093 51.5141 0.0 0.0
-5.6969 48.5682 50.687 0.0 0.0
-5.0762 49.3503 49.8395 0.0 0.0
-4.701 49.3008 49.8929 0.0 0.0
-5.2838 48.5569 50.6992 0.0 0.0
-5.8767 47.8338 51.4874 0.0 0.0
-6.4796 47.1311 52.2578 0.0 0.0
