;FLAVOR:Marlin
;TIME:2055
;Filament used: 42.4425m
;Layer height: 0.9
;MINX:60.25
;MINY:50.389
;MINZ:0.3
;MAXX:153.75
;MAXY:163.61
;MAXZ:47.1
;Generated with Cura_SteamEngine main
M104 S200
M105
M109 S200
M82 ;absolute extrusion mode
G28 ;Home
G1 Z15.0 F6000 ;Move the platform down 15mm
;Prime the extruder
G92 E0
G1 F200 E3
G92 E0
G92 E0
G92 E0
G1 F1500 E-6.5
;LAYER_COUNT:53
;LAYER:0
M107
G0 F3600 X61.704 Y52.975 Z0.3
G0 X60.251 Y57.74
;TYPE:SKIRT
G1 F1500 E0
G1 F1800 X60.26 Y57.059 E0.12742
G1 X60.309 Y56.326 E0.26486
G1 X60.438 Y55.603 E0.40226
G1 X60.645 Y54.898 E0.53973
G1 X60.927 Y54.22 E0.67711
G1 X61.281 Y53.576 E0.81459
G1 X61.704 Y52.975 E0.95209
G1 X62.188 Y52.423 E1.08944
G1 X62.73 Y51.927 E1.22689
G1 X63.323 Y51.493 E1.36438
G1 X63.959 Y51.126 E1.50175
G1 X64.632 Y50.83 E1.6393
G1 X65.332 Y50.61 E1.77658
G1 X66.053 Y50.466 E1.91414
G1 X66.82 Y50.401 E2.05815
G1 X67.33 Y50.389 E2.15359
G1 X146.39 Y50.391 E16.94479
G1 X147.088 Y50.401 E17.07539
G1 X147.821 Y50.451 E17.21284
G1 X148.544 Y50.581 E17.35028
G1 X149.248 Y50.789 E17.48761
G1 X149.926 Y51.072 E17.62507
G1 X150.569 Y51.426 E17.76239
G1 X151.17 Y51.849 E17.89989
G1 X151.721 Y52.335 E18.03734
G1 X152.216 Y52.877 E18.17467
G1 X152.65 Y53.47 E18.31215
G1 X153.016 Y54.107 E18.4496
G1 X153.311 Y54.78 E18.58707
G1 X153.531 Y55.481 E18.72453
G1 X153.674 Y56.201 E18.86186
G1 X153.738 Y56.96 E19.00437
G1 X153.75 Y57.47 E19.09981
G1 X153.749 Y156.208 E37.57253
G1 X153.74 Y156.935 E37.70855
G1 X153.691 Y157.667 E37.84581
G1 X153.563 Y158.391 E37.98336
G1 X153.357 Y159.096 E38.12077
G1 X153.075 Y159.774 E38.25815
G1 X152.721 Y160.418 E38.39564
G1 X152.3 Y161.02 E38.53308
G1 X151.816 Y161.572 E38.67043
G1 X151.274 Y162.068 E38.80788
G1 X150.682 Y162.503 E38.94532
G1 X150.046 Y162.87 E39.0827
G1 X149.374 Y163.167 E39.22015
G1 X148.673 Y163.388 E39.35767
G1 X147.953 Y163.532 E39.49504
G1 X147.18 Y163.598 E39.64018
G1 X146.67 Y163.61 E39.73562
G1 X67.62 Y163.609 E54.52495
G1 X66.922 Y163.6 E54.65555
G1 X66.189 Y163.551 E54.79299
G1 X65.466 Y163.422 E54.93039
G1 X64.761 Y163.216 E55.06781
G1 X64.083 Y162.934 E55.20519
G1 X63.439 Y162.58 E55.34267
G1 X62.838 Y162.158 E55.48006
G1 X62.286 Y161.673 E55.61754
G1 X61.79 Y161.131 E55.75499
G1 X61.355 Y160.539 E55.89243
G1 X60.988 Y159.903 E56.02981
G1 X60.692 Y159.23 E56.16736
G1 X60.471 Y158.53 E56.30469
G1 X60.327 Y157.809 E56.44225
G1 X60.261 Y157.033 E56.58795
G1 X60.25 Y156.518 E56.68432
G1 X60.251 Y57.74 E75.16453
G0 F3600 X61.75 Y57.76
G1 F1800 X61.759 Y57.079 E75.29195
G1 X61.808 Y56.433 E75.41315
G1 X61.936 Y55.798 E75.53434
G1 X62.141 Y55.183 E75.65563
G1 X62.42 Y54.599 E75.77671
G1 X62.768 Y54.053 E75.89785
G1 X63.182 Y53.554 E76.01915
G1 X63.654 Y53.11 E76.14039
G1 X64.176 Y52.728 E76.26141
G1 X64.742 Y52.413 E76.38259
G1 X65.343 Y52.169 E76.50395
G1 X65.969 Y52.002 E76.62516
G1 X66.958 Y51.889 E76.81139
G1 X146.368 Y51.891 E91.66807
G1 X147.066 Y51.901 E91.79867
G1 X147.712 Y51.95 E91.91988
G1 X148.347 Y52.078 E92.04107
G1 X148.961 Y52.284 E92.16223
G1 X149.546 Y52.563 E92.28349
G1 X150.091 Y52.913 E92.40467
G1 X150.589 Y53.327 E92.52583
G1 X151.033 Y53.799 E92.64707
G1 X151.414 Y54.322 E92.76812
G1 X151.729 Y54.889 E92.88947
G1 X151.971 Y55.489 E93.01051
G1 X152.138 Y56.115 E93.13173
G1 X152.25 Y57.099 E93.31701
G1 X152.25 Y156.189 E111.85559
G1 X152.241 Y156.916 E111.99161
G1 X152.193 Y157.562 E112.1128
G1 X152.065 Y158.197 E112.23399
G1 X151.861 Y158.812 E112.35522
G1 X151.583 Y159.397 E112.47639
G1 X151.234 Y159.943 E112.59763
G1 X150.821 Y160.442 E112.71881
G1 X150.35 Y160.886 E112.83991
G1 X149.827 Y161.269 E112.96119
G1 X149.262 Y161.585 E113.0823
G1 X148.661 Y161.828 E113.20359
G1 X148.036 Y161.996 E113.32467
G1 X147.042 Y162.11 E113.51185
G1 X67.639 Y162.11 E128.36722
G1 X66.941 Y162.101 E128.49782
G1 X66.295 Y162.052 E128.61903
G1 X65.66 Y161.925 E128.74018
G1 X65.046 Y161.72 E128.86129
G1 X64.461 Y161.441 E128.98254
G1 X63.915 Y161.093 E129.10368
G1 X63.416 Y160.679 E129.22498
G1 X62.972 Y160.208 E129.34608
G1 X62.59 Y159.685 E129.46725
G1 X62.274 Y159.119 E129.58853
G1 X62.031 Y158.519 E129.70964
G1 X61.863 Y157.893 E129.8309
G1 X61.75 Y156.896 E130.01862
G1 X61.75 Y57.76 E148.5658
G0 F3600 X63.25 Y57.779
G1 F1800 X63.259 Y57.098 E148.69322
G1 X63.306 Y56.553 E148.79556
G1 X63.433 Y56.02 E148.89807
G1 X63.635 Y55.512 E149.00035
G1 X63.909 Y55.038 E149.10278
G1 X64.249 Y54.609 E149.20519
G1 X64.648 Y54.235 E149.3075
G1 X65.097 Y53.922 E149.4099
G1 X65.587 Y53.678 E149.51231
G1 X66.108 Y53.508 E149.61484
G1 X66.97 Y53.39 E149.77762
G1 X146.347 Y53.39 E164.62812
G1 X147.045 Y53.4 E164.75872
G1 X147.59 Y53.448 E164.86108
G1 X148.122 Y53.575 E164.96341
G1 X148.631 Y53.778 E165.06593
G1 X149.104 Y54.052 E165.1682
G1 X149.533 Y54.393 E165.27073
G1 X149.907 Y54.792 E165.37304
G1 X150.219 Y55.242 E165.47549
G1 X150.463 Y55.732 E165.5779
G1 X150.632 Y56.253 E165.68037
G1 X150.749 Y57.111 E165.84238
G1 X150.75 Y156.17 E184.37515
G1 X150.741 Y156.897 E184.51118
G1 X150.694 Y157.443 E184.61371
G1 X150.568 Y157.976 E184.71617
G1 X150.367 Y158.484 E184.81838
G1 X150.093 Y158.958 E184.92081
G1 X149.753 Y159.387 E185.02322
G1 X149.354 Y159.762 E185.12567
G1 X148.905 Y160.076 E185.22817
G1 X148.416 Y160.32 E185.33042
G1 X147.895 Y160.49 E185.43295
G1 X147.031 Y160.609 E185.59612
G1 X67.659 Y160.61 E200.44569
G1 X66.961 Y160.601 E200.57628
G1 X66.415 Y160.554 E200.67881
G1 X65.883 Y160.428 E200.7811
G1 X65.374 Y160.226 E200.88355
G1 X64.9 Y159.952 E200.98598
G1 X64.471 Y159.612 E201.08839
G1 X64.096 Y159.213 E201.19083
G1 X63.783 Y158.764 E201.29323
G1 X63.539 Y158.274 E201.39564
G1 X63.369 Y157.754 E201.498
G1 X63.251 Y156.886 E201.66188
G1 X63.25 Y57.779 E220.20364
G1 F1500 E213.70364
;MESH:custom_base_solid.STL
G0 F3600 X68.514 Y58.653
G0 X70.07 Y60.209
G1 F1500 E220.20364
G0 F3600 X69.25 Y59.39
;TYPE:WALL-INNER
G1 F1800 X69.25 Y154.61 E238.01818
G1 X144.75 Y154.61 E252.14335
G1 X144.75 Y97.14 E262.89531
G1 X144.75 Y59.39 E269.95789
G1 X69.25 Y59.39 E284.08305
G0 F3600 X70.07 Y60.209
G0 X68.57 Y58.709
G0 X67.75 Y57.89
;TYPE:WALL-OUTER
G1 F1800 X67.75 Y156.11 E302.45886
G1 X146.25 Y156.11 E317.14529
G1 X146.25 Y97.14 E328.17789
G1 X146.25 Y57.89 E335.5211
G1 X67.75 Y57.89 E350.20753
G0 F3600 X67.75 Y58.64
G0 X70.07 Y60.209
G0 X70.675 Y60.815
;TYPE:SKIN
G1 F1800 X70.675 Y153.185 E367.48887
G1 X143.325 Y153.185 E381.08083
G1 X143.325 Y97.14 E391.56619
G1 X143.325 Y60.815 E398.36217
G1 X70.675 Y60.815 E411.95414
G0 F3600 X142.175 Y61.564
G1 F1800 X142.574 Y61.964 E412.05984
G0 F3600 X142.574 Y64.085
G1 F1800 X140.053 Y61.564 E412.72685
G0 F3600 X137.932 Y61.564
G1 F1800 X142.574 Y66.207 E413.95518
G0 F3600 X142.574 Y68.328
G1 F1800 X135.811 Y61.564 E415.74468
G0 F3600 X133.689 Y61.564
G1 F1800 X142.574 Y70.449 E418.0955
G0 F3600 X142.574 Y72.571
G1 F1800 X131.568 Y61.564 E421.00763
G0 F3600 X129.447 Y61.564
G1 F1800 X142.574 Y74.692 E424.48094
G0 F3600 X142.574 Y76.813
G1 F1800 X127.325 Y61.564 E428.51556
G0 F3600 X125.204 Y61.564
G1 F1800 X142.574 Y78.935 E433.1115
G0 F3600 X142.574 Y81.056
G1 F1800 X123.083 Y61.564 E438.26861
G0 F3600 X120.961 Y61.564
G1 F1800 X142.574 Y83.177 E443.98704
G0 F3600 X142.574 Y85.298
G1 F1800 X118.84 Y61.564 E450.26665
G0 F3600 X116.719 Y61.564
G1 F1800 X142.574 Y87.42 E457.10757
G0 F3600 X142.574 Y89.541
G1 F1800 X114.597 Y61.564 E464.5098
G0 F3600 X112.476 Y61.564
G1 F1800 X142.574 Y91.662 E472.47321
G0 F3600 X142.574 Y93.784
G1 F1800 X110.355 Y61.564 E480.99793
G0 F3600 X108.234 Y61.564
G1 F1800 X142.574 Y95.905 E490.08384
G0 F3600 X142.574 Y98.026
G1 F1800 X106.112 Y61.564 E499.73105
G0 F3600 X103.991 Y61.564
G1 F1800 X142.574 Y100.148 E509.93958
G0 F3600 X142.574 Y102.269
G1 F1800 X101.87 Y61.564 E520.70929
G0 F3600 X99.748 Y61.564
G1 F1800 X142.574 Y104.39 E532.04031
G0 F3600 X142.574 Y106.512
G1 F1800 X97.627 Y61.564 E543.93264
G0 F3600 X95.506 Y61.564
G1 F1800 X142.574 Y108.633 E556.38616
G0 F3600 X142.574 Y110.754
G1 F1800 X93.384 Y61.564 E569.40098
G0 F3600 X91.263 Y61.564
G1 F1800 X142.574 Y112.876 E582.97712
G0 F3600 X142.574 Y114.997
G1 F1800 X89.142 Y61.564 E597.11444
G0 F3600 X87.02 Y61.564
G1 F1800 X142.574 Y117.118 E611.81307
G0 F3600 X142.574 Y119.24
G1 F1800 X84.899 Y61.564 E627.07301
G0 F3600 X82.778 Y61.564
G1 F1800 X142.574 Y121.361 E642.89414
G0 F3600 X142.574 Y123.482
G1 F1800 X80.656 Y61.564 E659.27657
G0 F3600 X78.535 Y61.564
G1 F1800 X142.574 Y125.604 E676.22032
G0 F3600 X142.574 Y127.725
G1 F1800 X76.414 Y61.564 E693.72525
G0 F3600 X74.292 Y61.564
G1 F1800 X142.574 Y129.846 E711.79148
G0 F3600 X142.574 Y131.968
G1 F1800 X72.171 Y61.564 E730.41904
G0 F3600 X71.424 Y62.939
G1 F1800 X142.574 Y134.089 E749.2441
G0 F3600 X142.574 Y136.21
G1 F1800 X71.424 Y65.06 E768.06916
G0 F3600 X71.424 Y67.182
G1 F1800 X142.574 Y138.332 E786.89423
G0 F3600 X142.574 Y140.453
G1 F1800 X71.424 Y69.303 E805.71929
G0 F3600 X71.424 Y71.424
G1 F1800 X142.574 Y142.574 E824.54435
G0 F3600 X142.574 Y144.695
G1 F1800 X71.424 Y73.546 E843.36928
G0 F3600 X71.424 Y75.667
G1 F1800 X142.574 Y146.817 E862.19435
G0 F3600 X142.574 Y148.938
G1 F1800 X71.424 Y77.788 E881.01941
G0 F3600 X71.424 Y79.91
G1 F1800 X142.574 Y151.059 E899.84434
G0 F3600 X141.827 Y152.433
G1 F1800 X71.424 Y82.031 E918.47163
G0 F3600 X71.424 Y84.152
G1 F1800 X139.705 Y152.433 E936.5376
G0 F3600 X137.584 Y152.433
G1 F1800 X71.424 Y86.274 E954.04226
G0 F3600 X71.424 Y88.395
G1 F1800 X135.463 Y152.433 E970.98575
G0 F3600 X133.341 Y152.433
G1 F1800 X71.424 Y90.516 E987.36792
G0 F3600 X71.424 Y92.638
G1 F1800 X131.22 Y152.433 E1003.18877
G0 F3600 X129.099 Y152.433
G1 F1800 X71.424 Y94.759 E1018.44845
G0 F3600 X71.424 Y96.88
G1 F1800 X126.977 Y152.433 E1033.14682
G0 F3600 X124.856 Y152.433
G1 F1800 X71.424 Y99.002 E1047.28387
G0 F3600 X71.424 Y101.123
G1 F1800 X122.735 Y152.433 E1060.85975
G0 F3600 X120.614 Y152.433
G1 F1800 X71.424 Y103.244 E1073.87444
G0 F3600 X71.424 Y105.365
G1 F1800 X118.492 Y152.433 E1086.32782
G0 F3600 X116.371 Y152.433
G1 F1800 X71.424 Y107.487 E1098.21989
G0 F3600 X71.424 Y109.608
G1 F1800 X114.25 Y152.433 E1109.55078
G0 F3600 X112.128 Y152.433
G1 F1800 X71.424 Y111.729 E1120.32035
G0 F3600 X71.424 Y113.851
G1 F1800 X110.007 Y152.433 E1130.52862
G0 F3600 X107.886 Y152.433
G1 F1800 X71.424 Y115.972 E1140.1757
G0 F3600 X71.424 Y118.093
G1 F1800 X105.764 Y152.433 E1149.26147
G0 F3600 X103.643 Y152.433
G1 F1800 X71.424 Y120.215 E1157.78593
G0 F3600 X71.424 Y122.336
G1 F1800 X101.522 Y152.433 E1165.74921
G0 F3600 X99.4 Y152.433
G1 F1800 X71.424 Y124.457 E1173.15118
G0 F3600 X71.424 Y126.579
G1 F1800 X97.279 Y152.433 E1179.99183
G0 F3600 X95.158 Y152.433
G1 F1800 X71.424 Y128.7 E1186.27131
G0 F3600 X71.424 Y130.821
G1 F1800 X93.036 Y152.433 E1191.98947
G0 F3600 X90.915 Y152.433
G1 F1800 X71.424 Y132.943 E1197.14632
G0 F3600 X71.424 Y135.064
G1 F1800 X88.794 Y152.433 E1201.74199
G0 F3600 X86.672 Y152.433
G1 F1800 X71.424 Y137.185 E1205.77635
G0 F3600 X71.424 Y139.307
G1 F1800 X84.551 Y152.433 E1209.2494
G0 F3600 X82.43 Y152.433
G1 F1800 X71.424 Y141.428 E1212.16126
G0 F3600 X71.424 Y143.549
G1 F1800 X80.308 Y152.433 E1214.51181
G0 F3600 X78.187 Y152.433
G1 F1800 X71.424 Y145.671 E1216.30106
G0 F3600 X71.424 Y147.792
G1 F1800 X76.066 Y152.433 E1217.52912
G0 F3600 X73.944 Y152.433
G1 F1800 X71.424 Y149.913 E1218.19586
G0 F3600 X71.424 Y152.035
G1 F1800 X71.823 Y152.433 E1218.3013
G0 F3600 X71.823 Y152.36
;MESH:NONMESH
G0 F600 X71.823 Y152.36 Z1.2
G0 F3600 X70.07 Y60.209
G0 X69.25 Y59.946
;TIME_ELAPSED:227.845356
;LAYER:1
M106 S255
;TYPE:WALL-INNER
;MESH:custom_base_solid.STL
G1 F2700 X69.25 Y154.054 E1271.12081
G1 X144.75 Y154.054 E1313.4963
G1 X144.75 Y97.696 E1345.12806
G1 X144.75 Y59.946 E1366.3158
G1 X69.25 Y59.946 E1408.69129
G0 F5400 X70.07 Y60.765
G0 X68.57 Y59.265
G0 X67.75 Y58.446
;TYPE:WALL-OUTER
G1 F1800 X67.75 Y155.554 E1463.19459
G1 X146.25 Y155.554 E1507.25388
G1 X146.25 Y97.696 E1539.72754
G1 X146.25 Y58.446 E1561.75718
G1 X67.75 Y58.446 E1605.81646
G0 F5400 X67.75 Y59.196
G0 X70.07 Y60.765
G0 X70.675 Y61.371
;TYPE:SKIN
G1 F1800 X70.675 Y152.629 E1657.03637
G1 X143.325 Y152.629 E1697.81225
G1 X143.325 Y97.696 E1728.64421
G1 X143.325 Y61.371 E1749.03215
G1 X70.675 Y61.371 E1789.80804
G0 F5400 X71.424 Y64.339
G1 F1800 X73.643 Y62.12 E1791.56937
G0 F5400 X75.765 Y62.12
G1 F1800 X71.424 Y66.46 E1795.01463
G0 F5400 X71.424 Y68.582
G1 F1800 X77.886 Y62.12 E1800.14383
G0 F5400 X80.007 Y62.12
G1 F1800 X71.424 Y70.703 E1806.95657
G0 F5400 X71.424 Y72.824
G1 F1800 X82.129 Y62.12 E1815.45325
G0 F5400 X84.25 Y62.12
G1 F1800 X71.424 Y74.946 E1825.63387
G0 F5400 X71.424 Y77.067
G1 F1800 X86.371 Y62.12 E1837.49802
G0 F5400 X88.492 Y62.12
G1 F1800 X71.424 Y79.188 E1851.04572
G0 F5400 X71.424 Y81.31
G1 F1800 X90.614 Y62.12 E1866.27775
G0 F5400 X92.735 Y62.12
G1 F1800 X71.424 Y83.431 E1883.19332
G0 F5400 X71.424 Y85.552
G1 F1800 X94.856 Y62.12 E1901.79243
G0 F5400 X96.978 Y62.12
G1 F1800 X71.424 Y87.674 E1922.07587
G0 F5400 X71.424 Y89.795
G1 F1800 X99.099 Y62.12 E1944.04285
G0 F5400 X101.22 Y62.12
G1 F1800 X71.424 Y91.916 E1967.69338
G0 F5400 X71.424 Y94.038
G1 F1800 X103.342 Y62.12 E1993.02823
G0 F5400 X105.463 Y62.12
G1 F1800 X71.424 Y96.159 E2020.04663
G0 F5400 X71.424 Y98.28
G1 F1800 X107.584 Y62.12 E2048.74857
G0 F5400 X109.706 Y62.12
G1 F1800 X71.424 Y100.402 E2079.13484
G0 F5400 X71.424 Y102.523
G1 F1800 X111.827 Y62.12 E2111.20465
G0 F5400 X113.948 Y62.12
G1 F1800 X71.424 Y104.644 E2144.958
G0 F5400 X71.424 Y106.766
G1 F1800 X116.07 Y62.12 E2180.39568
G0 F5400 X118.191 Y62.12
G1 F1800 X71.424 Y108.887 E2217.51691
G0 F5400 X71.424 Y111.008
G1 F1800 X120.312 Y62.12 E2256.32167
G0 F5400 X122.434 Y62.12
G1 F1800 X71.424 Y113.13 E2296.81077
G0 F5400 X71.424 Y115.251
G1 F1800 X124.555 Y62.12 E2338.98341
G0 F5400 X126.676 Y62.12
G1 F1800 X71.424 Y117.372 E2382.83959
G0 F5400 X71.424 Y119.493
G1 F1800 X128.798 Y62.12 E2428.37971
G0 F5400 X130.919 Y62.12
G1 F1800 X71.424 Y121.615 E2475.60376
G0 F5400 X71.424 Y123.736
G1 F1800 X133.04 Y62.12 E2524.51135
G0 F5400 X135.162 Y62.12
G1 F1800 X71.424 Y125.857 E2575.10288
G0 F5400 X71.424 Y127.979
G1 F1800 X137.283 Y62.12 E2627.37835
G0 F5400 X139.404 Y62.12
G1 F1800 X71.424 Y130.1 E2681.33736
G0 F5400 X71.424 Y132.221
G1 F1800 X141.526 Y62.12 E2736.9803
G0 F5400 X142.573 Y63.194
G1 F1800 X71.424 Y134.343 E2793.4547
G0 F5400 X71.424 Y136.464
G1 F1800 X142.573 Y65.315 E2849.92909
G0 F5400 X142.573 Y67.436
G1 F1800 X71.424 Y138.585 E2906.40349
G0 F5400 X71.424 Y140.707
G1 F1800 X142.573 Y69.558 E2962.87788
G0 F5400 X142.573 Y71.679
G1 F1800 X71.424 Y142.828 E3019.35228
G0 F5400 X71.424 Y144.949
G1 F1800 X142.573 Y73.8 E3075.82667
G0 F5400 X142.573 Y75.922
G1 F1800 X71.424 Y147.071 E3132.30107
G0 F5400 X71.424 Y149.192
G1 F1800 X142.573 Y78.043 E3188.77546
G0 F5400 X142.573 Y80.164
G1 F1800 X71.424 Y151.313 E3245.24986
G0 F5400 X72.981 Y151.878
G1 F1800 X142.573 Y82.286 E3300.48839
G0 F5400 X142.573 Y84.407
G1 F1800 X75.103 Y151.878 E3354.04298
G0 F5400 X77.224 Y151.878
G1 F1800 X142.573 Y86.528 E3405.91403
G0 F5400 X142.573 Y88.649
G1 F1800 X79.345 Y151.878 E3456.10154
G0 F5400 X81.467 Y151.878
G1 F1800 X142.573 Y90.771 E3504.60472
G0 F5400 X142.573 Y92.892
G1 F1800 X83.588 Y151.878 E3551.42436
G0 F5400 X85.709 Y151.878
G1 F1800 X142.573 Y95.013 E3596.56046
G0 F5400 X142.573 Y97.135
G1 F1800 X87.831 Y151.878 E3640.01222
G0 F5400 X89.952 Y151.878
G1 F1800 X142.573 Y99.256 E3681.78044
G0 F5400 X142.573 Y101.377
G1 F1800 X92.073 Y151.878 E3721.86513
G0 F5400 X94.195 Y151.878
G1 F1800 X142.573 Y103.499 E3760.26548
